; generated by Slic3r 0.6.1-dev on 2012-03-04 at 14:34:36

; layer_height = 0.28
; perimeters = 2
; solid_layers = 3
; fill_density = 0.15
; nozzle_diameter = 0.45
; filament_diameter = 3
; perimeter_speed = 50
; infill_speed = 125
; travel_speed = 300
; extrusion_width_ratio = 0
; scale = 1
; single wall width = 0.60mm

M104 S205 ; set temperature
M104 S205
G28
G1 Z30 
G92 E0
M109 S205
G1 E5 F30
G92 E0
G1 Z0 F3000
M109 S205 ; wait for temperature to be reached
G90 ; use absolute coordinates
G21 ; set units to millimeters
G92 E0 ; reset extrusion distance
M82 ; use absolute distances for extrusion
G1 Z0.280 F18000.000
G1 X20.953 Y20.330
G1
G1 X22.073 Y19.390 F1500.000 E0.03520
G1 X23.123 Y18.670 E0.06585
G1 X24.543 Y17.930 E0.10440
G1 X25.413 Y17.570 E0.12707
G1 X26.693 Y17.170 E0.15936
G1 X27.153 Y17.060 E0.17074
G1 X28.103 Y16.890 E0.19398
G1 X28.593 Y16.830 E0.20586
G1 X29.953 Y16.760 E0.23865
G1 X120.643 Y16.780 E2.42201
G1 X121.123 Y16.810 E2.43359
G1 X122.163 Y16.940 E2.45882
G1 X123.393 Y17.200 E2.48909
G1 X123.853 Y17.330 E2.50060
G1 X124.853 Y17.680 E2.52610
G1 X126.303 Y18.360 E2.56466
G1 X127.313 Y18.960 E2.59294
G1 X128.303 Y19.690 E2.62256
G1 X129.223 Y20.510 E2.65223
G1 X129.563 Y20.850 E2.66380
G1 X130.223 Y21.600 E2.68785
G1 X131.033 Y22.700 E2.72074
G1 X131.683 Y23.790 E2.75130
G1 X131.903 Y24.220 E2.76292
G1 X132.353 Y25.250 E2.78998
G1 X132.823 Y26.750 E2.82783
G1 X133.043 Y27.800 E2.85366
G1 X133.193 Y28.990 E2.88253
G1 X133.223 Y120.510 E5.08588
G1 X133.113 Y121.710 E5.11489
G1 X133.043 Y122.190 E5.12657
G1 X132.813 Y123.280 E5.15338
G1 X132.373 Y124.690 E5.18894
G1 X131.903 Y125.770 E5.21730
G1 X131.293 Y126.880 E5.24779
G1 X130.523 Y128.010 E5.28071
G1 X130.223 Y128.390 E5.29237
G1 X129.563 Y129.140 E5.31642
G1 X128.673 Y129.990 E5.34605
G1 X128.303 Y130.300 E5.35767
G1 X127.193 Y131.100 E5.39061
G1 X126.013 Y131.780 E5.42340
G1 X125.153 Y132.180 E5.44624
G1 X124.023 Y132.600 E5.47526
G1 X123.563 Y132.740 E5.48683
G1 X122.163 Y133.050 E5.52136
G1 X121.123 Y133.180 E5.54659
G1 X120.113 Y133.230 E5.57093
G1 X29.613 Y133.220 E7.74972
G1 X28.563 Y133.160 E7.77504
G1 X28.083 Y133.100 E7.78669
G1 X26.723 Y132.830 E7.82007
G1 X25.813 Y132.560 E7.84292
G1 X24.543 Y132.060 E7.87578
G1 X23.413 Y131.480 E7.90636
G1 X22.993 Y131.230 E7.91813
G1 X22.183 Y130.680 E7.94170
G1 X20.953 Y129.660 E7.98017
G1 X20.163 Y128.870 E8.00706
G1 X19.363 Y127.890 E8.03752
G1 X19.083 Y127.500 E8.04908
G1 X18.563 Y126.680 E8.07246
G1 X17.943 Y125.480 E8.10497
G1 X17.473 Y124.300 E8.13555
G1 X17.323 Y123.840 E8.14720
G1 X16.993 Y122.500 E8.18043
G1 X16.833 Y121.430 E8.20647
G1 X16.763 Y120.240 E8.23517
G1 X16.793 Y29.040 E10.43081
G1 X16.833 Y28.560 E10.44241
G1 X16.993 Y27.490 E10.46845
G1 X17.323 Y26.150 E10.50168
G1 X17.723 Y25.020 E10.53054
G1 X17.913 Y24.570 E10.54230
G1 X18.363 Y23.650 E10.56695
G1 X18.603 Y23.230 E10.57860
G1 X19.363 Y22.100 E10.61139
G1 X20.163 Y21.120 E10.64184
G1 X20.889 Y20.394 E10.66657
G1 X21.313 Y20.730 F18000.000
G1 X22.403 Y19.810 F1500.000 E10.70091
G1 X23.393 Y19.140 E10.72969
G1 X24.773 Y18.420 E10.76716
G1 X25.593 Y18.080 E10.78854
G1 X26.053 Y17.920 E10.80026
G1 X27.283 Y17.590 E10.83092
G1 X28.173 Y17.430 E10.85269
G1 X29.473 Y17.310 E10.88412
G1 X29.963 Y17.300 E10.89592
G1 X120.613 Y17.320 E13.07832
G1 X121.093 Y17.350 E13.08990
G1 X122.063 Y17.470 E13.11343
G1 X123.253 Y17.720 E13.14270
G1 X123.713 Y17.850 E13.15421
G1 X124.643 Y18.180 E13.17797
G1 X126.053 Y18.840 E13.21545
G1 X127.003 Y19.410 E13.24212
G1 X127.953 Y20.110 E13.27053
G1 X128.843 Y20.890 E13.29902
G1 X129.183 Y21.230 E13.31060
G1 X129.803 Y21.930 E13.33311
G1 X130.103 Y22.310 E13.34477
G1 X130.843 Y23.400 E13.37648
G1 X131.423 Y24.470 E13.40579
G1 X131.843 Y25.430 E13.43101
G1 X132.303 Y26.900 E13.46810
G1 X132.513 Y27.880 E13.49222
G1 X132.653 Y29.020 E13.51988
G1 X132.683 Y120.480 E15.72178
G1 X132.583 Y121.630 E15.74957
G1 X132.513 Y122.110 E15.76124
G1 X132.293 Y123.140 E15.78660
G1 X131.863 Y124.510 E15.82117
G1 X131.423 Y125.520 E15.84769
G1 X130.843 Y126.590 E15.87699
G1 X130.103 Y127.680 E15.90871
G1 X129.803 Y128.060 E15.92037
G1 X129.183 Y128.760 E15.94288
G1 X128.323 Y129.570 E15.97132
G1 X127.293 Y130.380 E16.00287
G1 X126.893 Y130.650 E16.01449
G1 X125.753 Y131.300 E16.04608
G1 X124.953 Y131.680 E16.06740
G1 X123.863 Y132.080 E16.09536
G1 X123.403 Y132.220 E16.10693
G1 X122.543 Y132.430 E16.12825
G1 X122.063 Y132.520 E16.14000
G1 X121.093 Y132.640 E16.16353
G1 X120.113 Y132.690 E16.18716
G1 X29.613 Y132.680 E18.36595
G1 X28.633 Y132.620 E18.38958
G1 X28.153 Y132.560 E18.40123
G1 X26.853 Y132.300 E18.43315
G1 X25.993 Y132.050 E18.45471
G1 X24.773 Y131.570 E18.48627
G1 X24.333 Y131.360 E18.49801
G1 X23.273 Y130.760 E18.52733
G1 X22.513 Y130.250 E18.54937
G1 X21.673 Y129.580 E18.57524
G1 X21.313 Y129.260 E18.58683
G1 X20.573 Y128.510 E18.61220
G1 X19.803 Y127.580 E18.64127
G1 X19.523 Y127.190 E18.65282
G1 X19.033 Y126.420 E18.67480
G1 X18.793 Y125.990 E18.68665
G1 X18.253 Y124.820 E18.71768
G1 X17.983 Y124.130 E18.73551
G1 X17.833 Y123.670 E18.74716
G1 X17.523 Y122.380 E18.77910
G1 X17.373 Y121.380 E18.80345
G1 X17.303 Y120.240 E18.83094
G1 X17.333 Y29.090 E21.02538
G1 X17.373 Y28.610 E21.03698
G1 X17.523 Y27.610 E21.06132
G1 X17.833 Y26.320 E21.09326
G1 X18.223 Y25.230 E21.12113
G1 X18.413 Y24.780 E21.13289
G1 X18.833 Y23.920 E21.15593
G1 X19.523 Y22.800 E21.18760
G1 X19.803 Y22.410 E21.19916
G1 X20.573 Y21.480 E21.22823
G1 X21.250 Y20.794 E21.25143
G1 X106.836 Y106.839 F18000.000
G1 X124.156 Y106.839 F1500.000 E21.66839
G1 X124.156 Y119.977 E21.98468
G1 X124.131 Y120.425 E21.99549
G1 X124.064 Y120.850 E22.00583
G1 X123.956 Y121.266 E22.01619
G1 X123.807 Y121.664 E22.02643
G1 X123.615 Y122.046 E22.03671
G1 X123.384 Y122.408 E22.04704
G1 X123.119 Y122.743 E22.05734
G1 X122.819 Y123.050 E22.06767
G1 X122.490 Y123.325 E22.07799
G1 X122.137 Y123.564 E22.08825
G1 X121.758 Y123.765 E22.09858
G1 X121.364 Y123.926 E22.10883
G1 X120.950 Y124.044 E22.11919
G1 X120.527 Y124.123 E22.12955
G1 X120.092 Y124.157 E22.14005
G1 X106.836 Y124.157 E22.45918
G1 X106.836 Y106.929 E22.87393
G1 X106.295 Y106.298 F18000.000
G1 X124.697 Y106.298 F1500.000 E23.31695
G1 X124.697 Y119.992 E23.64662
G1 X124.670 Y120.482 E23.65845
G1 X124.595 Y120.961 E23.67011
G1 X124.472 Y121.429 E23.68177
G1 X124.304 Y121.882 E23.69339
G1 X124.086 Y122.314 E23.70504
G1 X123.826 Y122.722 E23.71669
G1 X123.525 Y123.101 E23.72834
G1 X123.187 Y123.447 E23.74000
G1 X122.816 Y123.758 E23.75164
G1 X122.416 Y124.028 E23.76327
G1 X121.988 Y124.256 E23.77494
G1 X121.541 Y124.438 E23.78656
G1 X121.074 Y124.572 E23.79825
G1 X120.598 Y124.660 E23.80991
G1 X120.113 Y124.698 E23.82161
G1 X106.695 Y124.698 E24.14466
G1 X106.695 Y124.700 E24.14471
G1 X106.295 Y124.700 E24.15433
G1 X106.295 Y106.388 E24.59519
G1 X104.154 Y106.839 F18000.000
G1 X104.154 Y124.159 F1500.000 E25.01215
G1 X102.836 Y124.159 E25.04386
G1 X102.836 Y124.157 E25.04391
G1 X99.836 Y124.157 E25.11613
G1 X99.836 Y112.157 E25.40503
G1 X86.836 Y112.157 E25.71801
G1 X86.836 Y106.839 E25.84602
G1 X104.064 Y106.839 E26.26077
G1 X104.695 Y106.298 F18000.000
G1 X104.695 Y124.700 F1500.000 E26.70379
G1 X102.295 Y124.700 E26.76156
G1 X102.295 Y124.698 E26.76161
G1 X99.295 Y124.698 E26.83384
G1 X99.295 Y112.698 E27.12273
G1 X86.295 Y112.698 E27.43571
G1 X86.295 Y106.298 E27.58978
G1 X104.605 Y106.298 E28.03059
G1 X115.918 Y101.340 F18000.000
G1 X116.074 Y101.699 F1500.000 E28.04001
G1 X116.268 Y102.037 E28.04940
G1 X116.493 Y102.356 E28.05881
G1 X116.753 Y102.651 E28.06827
G1 X117.039 Y102.919 E28.07769
G1 X117.354 Y103.152 E28.08713
G1 X117.688 Y103.353 E28.09652
G1 X118.044 Y103.518 E28.10596
G1 X118.413 Y103.648 E28.11538
G1 X118.793 Y103.738 E28.12480
G1 X119.180 Y103.788 E28.13417
G1 X119.570 Y103.798 E28.14359
G1 X119.962 Y103.768 E28.15305
G1 X120.346 Y103.696 E28.16245
G1 X120.723 Y103.588 E28.17189
G1 X121.086 Y103.440 E28.18132
G1 X121.432 Y103.258 E28.19074
G1 X121.755 Y103.038 E28.20015
G1 X122.057 Y102.789 E28.20958
G1 X122.329 Y102.508 E28.21899
G1 X122.572 Y102.200 E28.22843
G1 X122.783 Y101.870 E28.23786
G1 X122.957 Y101.520 E28.24727
G1 X123.093 Y101.156 E28.25662
G1 X123.195 Y100.779 E28.26604
G1 X123.256 Y100.388 E28.27555
G1 X123.273 Y99.998 E28.28495
G1 X123.256 Y99.608 E28.29435
G1 X123.195 Y99.219 E28.30382
G1 X123.093 Y98.842 E28.31323
G1 X122.957 Y98.476 E28.32262
G1 X122.783 Y98.126 E28.33204
G1 X122.572 Y97.795 E28.34149
G1 X122.329 Y97.490 E28.35089
G1 X122.057 Y97.209 E28.36029
G1 X121.755 Y96.960 E28.36972
G1 X121.432 Y96.740 E28.37913
G1 X121.087 Y96.558 E28.38852
G1 X120.723 Y96.408 E28.39799
G1 X120.345 Y96.301 E28.40744
G1 X119.962 Y96.230 E28.41682
G1 X119.571 Y96.200 E28.42628
G1 X119.180 Y96.210 E28.43570
G1 X118.793 Y96.260 E28.44507
G1 X118.413 Y96.350 E28.45449
G1 X118.044 Y96.480 E28.46391
G1 X117.689 Y96.644 E28.47333
G1 X117.354 Y96.844 E28.48271
G1 X117.038 Y97.080 E28.49220
G1 X116.753 Y97.347 E28.50160
G1 X116.493 Y97.642 E28.51106
G1 X116.268 Y97.961 E28.52047
G1 X116.074 Y98.299 E28.52986
G1 X115.918 Y98.658 E28.53928
G1 X115.798 Y99.032 E28.54873
G1 X115.720 Y99.414 E28.55812
G1 X115.679 Y99.802 E28.56752
G1 X115.679 Y100.194 E28.57695
G1 X115.720 Y100.584 E28.58639
G1 X115.798 Y100.966 E28.59578
G1 X115.890 Y101.254 E28.60307
G1 X115.411 Y101.531 F18000.000
G1 X115.590 Y101.942 F1500.000 E28.61385
G1 X115.810 Y102.329 E28.62457
G1 X116.068 Y102.693 E28.63532
G1 X116.364 Y103.028 E28.64609
G1 X116.691 Y103.335 E28.65689
G1 X117.053 Y103.602 E28.66770
G1 X117.433 Y103.832 E28.67841
G1 X117.839 Y104.020 E28.68918
G1 X118.226 Y104.157 E28.69905
G1 X106.836 Y104.157 E28.97326
G1 X106.836 Y86.839 E29.39017
G1 X111.054 Y86.839 E29.49170
G1 X111.054 Y90.839 E29.58800
G1 X124.156 Y90.839 E29.90343
G1 X124.156 Y104.157 E30.22405
G1 X120.704 Y104.157 E30.30713
G1 X120.901 Y104.100 E30.31205
G1 X121.315 Y103.931 E30.32282
G1 X121.711 Y103.722 E30.33360
G1 X122.080 Y103.472 E30.34435
G1 X122.425 Y103.187 E30.35512
G1 X122.737 Y102.865 E30.36591
G1 X123.014 Y102.514 E30.37666
G1 X123.254 Y102.137 E30.38744
G1 X123.454 Y101.736 E30.39822
G1 X123.609 Y101.322 E30.40886
G1 X123.725 Y100.891 E30.41960
G1 X123.795 Y100.442 E30.43055
G1 X123.815 Y99.998 E30.44125
G1 X123.795 Y99.554 E30.45196
G1 X123.725 Y99.106 E30.46286
G1 X123.609 Y98.677 E30.47357
G1 X123.454 Y98.261 E30.48425
G1 X123.254 Y97.859 E30.49505
G1 X123.013 Y97.481 E30.50586
G1 X122.736 Y97.132 E30.51658
G1 X122.425 Y96.811 E30.52734
G1 X122.080 Y96.526 E30.53811
G1 X121.711 Y96.276 E30.54885
G1 X121.317 Y96.068 E30.55958
G1 X120.901 Y95.896 E30.57043
G1 X120.469 Y95.774 E30.58123
G1 X120.033 Y95.693 E30.59190
G1 X119.584 Y95.658 E30.60274
G1 X119.137 Y95.670 E30.61350
G1 X118.697 Y95.727 E30.62419
G1 X118.260 Y95.829 E30.63499
G1 X117.839 Y95.978 E30.64573
G1 X117.435 Y96.165 E30.65645
G1 X117.053 Y96.394 E30.66718
G1 X116.690 Y96.664 E30.67807
G1 X116.364 Y96.970 E30.68883
G1 X116.068 Y97.305 E30.69960
G1 X115.810 Y97.669 E30.71034
G1 X115.590 Y98.056 E30.72106
G1 X115.411 Y98.467 E30.73185
G1 X115.274 Y98.895 E30.74267
G1 X115.185 Y99.331 E30.75339
G1 X115.138 Y99.773 E30.76410
G1 X115.138 Y100.222 E30.77490
G1 X115.185 Y100.667 E30.78566
G1 X115.274 Y101.103 E30.79639
G1 X115.383 Y101.445 E30.80504
G1 X106.295 Y104.698 F18000.000
G1 X106.295 Y86.298 F1500.000 E31.24801
G1 X111.595 Y86.298 E31.37560
G1 X111.595 Y90.298 E31.47190
G1 X124.697 Y90.298 E31.78733
G1 X124.697 Y104.698 E32.13401
G1 X106.385 Y104.698 E32.57486
G1 X106.836 Y84.157 F18000.000
G1 X106.836 Y66.841 F1500.000 E32.99173
G1 X111.054 Y66.841 E33.09326
G1 X111.054 Y84.157 E33.51012
G1 X106.926 Y84.157 E33.60948
G1 X106.295 Y84.698 F18000.000
G1 X106.295 Y66.300 F1500.000 E34.05241
G1 X111.595 Y66.300 E34.18000
G1 X111.595 Y84.698 E34.62293
G1 X106.385 Y84.698 E34.74835
G1 X106.836 Y64.159 F18000.000
G1 X106.836 Y46.839 F1500.000 E35.16531
G1 X116.504 Y46.839 E35.39806
G1 X116.367 Y46.967 E35.40258
G1 X116.069 Y47.302 E35.41335
G1 X115.810 Y47.668 E35.42416
G1 X115.589 Y48.057 E35.43492
G1 X115.411 Y48.467 E35.44568
G1 X115.274 Y48.895 E35.45650
G1 X115.185 Y49.331 E35.46722
G1 X115.138 Y49.773 E35.47793
G1 X115.138 Y50.222 E35.48873
G1 X115.185 Y50.667 E35.49949
G1 X115.274 Y51.103 E35.51022
G1 X115.411 Y51.531 E35.52104
G1 X115.589 Y51.941 E35.53179
G1 X115.810 Y52.330 E35.54256
G1 X116.069 Y52.696 E35.55336
G1 X116.367 Y53.031 E35.56414
G1 X116.691 Y53.333 E35.57483
G1 X117.051 Y53.601 E35.58563
G1 X117.432 Y53.831 E35.59633
G1 X117.839 Y54.022 E35.60718
G1 X118.262 Y54.169 E35.61796
G1 X118.697 Y54.271 E35.62869
G1 X119.137 Y54.328 E35.63939
G1 X119.584 Y54.340 E35.65015
G1 X120.031 Y54.306 E35.66094
G1 X120.471 Y54.226 E35.67170
G1 X120.903 Y54.099 E35.68254
G1 X121.315 Y53.931 E35.69326
G1 X121.711 Y53.722 E35.70403
G1 X122.080 Y53.472 E35.71478
G1 X122.425 Y53.187 E35.72555
G1 X122.736 Y52.866 E35.73631
G1 X123.014 Y52.516 E35.74705
G1 X123.255 Y52.136 E35.75791
G1 X123.454 Y51.736 E35.76865
G1 X123.609 Y51.321 E35.77931
G1 X123.725 Y50.889 E35.79009
G1 X123.795 Y50.442 E35.80097
G1 X123.815 Y49.998 E35.81168
G1 X123.795 Y49.553 E35.82240
G1 X123.725 Y49.109 E35.83324
G1 X123.609 Y48.677 E35.84401
G1 X123.454 Y48.262 E35.85466
G1 X123.255 Y47.862 E35.86541
G1 X123.014 Y47.482 E35.87626
G1 X122.736 Y47.132 E35.88701
G1 X122.452 Y46.839 E35.89682
G1 X124.156 Y46.839 E35.93783
G1 X124.156 Y59.159 E36.23442
G1 X111.054 Y59.159 E36.54985
G1 X111.054 Y64.159 E36.67022
G1 X106.926 Y64.159 E36.76959
G1 X106.295 Y64.700 F18000.000
G1 X106.295 Y46.298 F1500.000 E37.21261
G1 X118.632 Y46.298 E37.50962
G1 X118.413 Y46.349 E37.51502
G1 X118.044 Y46.478 E37.52444
G1 X117.687 Y46.645 E37.53392
G1 X117.353 Y46.847 E37.54331
G1 X117.039 Y47.081 E37.55277
G1 X116.754 Y47.346 E37.56212
G1 X116.494 Y47.639 E37.57156
G1 X116.267 Y47.959 E37.58099
G1 X116.074 Y48.300 E37.59042
G1 X115.918 Y48.658 E37.59984
G1 X115.798 Y49.032 E37.60929
G1 X115.720 Y49.414 E37.61868
G1 X115.679 Y49.802 E37.62807
G1 X115.679 Y50.194 E37.63750
G1 X115.720 Y50.584 E37.64695
G1 X115.798 Y50.966 E37.65634
G1 X115.918 Y51.340 E37.66579
G1 X116.074 Y51.698 E37.67520
G1 X116.267 Y52.039 E37.68463
G1 X116.494 Y52.359 E37.69407
G1 X116.754 Y52.652 E37.70350
G1 X117.039 Y52.917 E37.71286
G1 X117.353 Y53.151 E37.72231
G1 X117.687 Y53.353 E37.73170
G1 X118.044 Y53.520 E37.74118
G1 X118.413 Y53.649 E37.75060
G1 X118.793 Y53.738 E37.76000
G1 X119.180 Y53.788 E37.76937
G1 X119.571 Y53.798 E37.77879
G1 X119.961 Y53.768 E37.78823
G1 X120.346 Y53.699 E37.79764
G1 X120.724 Y53.588 E37.80712
G1 X121.086 Y53.440 E37.81653
G1 X121.432 Y53.258 E37.82595
G1 X121.755 Y53.038 E37.83536
G1 X122.057 Y52.789 E37.84479
G1 X122.329 Y52.508 E37.85419
G1 X122.572 Y52.202 E37.86360
G1 X122.783 Y51.870 E37.87308
G1 X122.957 Y51.520 E37.88248
G1 X123.093 Y51.156 E37.89184
G1 X123.195 Y50.776 E37.90130
G1 X123.256 Y50.388 E37.91076
G1 X123.273 Y49.998 E37.92016
G1 X123.256 Y49.608 E37.92957
G1 X123.195 Y49.221 E37.93898
G1 X123.093 Y48.842 E37.94844
G1 X122.957 Y48.478 E37.95780
G1 X122.783 Y48.128 E37.96720
G1 X122.572 Y47.796 E37.97668
G1 X122.329 Y47.490 E37.98609
G1 X122.057 Y47.209 E37.99549
G1 X121.755 Y46.960 E38.00492
G1 X121.432 Y46.740 E38.01433
G1 X121.086 Y46.558 E38.02375
G1 X120.724 Y46.410 E38.03316
G1 X120.346 Y46.300 E38.04264
G1 X120.339 Y46.298 E38.04282
G1 X124.697 Y46.298 E38.14775
G1 X124.697 Y59.700 E38.47040
G1 X111.595 Y59.700 E38.78583
G1 X111.595 Y64.700 E38.90620
G1 X106.385 Y64.700 E39.03163
G1 X104.154 Y64.159 F18000.000
G1 X86.836 Y64.159 F1500.000 E39.44854
G1 X86.836 Y46.839 E39.86550
G1 X104.154 Y46.839 E40.28241
G1 X104.154 Y64.069 E40.69721
G1 X104.695 Y64.700 F18000.000
G1 X86.295 Y64.700 F1500.000 E41.14018
G1 X86.295 Y46.298 E41.58320
G1 X104.695 Y46.298 E42.02618
G1 X104.695 Y64.610 E42.46703
G1 X84.154 Y64.159 F18000.000
G1 X66.838 Y64.159 F1500.000 E42.88389
G1 X66.838 Y46.839 E43.30085
G1 X84.154 Y46.839 E43.71772
G1 X84.154 Y64.069 E44.13251
G1 X84.695 Y64.700 F18000.000
G1 X66.297 Y64.700 F1500.000 E44.57544
G1 X66.297 Y46.298 E45.01846
