; generated by Slic3r 0.6.1-dev on 2012-03-17 at 22:51:01

; layer_height = 0.28
; perimeters = 2
; solid_layers = 3
; fill_density = 0.15
; nozzle_diameter = 0.45
; filament_diameter = 3
; perimeter_speed = 50
; infill_speed = 125
; travel_speed = 300
; extrusion_width_ratio = 0
; scale = 1
; single wall width = 0.60mm

M104 S205 ; set temperature
M104 S205
G28
G1 Z30 
G92 E0
M109 S205
G1 E5 F30
G92 E0
G1 Z0 F3000
M109 S205 ; wait for temperature to be reached
G90 ; use absolute coordinates
G21 ; set units to millimeters
G92 E0 ; reset extrusion distance
M82 ; use absolute distances for extrusion
G1 Z0.280 F18000.000
G1 X20.870 Y20.410
G1
G1 X21.770 Y19.620 F1500.000 E0.02883
G1 X22.160 Y19.320 E0.04068
G1 X23.130 Y18.670 E0.06879
G1 X24.470 Y17.970 E0.10518
G1 X25.410 Y17.570 E0.12978
G1 X26.730 Y17.160 E0.16306
G1 X28.090 Y16.890 E0.19644
G1 X28.570 Y16.830 E0.20808
G1 X29.960 Y16.760 E0.24159
G1 X120.630 Y16.770 E2.42447
G1 X121.120 Y16.800 E2.43629
G1 X122.210 Y16.940 E2.46275
G1 X123.350 Y17.190 E2.49084
G1 X123.820 Y17.320 E2.50258
G1 X124.860 Y17.680 E2.52908
G1 X125.950 Y18.170 E2.55785
G1 X126.370 Y18.390 E2.56927
G1 X127.310 Y18.960 E2.59573
G1 X128.300 Y19.690 E2.62534
G1 X129.220 Y20.510 E2.65501
G1 X129.560 Y20.850 E2.66659
G1 X130.220 Y21.600 E2.69064
G1 X131.030 Y22.700 E2.72353
G1 X131.680 Y23.790 E2.75408
G1 X132.290 Y25.090 E2.78866
G1 X132.460 Y25.540 E2.80024
G1 X132.750 Y26.450 E2.82323
G1 X133.020 Y27.630 E2.85237
G1 X133.100 Y28.110 E2.86409
G1 X133.200 Y29.160 E2.88948
G1 X133.200 Y120.830 E5.09644
G1 X133.100 Y121.880 E5.12183
G1 X133.020 Y122.360 E5.13355
G1 X132.730 Y123.580 E5.16374
G1 X132.310 Y124.840 E5.19571
G1 X131.900 Y125.770 E5.22018
G1 X131.290 Y126.880 E5.25067
G1 X130.520 Y128.010 E5.28359
G1 X130.220 Y128.390 E5.29525
G1 X129.560 Y129.140 E5.31930
G1 X128.670 Y129.990 E5.34893
G1 X128.300 Y130.300 E5.36055
G1 X127.190 Y131.100 E5.39349
G1 X126.090 Y131.740 E5.42413
G1 X125.160 Y132.180 E5.44890
G1 X123.980 Y132.620 E5.47922
G1 X123.510 Y132.760 E5.49102
G1 X122.210 Y133.050 E5.52309
G1 X121.120 Y133.190 E5.54955
G1 X120.110 Y133.230 E5.57388
G1 X29.620 Y133.220 E7.75243
G1 X28.570 Y133.160 E7.77775
G1 X28.090 Y133.100 E7.78940
G1 X26.730 Y132.830 E7.82278
G1 X25.410 Y132.420 E7.85605
G1 X24.040 Y131.810 E7.89216
G1 X23.000 Y131.230 E7.92083
G1 X21.880 Y130.450 E7.95369
G1 X20.870 Y129.580 E7.98578
G1 X20.170 Y128.870 E8.00978
G1 X19.370 Y127.890 E8.04024
G1 X19.090 Y127.500 E8.05180
G1 X18.570 Y126.680 E8.07517
G1 X17.950 Y125.480 E8.10769
G1 X17.480 Y124.300 E8.13827
G1 X17.330 Y123.840 E8.14992
G1 X17.000 Y122.500 E8.18314
G1 X16.850 Y121.600 E8.20511
G1 X16.800 Y121.120 E8.21673
G1 X16.800 Y28.870 E10.43765
G1 X16.850 Y28.390 E10.44927
G1 X17.100 Y27.020 E10.48279
G1 X17.330 Y26.150 E10.50446
G1 X17.730 Y25.020 E10.53332
G1 X17.920 Y24.570 E10.54508
G1 X18.370 Y23.650 E10.56973
G1 X18.610 Y23.230 E10.58138
G1 X19.370 Y22.100 E10.61416
G1 X20.170 Y21.120 E10.64462
G1 X20.807 Y20.474 E10.66646
G1 X21.230 Y20.810 F18000.000
G1 X22.100 Y20.050 F1500.000 E10.69427
G1 X22.490 Y19.750 E10.70611
G1 X23.400 Y19.140 E10.73249
G1 X24.710 Y18.450 E10.76814
G1 X25.590 Y18.080 E10.79112
G1 X26.050 Y17.920 E10.80284
G1 X27.330 Y17.580 E10.83473
G1 X28.160 Y17.430 E10.85503
G1 X29.470 Y17.310 E10.88670
G1 X29.970 Y17.300 E10.89874
G1 X120.600 Y17.310 E13.08066
G1 X121.090 Y17.340 E13.09248
G1 X122.100 Y17.470 E13.11700
G1 X123.200 Y17.710 E13.14410
G1 X123.670 Y17.840 E13.15584
G1 X124.650 Y18.180 E13.18082
G1 X125.700 Y18.650 E13.20851
G1 X126.120 Y18.870 E13.21993
G1 X127.000 Y19.410 E13.24478
G1 X127.950 Y20.110 E13.27319
G1 X128.840 Y20.890 E13.30168
G1 X129.180 Y21.230 E13.31326
G1 X129.800 Y21.930 E13.33577
G1 X130.100 Y22.310 E13.34743
G1 X130.840 Y23.400 E13.37915
G1 X131.420 Y24.470 E13.40845
G1 X131.780 Y25.280 E13.42979
G1 X131.950 Y25.730 E13.44137
G1 X132.220 Y26.580 E13.46284
G1 X132.480 Y27.710 E13.49075
G1 X132.560 Y28.190 E13.50247
G1 X132.660 Y29.180 E13.52643
G1 X132.660 Y120.810 E15.73242
G1 X132.560 Y121.800 E15.75637
G1 X132.330 Y122.980 E15.78532
G1 X132.210 Y123.440 E15.79676
G1 X131.800 Y124.650 E15.82752
G1 X131.420 Y125.520 E15.85038
G1 X130.840 Y126.590 E15.87968
G1 X130.100 Y127.680 E15.91139
G1 X129.800 Y128.060 E15.92305
G1 X129.180 Y128.760 E15.94556
G1 X128.320 Y129.570 E15.97400
G1 X127.290 Y130.380 E16.00555
G1 X126.250 Y131.040 E16.03521
G1 X125.830 Y131.270 E16.04673
G1 X124.960 Y131.680 E16.06989
G1 X123.820 Y132.100 E16.09914
G1 X122.570 Y132.430 E16.13026
G1 X122.100 Y132.520 E16.14178
G1 X121.090 Y132.650 E16.16630
G1 X120.110 Y132.690 E16.18991
G1 X29.620 Y132.680 E18.36846
G1 X28.640 Y132.620 E18.39210
G1 X28.160 Y132.560 E18.40374
G1 X26.860 Y132.300 E18.43566
G1 X26.050 Y132.070 E18.45593
G1 X25.590 Y131.910 E18.46766
G1 X24.710 Y131.540 E18.49064
G1 X23.700 Y131.010 E18.51810
G1 X22.600 Y130.310 E18.54949
G1 X21.580 Y129.500 E18.58085
G1 X21.230 Y129.180 E18.59226
G1 X20.580 Y128.510 E18.61474
G1 X19.810 Y127.580 E18.64381
G1 X19.530 Y127.190 E18.65536
G1 X19.040 Y126.420 E18.67734
G1 X18.800 Y125.990 E18.68919
G1 X18.260 Y124.820 E18.72022
G1 X17.990 Y124.130 E18.73805
G1 X17.840 Y123.670 E18.74970
G1 X17.530 Y122.380 E18.78164
G1 X17.390 Y121.550 E18.80191
G1 X17.340 Y121.070 E18.81353
G1 X17.340 Y28.920 E21.03204
G1 X17.390 Y28.440 E21.04366
G1 X17.630 Y27.140 E21.07548
G1 X17.840 Y26.320 E21.09586
G1 X18.230 Y25.230 E21.12373
G1 X18.420 Y24.780 E21.13549
G1 X18.840 Y23.920 E21.15853
G1 X19.530 Y22.800 E21.19020
G1 X19.810 Y22.410 E21.20176
G1 X20.580 Y21.480 E21.23083
G1 X21.167 Y20.875 E21.25114
G1 X111.351 Y108.392 F18000.000
G1 X111.194 Y108.572 F1500.000 E21.25687
G1 X111.056 Y108.765 E21.26260
G1 X110.941 Y108.972 E21.26829
G1 X110.847 Y109.185 E21.27389
G1 X110.774 Y109.413 E21.27965
G1 X110.725 Y109.645 E21.28535
G1 X110.702 Y109.881 E21.29109
G1 X110.702 Y119.117 E21.51342
G1 X110.725 Y119.353 E21.51915
G1 X110.774 Y119.586 E21.52486
G1 X110.847 Y119.811 E21.53057
G1 X110.941 Y120.025 E21.53620
G1 X111.056 Y120.233 E21.54191
G1 X111.195 Y120.427 E21.54766
G1 X111.351 Y120.604 E21.55335
G1 X111.526 Y120.765 E21.55907
G1 X111.716 Y120.907 E21.56477
G1 X111.916 Y121.029 E21.57042
G1 X112.134 Y121.131 E21.57621
G1 X112.355 Y121.206 E21.58184
G1 X112.584 Y121.263 E21.58753
G1 X112.825 Y121.294 E21.59336
G1 X119.062 Y121.298 E21.74351
G1 X119.294 Y121.280 E21.74912
G1 X119.527 Y121.239 E21.75481
G1 X119.755 Y121.172 E21.76054
G1 X119.975 Y121.082 E21.76625
G1 X120.185 Y120.972 E21.77197
G1 X120.378 Y120.840 E21.77759
G1 X120.562 Y120.689 E21.78332
G1 X120.728 Y120.518 E21.78906
G1 X120.875 Y120.332 E21.79478
G1 X121.002 Y120.132 E21.80048
G1 X121.107 Y119.920 E21.80617
G1 X121.191 Y119.699 E21.81187
G1 X121.250 Y119.469 E21.81758
G1 X121.287 Y119.236 E21.82326
G1 X121.300 Y119.009 E21.82874
G1 X121.300 Y109.989 E22.04588
G1 X121.287 Y109.760 E22.05142
G1 X121.250 Y109.529 E22.05705
G1 X121.191 Y109.299 E22.06276
G1 X121.107 Y109.078 E22.06845
G1 X121.002 Y108.866 E22.07415
G1 X120.875 Y108.666 E22.07984
G1 X120.728 Y108.480 E22.08557
G1 X120.562 Y108.309 E22.09130
G1 X120.378 Y108.158 E22.09703
G1 X120.185 Y108.026 E22.10266
G1 X119.975 Y107.916 E22.10837
G1 X119.755 Y107.826 E22.11409
G1 X119.527 Y107.759 E22.11981
G1 X119.294 Y107.718 E22.12550
G1 X119.062 Y107.700 E22.13111
G1 X113.047 Y107.700 E22.27591
G1 X112.822 Y107.704 E22.28133
G1 X112.586 Y107.734 E22.28707
G1 X112.355 Y107.790 E22.29278
G1 X112.132 Y107.868 E22.29846
G1 X111.916 Y107.969 E22.30422
G1 X111.717 Y108.090 E22.30983
G1 X111.527 Y108.230 E22.31550
G1 X111.417 Y108.331 E22.31910
G1 X110.962 Y108.014 F18000.000
G1 X110.769 Y108.236 F1500.000 E22.32618
G1 X110.598 Y108.476 E22.33328
G1 X110.456 Y108.731 E22.34031
G1 X110.341 Y108.992 E22.34718
G1 X110.250 Y109.274 E22.35430
G1 X110.189 Y109.563 E22.36141
G1 X110.161 Y109.855 E22.36849
G1 X110.161 Y119.143 E22.59208
G1 X110.189 Y119.436 E22.59916
G1 X110.250 Y119.726 E22.60630
G1 X110.341 Y120.003 E22.61334
G1 X110.455 Y120.265 E22.62022
G1 X110.598 Y120.522 E22.62729
G1 X110.771 Y120.764 E22.63446
G1 X110.964 Y120.983 E22.64149
G1 X111.180 Y121.182 E22.64855
G1 X111.412 Y121.356 E22.65554
G1 X111.660 Y121.507 E22.66251
G1 X111.931 Y121.634 E22.66973
G1 X112.202 Y121.726 E22.67662
G1 X112.484 Y121.796 E22.68362
G1 X112.790 Y121.835 E22.69105
G1 X119.082 Y121.839 E22.84253
G1 X119.363 Y121.818 E22.84930
G1 X119.651 Y121.766 E22.85634
G1 X119.933 Y121.684 E22.86343
G1 X120.203 Y121.574 E22.87045
G1 X120.464 Y121.436 E22.87754
G1 X120.703 Y121.274 E22.88450
G1 X120.929 Y121.088 E22.89155
G1 X121.135 Y120.876 E22.89867
G1 X121.318 Y120.645 E22.90575
G1 X121.474 Y120.398 E22.91279
G1 X121.604 Y120.137 E22.91982
G1 X121.707 Y119.862 E22.92688
G1 X121.781 Y119.579 E22.93391
G1 X121.826 Y119.294 E22.94087
G1 X121.841 Y119.025 E22.94736
G1 X121.841 Y109.974 E23.16527
G1 X121.826 Y109.702 E23.17183
G1 X121.781 Y109.418 E23.17874
G1 X121.707 Y109.136 E23.18576
G1 X121.604 Y108.861 E23.19282
G1 X121.474 Y108.600 E23.19985
G1 X121.318 Y108.353 E23.20688
G1 X121.135 Y108.122 E23.21396
G1 X120.929 Y107.910 E23.22109
G1 X120.703 Y107.724 E23.22814
G1 X120.464 Y107.562 E23.23510
G1 X120.203 Y107.424 E23.24218
G1 X119.933 Y107.315 E23.24920
G1 X119.651 Y107.232 E23.25630
G1 X119.363 Y107.180 E23.26334
G1 X119.083 Y107.159 E23.27010
G1 X113.042 Y107.159 E23.41553
G1 X112.782 Y107.164 E23.42178
G1 X112.488 Y107.201 E23.42892
G1 X112.202 Y107.270 E23.43600
G1 X111.928 Y107.366 E23.44300
G1 X111.660 Y107.492 E23.45013
G1 X111.415 Y107.640 E23.45702
G1 X111.182 Y107.812 E23.46398
G1 X111.028 Y107.953 E23.46902
G1 X106.839 Y106.839 F18000.000
G1 X124.159 Y106.839 F1500.000 E23.88598
G1 X124.159 Y119.977 E24.20227
G1 X124.134 Y120.425 E24.21308
G1 X124.067 Y120.850 E24.22342
G1 X123.959 Y121.266 E24.23377
G1 X123.810 Y121.664 E24.24401
G1 X123.618 Y122.046 E24.25430
G1 X123.387 Y122.408 E24.26463
G1 X123.122 Y122.743 E24.27493
G1 X122.822 Y123.050 E24.28525
G1 X122.493 Y123.325 E24.29558
G1 X122.140 Y123.564 E24.30584
G1 X121.761 Y123.765 E24.31616
G1 X121.367 Y123.926 E24.32642
G1 X120.953 Y124.044 E24.33678
G1 X120.530 Y124.123 E24.34713
G1 X120.095 Y124.157 E24.35764
G1 X106.839 Y124.157 E24.67677
G1 X106.839 Y106.929 E25.09151
G1 X106.298 Y106.298 F18000.000
G1 X124.700 Y106.298 F1500.000 E25.53454
G1 X124.700 Y119.992 E25.86421
G1 X124.673 Y120.482 E25.87604
G1 X124.598 Y120.961 E25.88769
G1 X124.475 Y121.429 E25.89936
G1 X124.307 Y121.882 E25.91098
G1 X124.089 Y122.314 E25.92263
G1 X123.829 Y122.722 E25.93428
G1 X123.528 Y123.101 E25.94593
G1 X123.190 Y123.447 E25.95759
G1 X122.819 Y123.758 E25.96923
G1 X122.419 Y124.028 E25.98085
G1 X121.991 Y124.256 E25.99253
G1 X121.544 Y124.438 E26.00415
G1 X121.077 Y124.572 E26.01584
G1 X120.601 Y124.660 E26.02750
G1 X120.116 Y124.698 E26.03920
G1 X106.698 Y124.698 E26.36225
G1 X106.698 Y124.700 E26.36230
G1 X106.298 Y124.700 E26.37192
G1 X106.298 Y106.388 E26.81278
G1 X104.157 Y106.839 F18000.000
G1 X104.157 Y124.159 F1500.000 E27.22974
G1 X100.839 Y124.159 E27.30960
G1 X100.839 Y124.157 E27.30965
G1 X99.839 Y124.157 E27.33372
G1 X99.839 Y113.157 E27.59855
G1 X76.839 Y113.157 E28.15227
G1 X76.839 Y106.839 E28.30436
G1 X104.067 Y106.839 E28.95985
G1 X104.698 Y106.298 F18000.000
G1 X104.698 Y124.700 F1500.000 E29.40288
G1 X100.298 Y124.700 E29.50880
G1 X100.298 Y124.698 E29.50885
G1 X99.298 Y124.698 E29.53292
G1 X99.298 Y113.698 E29.79775
G1 X76.298 Y113.698 E30.35147
G1 X76.298 Y106.298 E30.52962
G1 X104.608 Y106.298 E31.21118
G1 X115.921 Y101.340 F18000.000
G1 X116.077 Y101.699 F1500.000 E31.22060
G1 X116.271 Y102.037 E31.22999
G1 X116.496 Y102.356 E31.23940
G1 X116.756 Y102.651 E31.24886
G1 X117.042 Y102.919 E31.25828
G1 X117.357 Y103.152 E31.26772
G1 X117.691 Y103.353 E31.27711
G1 X118.047 Y103.518 E31.28655
G1 X118.416 Y103.648 E31.29597
G1 X118.796 Y103.738 E31.30538
G1 X119.183 Y103.788 E31.31476
G1 X119.573 Y103.798 E31.32417
G1 X119.965 Y103.768 E31.33363
G1 X120.349 Y103.696 E31.34303
G1 X120.726 Y103.588 E31.35248
G1 X121.089 Y103.440 E31.36191
G1 X121.435 Y103.258 E31.37133
G1 X121.758 Y103.038 E31.38073
G1 X122.060 Y102.789 E31.39016
G1 X122.332 Y102.508 E31.39958
G1 X122.575 Y102.200 E31.40902
G1 X122.786 Y101.870 E31.41844
G1 X122.960 Y101.520 E31.42786
G1 X123.096 Y101.156 E31.43721
G1 X123.198 Y100.779 E31.44663
G1 X123.259 Y100.388 E31.45614
G1 X123.276 Y99.998 E31.46554
G1 X123.259 Y99.608 E31.47494
G1 X123.198 Y99.219 E31.48441
G1 X123.096 Y98.842 E31.49381
G1 X122.960 Y98.476 E31.50321
G1 X122.786 Y98.126 E31.51263
G1 X122.575 Y97.795 E31.52207
G1 X122.332 Y97.490 E31.53147
G1 X122.060 Y97.209 E31.54088
G1 X121.758 Y96.960 E31.55031
G1 X121.435 Y96.740 E31.55971
G1 X121.090 Y96.558 E31.56911
G1 X120.726 Y96.408 E31.57858
G1 X120.348 Y96.301 E31.58803
G1 X119.965 Y96.230 E31.59741
G1 X119.574 Y96.200 E31.60687
G1 X119.183 Y96.210 E31.61629
G1 X118.796 Y96.260 E31.62566
G1 X118.416 Y96.350 E31.63508
G1 X118.047 Y96.480 E31.64449
G1 X117.692 Y96.644 E31.65392
G1 X117.357 Y96.844 E31.66330
G1 X117.041 Y97.080 E31.67279
G1 X116.756 Y97.347 E31.68219
G1 X116.496 Y97.642 E31.69165
G1 X116.271 Y97.961 E31.70106
G1 X116.077 Y98.299 E31.71045
G1 X115.921 Y98.658 E31.71987
G1 X115.801 Y99.032 E31.72932
G1 X115.723 Y99.414 E31.73871
G1 X115.682 Y99.802 E31.74811
G1 X115.682 Y100.194 E31.75754
G1 X115.723 Y100.584 E31.76698
G1 X115.801 Y100.966 E31.77637
G1 X115.893 Y101.254 E31.78366
G1 X115.414 Y101.531 F18000.000
G1 X115.593 Y101.942 F1500.000 E31.79444
G1 X115.813 Y102.329 E31.80516
G1 X116.071 Y102.693 E31.81590
G1 X116.367 Y103.028 E31.82668
G1 X116.694 Y103.335 E31.83748
G1 X117.056 Y103.602 E31.84829
G1 X117.436 Y103.832 E31.85900
G1 X117.842 Y104.020 E31.86977
G1 X118.229 Y104.157 E31.87964
G1 X106.839 Y104.157 E32.15385
G1 X106.839 Y87.839 E32.54669
G1 X111.057 Y87.839 E32.64822
G1 X111.057 Y100.839 E32.96119
G1 X114.805 Y100.839 E33.05144
G1 X114.805 Y99.759 E33.07745
G1 X114.855 Y99.278 E33.08910
G1 X114.951 Y98.808 E33.10065
G1 X115.098 Y98.350 E33.11223
G1 X115.292 Y97.907 E33.12387
G1 X115.529 Y97.487 E33.13547
G1 X115.807 Y97.095 E33.14705
G1 X116.124 Y96.735 E33.15860
G1 X116.480 Y96.407 E33.17025
G1 X116.865 Y96.116 E33.18187
G1 X117.278 Y95.868 E33.19347
G1 X117.714 Y95.664 E33.20504
G1 X118.170 Y95.505 E33.21667
G1 X118.638 Y95.395 E33.22825
G1 X119.116 Y95.334 E33.23985
G1 X119.596 Y95.322 E33.25141
G1 X120.079 Y95.360 E33.26309
G1 X120.553 Y95.444 E33.27468
G1 X121.014 Y95.579 E33.28625
G1 X121.462 Y95.761 E33.29787
G1 X121.887 Y95.987 E33.30945
G1 X122.286 Y96.256 E33.32104
G1 X122.656 Y96.564 E33.33264
G1 X122.993 Y96.910 E33.34426
G1 X123.291 Y97.288 E33.35585
G1 X123.548 Y97.692 E33.36740
G1 X123.764 Y98.126 E33.37905
G1 X123.935 Y98.577 E33.39066
G1 X124.057 Y99.042 E33.40225
G1 X124.132 Y99.518 E33.41384
G1 X124.159 Y100.020 E33.42595
G1 X124.159 Y104.157 E33.52554
G1 X120.707 Y104.157 E33.60862
G1 X120.904 Y104.100 E33.61354
G1 X121.318 Y103.931 E33.62431
G1 X121.714 Y103.722 E33.63509
G1 X122.083 Y103.472 E33.64584
G1 X122.428 Y103.187 E33.65661
G1 X122.740 Y102.865 E33.66740
G1 X123.017 Y102.514 E33.67815
G1 X123.257 Y102.137 E33.68893
G1 X123.457 Y101.736 E33.69971
G1 X123.612 Y101.322 E33.71035
G1 X123.728 Y100.891 E33.72109
G1 X123.798 Y100.442 E33.73204
G1 X123.818 Y99.998 E33.74274
G1 X123.798 Y99.554 E33.75345
G1 X123.728 Y99.106 E33.76435
G1 X123.612 Y98.677 E33.77506
G1 X123.457 Y98.261 E33.78574
G1 X123.257 Y97.859 E33.79654
G1 X123.016 Y97.481 E33.80735
G1 X122.739 Y97.132 E33.81807
G1 X122.428 Y96.811 E33.82883
G1 X122.083 Y96.526 E33.83960
G1 X121.714 Y96.276 E33.85034
G1 X121.320 Y96.068 E33.86107
G1 X120.904 Y95.896 E33.87192
G1 X120.472 Y95.774 E33.88272
G1 X120.036 Y95.693 E33.89339
G1 X119.587 Y95.658 E33.90423
G1 X119.140 Y95.670 E33.91499
G1 X118.700 Y95.727 E33.92568
G1 X118.263 Y95.829 E33.93648
G1 X117.842 Y95.978 E33.94722
G1 X117.438 Y96.165 E33.95794
G1 X117.056 Y96.394 E33.96867
G1 X116.693 Y96.664 E33.97956
G1 X116.367 Y96.970 E33.99032
G1 X116.071 Y97.305 E34.00109
G1 X115.813 Y97.669 E34.01184
