; generated by Slic3r 0.6.1-dev on 2012-03-16 at 19:58:14

; layer_height = 0.28
; perimeters = 2
; solid_layers = 3
; fill_density = 0.15
; nozzle_diameter = 0.45
; filament_diameter = 3
; perimeter_speed = 50
; infill_speed = 125
; travel_speed = 300
; extrusion_width_ratio = 0
; scale = 1
; single wall width = 0.60mm

M104 S205 ; set temperature
M104 S205
G28
G1 Z30 
G92 E0
M109 S205
G1 E5 F30
G92 E0
G1 Z0 F3000
M109 S205 ; wait for temperature to be reached
G90 ; use absolute coordinates
G21 ; set units to millimeters
G92 E0 ; reset extrusion distance
M82 ; use absolute distances for extrusion
G1 Z0.280 F18000.000
G1 X20.953 Y20.330
G1
G1 X22.073 Y19.390 F1500.000 E0.03520
G1 X23.123 Y18.670 E0.06585
G1 X24.543 Y17.930 E0.10440
G1 X25.413 Y17.570 E0.12707
G1 X26.693 Y17.170 E0.15936
G1 X27.153 Y17.060 E0.17074
G1 X28.103 Y16.890 E0.19398
G1 X28.593 Y16.830 E0.20586
G1 X29.953 Y16.760 E0.23865
G1 X120.643 Y16.780 E2.42201
G1 X121.123 Y16.810 E2.43359
G1 X122.163 Y16.940 E2.45882
G1 X123.393 Y17.200 E2.48909
G1 X123.853 Y17.330 E2.50060
G1 X124.853 Y17.680 E2.52610
G1 X126.303 Y18.360 E2.56466
G1 X127.313 Y18.960 E2.59294
G1 X128.303 Y19.690 E2.62256
G1 X129.223 Y20.510 E2.65223
G1 X129.563 Y20.850 E2.66380
G1 X130.223 Y21.600 E2.68785
G1 X131.033 Y22.700 E2.72074
G1 X131.683 Y23.790 E2.75130
G1 X131.903 Y24.220 E2.76292
G1 X132.353 Y25.250 E2.78998
G1 X132.823 Y26.750 E2.82783
G1 X133.043 Y27.800 E2.85366
G1 X133.193 Y28.990 E2.88253
G1 X133.223 Y120.510 E5.08588
G1 X133.113 Y121.710 E5.11489
G1 X133.043 Y122.190 E5.12657
G1 X132.813 Y123.280 E5.15338
G1 X132.373 Y124.690 E5.18894
G1 X131.903 Y125.770 E5.21730
G1 X131.293 Y126.880 E5.24779
G1 X130.523 Y128.010 E5.28071
G1 X130.223 Y128.390 E5.29237
G1 X129.563 Y129.140 E5.31642
G1 X128.673 Y129.990 E5.34605
G1 X128.303 Y130.300 E5.35767
G1 X127.193 Y131.100 E5.39061
G1 X126.013 Y131.780 E5.42340
G1 X125.153 Y132.180 E5.44624
G1 X124.023 Y132.600 E5.47526
G1 X123.563 Y132.740 E5.48683
G1 X122.163 Y133.050 E5.52136
G1 X121.123 Y133.180 E5.54659
G1 X120.113 Y133.230 E5.57093
G1 X29.613 Y133.220 E7.74972
G1 X28.563 Y133.160 E7.77504
G1 X28.083 Y133.100 E7.78669
G1 X26.723 Y132.830 E7.82007
G1 X25.813 Y132.560 E7.84292
G1 X24.543 Y132.060 E7.87578
G1 X23.413 Y131.480 E7.90636
G1 X22.993 Y131.230 E7.91813
G1 X22.183 Y130.680 E7.94170
G1 X20.953 Y129.660 E7.98017
G1 X20.163 Y128.870 E8.00706
G1 X19.363 Y127.890 E8.03752
G1 X19.083 Y127.500 E8.04908
G1 X18.563 Y126.680 E8.07246
G1 X17.943 Y125.480 E8.10497
G1 X17.473 Y124.300 E8.13555
G1 X17.323 Y123.840 E8.14720
G1 X16.993 Y122.500 E8.18043
G1 X16.833 Y121.430 E8.20647
G1 X16.763 Y120.240 E8.23517
G1 X16.793 Y29.040 E10.43081
G1 X16.833 Y28.560 E10.44241
G1 X16.993 Y27.490 E10.46845
G1 X17.323 Y26.150 E10.50168
G1 X17.723 Y25.020 E10.53054
G1 X17.913 Y24.570 E10.54230
G1 X18.363 Y23.650 E10.56695
G1 X18.603 Y23.230 E10.57860
G1 X19.363 Y22.100 E10.61139
G1 X20.163 Y21.120 E10.64184
G1 X20.889 Y20.394 E10.66657
G1 X21.313 Y20.730 F18000.000
G1 X22.403 Y19.810 F1500.000 E10.70091
G1 X23.393 Y19.140 E10.72969
G1 X24.773 Y18.420 E10.76716
G1 X25.593 Y18.080 E10.78854
G1 X26.053 Y17.920 E10.80026
G1 X27.283 Y17.590 E10.83092
G1 X28.173 Y17.430 E10.85269
G1 X29.473 Y17.310 E10.88412
G1 X29.963 Y17.300 E10.89592
G1 X120.613 Y17.320 E13.07832
G1 X121.093 Y17.350 E13.08990
G1 X122.063 Y17.470 E13.11343
G1 X123.253 Y17.720 E13.14270
G1 X123.713 Y17.850 E13.15421
G1 X124.643 Y18.180 E13.17797
G1 X126.053 Y18.840 E13.21545
G1 X127.003 Y19.410 E13.24212
G1 X127.953 Y20.110 E13.27053
G1 X128.843 Y20.890 E13.29902
G1 X129.183 Y21.230 E13.31060
G1 X129.803 Y21.930 E13.33311
G1 X130.103 Y22.310 E13.34477
G1 X130.843 Y23.400 E13.37648
G1 X131.423 Y24.470 E13.40579
G1 X131.843 Y25.430 E13.43101
G1 X132.303 Y26.900 E13.46810
G1 X132.513 Y27.880 E13.49222
G1 X132.653 Y29.020 E13.51988
G1 X132.683 Y120.480 E15.72178
G1 X132.583 Y121.630 E15.74957
G1 X132.513 Y122.110 E15.76124
G1 X132.293 Y123.140 E15.78660
G1 X131.863 Y124.510 E15.82117
G1 X131.423 Y125.520 E15.84769
G1 X130.843 Y126.590 E15.87699
G1 X130.103 Y127.680 E15.90871
G1 X129.803 Y128.060 E15.92037
G1 X129.183 Y128.760 E15.94288
G1 X128.323 Y129.570 E15.97132
G1 X127.293 Y130.380 E16.00287
G1 X126.893 Y130.650 E16.01449
G1 X125.753 Y131.300 E16.04608
G1 X124.953 Y131.680 E16.06740
G1 X123.863 Y132.080 E16.09536
G1 X123.403 Y132.220 E16.10693
G1 X122.543 Y132.430 E16.12825
G1 X122.063 Y132.520 E16.14000
G1 X121.093 Y132.640 E16.16353
G1 X120.113 Y132.690 E16.18716
G1 X29.613 Y132.680 E18.36595
G1 X28.633 Y132.620 E18.38958
G1 X28.153 Y132.560 E18.40123
G1 X26.853 Y132.300 E18.43315
G1 X25.993 Y132.050 E18.45471
G1 X24.773 Y131.570 E18.48627
G1 X24.333 Y131.360 E18.49801
G1 X23.273 Y130.760 E18.52733
G1 X22.513 Y130.250 E18.54937
G1 X21.673 Y129.580 E18.57524
G1 X21.313 Y129.260 E18.58683
G1 X20.573 Y128.510 E18.61220
G1 X19.803 Y127.580 E18.64127
G1 X19.523 Y127.190 E18.65282
G1 X19.033 Y126.420 E18.67480
G1 X18.793 Y125.990 E18.68665
G1 X18.253 Y124.820 E18.71768
G1 X17.983 Y124.130 E18.73551
G1 X17.833 Y123.670 E18.74716
G1 X17.523 Y122.380 E18.77910
G1 X17.373 Y121.380 E18.80345
G1 X17.303 Y120.240 E18.83094
G1 X17.333 Y29.090 E21.02538
G1 X17.373 Y28.610 E21.03698
G1 X17.523 Y27.610 E21.06132
G1 X17.833 Y26.320 E21.09326
G1 X18.223 Y25.230 E21.12113
G1 X18.413 Y24.780 E21.13289
G1 X18.833 Y23.920 E21.15593
G1 X19.523 Y22.800 E21.18760
G1 X19.803 Y22.410 E21.19916
G1 X20.573 Y21.480 E21.22823
G1 X21.250 Y20.794 E21.25143
G1 X106.836 Y106.839 F18000.000
G1 X124.156 Y106.839 F1500.000 E21.66839
G1 X124.156 Y119.977 E21.98468
G1 X124.131 Y120.425 E21.99549
G1 X124.064 Y120.850 E22.00583
G1 X123.956 Y121.266 E22.01619
G1 X123.807 Y121.664 E22.02643
G1 X123.615 Y122.046 E22.03671
G1 X123.384 Y122.408 E22.04704
G1 X123.119 Y122.743 E22.05734
G1 X122.819 Y123.050 E22.06767
G1 X122.490 Y123.325 E22.07799
G1 X122.137 Y123.564 E22.08825
G1 X121.758 Y123.765 E22.09858
G1 X121.364 Y123.926 E22.10883
G1 X120.950 Y124.044 E22.11919
G1 X120.527 Y124.123 E22.12955
G1 X120.092 Y124.157 E22.14005
G1 X106.836 Y124.157 E22.45918
G1 X106.836 Y106.929 E22.87393
G1 X106.295 Y106.298 F18000.000
G1 X124.697 Y106.298 F1500.000 E23.31695
G1 X124.697 Y119.992 E23.64662
G1 X124.670 Y120.482 E23.65845
G1 X124.595 Y120.961 E23.67011
G1 X124.472 Y121.429 E23.68177
G1 X124.304 Y121.882 E23.69339
G1 X124.086 Y122.314 E23.70504
G1 X123.826 Y122.722 E23.71669
G1 X123.525 Y123.101 E23.72834
G1 X123.187 Y123.447 E23.74000
G1 X122.816 Y123.758 E23.75164
G1 X122.416 Y124.028 E23.76327
G1 X121.988 Y124.256 E23.77494
G1 X121.541 Y124.438 E23.78656
G1 X121.074 Y124.572 E23.79825
G1 X120.598 Y124.660 E23.80991
G1 X120.113 Y124.698 E23.82161
G1 X106.695 Y124.698 E24.14466
G1 X106.695 Y124.700 E24.14471
G1 X106.295 Y124.700 E24.15433
G1 X106.295 Y106.388 E24.59519
G1 X104.154 Y106.839 F18000.000
G1 X104.154 Y124.159 F1500.000 E25.01215
G1 X102.836 Y124.159 E25.04386
G1 X102.836 Y124.157 E25.04391
G1 X101.836 Y124.157 E25.06798
G1 X101.836 Y113.157 E25.33281
G1 X76.836 Y113.157 E25.93468
G1 X76.836 Y106.839 E26.08677
G1 X104.064 Y106.839 E26.74227
G1 X104.695 Y106.298 F18000.000
G1 X104.695 Y124.700 F1500.000 E27.18529
G1 X102.295 Y124.700 E27.24306
G1 X102.295 Y124.698 E27.24311
G1 X101.295 Y124.698 E27.26719
G1 X101.295 Y113.698 E27.53201
G1 X76.295 Y113.698 E28.13389
G1 X76.295 Y106.298 E28.31203
G1 X104.605 Y106.298 E28.99359
G1 X115.918 Y101.340 F18000.000
G1 X116.074 Y101.699 F1500.000 E29.00301
G1 X116.268 Y102.037 E29.01240
G1 X116.493 Y102.356 E29.02181
G1 X116.753 Y102.651 E29.03127
G1 X117.039 Y102.919 E29.04069
G1 X117.354 Y103.152 E29.05013
G1 X117.688 Y103.353 E29.05952
G1 X118.044 Y103.518 E29.06896
G1 X118.413 Y103.648 E29.07838
G1 X118.793 Y103.738 E29.08780
G1 X119.180 Y103.788 E29.09717
G1 X119.570 Y103.798 E29.10659
G1 X119.962 Y103.768 E29.11605
G1 X120.346 Y103.696 E29.12545
G1 X120.723 Y103.588 E29.13489
G1 X121.086 Y103.440 E29.14432
G1 X121.432 Y103.258 E29.15374
G1 X121.755 Y103.038 E29.16315
G1 X122.057 Y102.789 E29.17258
G1 X122.329 Y102.508 E29.18199
G1 X122.572 Y102.200 E29.19143
G1 X122.783 Y101.870 E29.20086
G1 X122.957 Y101.520 E29.21027
G1 X123.093 Y101.156 E29.21962
G1 X123.195 Y100.779 E29.22904
G1 X123.256 Y100.388 E29.23855
G1 X123.273 Y99.998 E29.24795
G1 X123.256 Y99.608 E29.25735
G1 X123.195 Y99.219 E29.26682
G1 X123.093 Y98.842 E29.27623
G1 X122.957 Y98.476 E29.28562
G1 X122.783 Y98.126 E29.29504
G1 X122.572 Y97.795 E29.30449
G1 X122.329 Y97.490 E29.31389
G1 X122.057 Y97.209 E29.32329
G1 X121.755 Y96.960 E29.33272
G1 X121.432 Y96.740 E29.34213
G1 X121.087 Y96.558 E29.35152
G1 X120.723 Y96.408 E29.36099
G1 X120.345 Y96.301 E29.37044
G1 X119.962 Y96.230 E29.37982
G1 X119.571 Y96.200 E29.38928
G1 X119.180 Y96.210 E29.39870
G1 X118.793 Y96.260 E29.40807
G1 X118.413 Y96.350 E29.41749
G1 X118.044 Y96.480 E29.42691
G1 X117.689 Y96.644 E29.43633
G1 X117.354 Y96.844 E29.44571
G1 X117.038 Y97.080 E29.45520
G1 X116.753 Y97.347 E29.46460
G1 X116.493 Y97.642 E29.47406
G1 X116.268 Y97.961 E29.48347
G1 X116.074 Y98.299 E29.49286
G1 X115.918 Y98.658 E29.50228
G1 X115.798 Y99.032 E29.51173
G1 X115.720 Y99.414 E29.52112
G1 X115.679 Y99.802 E29.53052
G1 X115.679 Y100.194 E29.53995
G1 X115.720 Y100.584 E29.54939
G1 X115.798 Y100.966 E29.55878
G1 X115.890 Y101.254 E29.56607
G1 X115.411 Y101.531 F18000.000
G1 X115.590 Y101.942 F1500.000 E29.57685
G1 X115.810 Y102.329 E29.58757
G1 X116.068 Y102.693 E29.59832
G1 X116.364 Y103.028 E29.60909
G1 X116.691 Y103.335 E29.61989
G1 X117.053 Y103.602 E29.63070
G1 X117.433 Y103.832 E29.64141
G1 X117.839 Y104.020 E29.65218
G1 X118.226 Y104.157 E29.66205
G1 X106.836 Y104.157 E29.93626
G1 X106.836 Y84.089 E30.41938
G1 X111.054 Y84.089 E30.52091
G1 X111.054 Y100.839 E30.92416
G1 X114.802 Y100.839 E31.01442
G1 X114.802 Y99.759 E31.04043
G1 X114.852 Y99.278 E31.05207
G1 X114.948 Y98.808 E31.06362
G1 X115.095 Y98.350 E31.07520
G1 X115.289 Y97.907 E31.08684
G1 X115.526 Y97.487 E31.09845
G1 X115.804 Y97.095 E31.11002
G1 X116.121 Y96.735 E31.12158
G1 X116.477 Y96.407 E31.13323
G1 X116.862 Y96.116 E31.14485
G1 X117.275 Y95.868 E31.15645
G1 X117.711 Y95.664 E31.16802
G1 X118.167 Y95.505 E31.17965
G1 X118.635 Y95.395 E31.19122
G1 X119.113 Y95.334 E31.20283
G1 X119.593 Y95.322 E31.21439
G1 X120.076 Y95.360 E31.22606
G1 X120.550 Y95.444 E31.23765
G1 X121.011 Y95.579 E31.24922
G1 X121.459 Y95.761 E31.26084
G1 X121.884 Y95.987 E31.27243
G1 X122.283 Y96.256 E31.28402
G1 X122.653 Y96.564 E31.29561
G1 X122.990 Y96.910 E31.30724
G1 X123.288 Y97.288 E31.31882
G1 X123.545 Y97.692 E31.33037
G1 X123.761 Y98.126 E31.34202
G1 X123.932 Y98.577 E31.35364
G1 X124.054 Y99.042 E31.36523
G1 X124.129 Y99.518 E31.37681
G1 X124.156 Y100.020 E31.38893
G1 X124.156 Y104.157 E31.48851
G1 X120.704 Y104.157 E31.57160
G1 X120.901 Y104.100 E31.57652
G1 X121.315 Y103.931 E31.58729
G1 X121.711 Y103.722 E31.59807
G1 X122.080 Y103.472 E31.60881
G1 X122.425 Y103.187 E31.61958
G1 X122.737 Y102.865 E31.63038
G1 X123.014 Y102.514 E31.64113
G1 X123.254 Y102.137 E31.65191
G1 X123.454 Y101.736 E31.66268
G1 X123.609 Y101.322 E31.67332
G1 X123.725 Y100.891 E31.68407
G1 X123.795 Y100.442 E31.69501
G1 X123.815 Y99.998 E31.70571
G1 X123.795 Y99.554 E31.71642
G1 X123.725 Y99.106 E31.72732
G1 X123.609 Y98.677 E31.73803
G1 X123.454 Y98.261 E31.74872
G1 X123.254 Y97.859 E31.75952
G1 X123.013 Y97.481 E31.77033
G1 X122.736 Y97.132 E31.78104
G1 X122.425 Y96.811 E31.79180
G1 X122.080 Y96.526 E31.80257
G1 X121.711 Y96.276 E31.81332
G1 X121.317 Y96.068 E31.82405
G1 X120.901 Y95.896 E31.83489
G1 X120.469 Y95.774 E31.84570
G1 X120.033 Y95.693 E31.85636
G1 X119.584 Y95.658 E31.86721
G1 X119.137 Y95.670 E31.87797
G1 X118.697 Y95.727 E31.88866
G1 X118.260 Y95.829 E31.89945
G1 X117.839 Y95.978 E31.91020
G1 X117.435 Y96.165 E31.92092
G1 X117.053 Y96.394 E31.93165
G1 X116.690 Y96.664 E31.94254
G1 X116.364 Y96.970 E31.95329
G1 X116.068 Y97.305 E31.96407
G1 X115.810 Y97.669 E31.97481
G1 X115.590 Y98.056 E31.98553
G1 X115.411 Y98.467 E31.99631
G1 X115.274 Y98.895 E32.00714
G1 X115.185 Y99.331 E32.01785
G1 X115.138 Y99.773 E32.02856
G1 X115.138 Y100.222 E32.03937
G1 X115.185 Y100.667 E32.05013
G1 X115.274 Y101.103 E32.06085
G1 X115.383 Y101.445 E32.06950
G1 X114.261 Y100.298 F18000.000
G1 X114.261 Y99.731 F1500.000 E32.08315
G1 X114.316 Y99.196 E32.09611
G1 X114.424 Y98.670 E32.10903
G1 X114.588 Y98.158 E32.12197
G1 X114.804 Y97.664 E32.13494
G1 X115.069 Y97.197 E32.14788
G1 X115.379 Y96.758 E32.16081
G1 X115.734 Y96.356 E32.17373
G1 X116.130 Y95.991 E32.18670
G1 X116.559 Y95.667 E32.19965
G1 X117.020 Y95.389 E32.21261
G1 X117.506 Y95.162 E32.22552
G1 X118.015 Y94.985 E32.23849
G1 X118.538 Y94.862 E32.25144
G1 X119.072 Y94.794 E32.26438
G1 X119.607 Y94.780 E32.27727
G1 X120.145 Y94.822 E32.29026
G1 X120.674 Y94.917 E32.30320
G1 X121.190 Y95.068 E32.31614
G1 X121.688 Y95.270 E32.32908
G1 X122.162 Y95.522 E32.34201
G1 X122.609 Y95.822 E32.35496
G1 X123.021 Y96.167 E32.36790
G1 X123.397 Y96.552 E32.38087
G1 X123.730 Y96.974 E32.39380
G1 X124.017 Y97.426 E32.40669
G1 X124.258 Y97.908 E32.41967
G1 X124.449 Y98.412 E32.43263
G1 X124.585 Y98.931 E32.44557
G1 X124.668 Y99.461 E32.45848
G1 X124.697 Y100.006 E32.47161
G1 X124.697 Y104.698 E32.58457
G1 X106.295 Y104.698 E33.02759
G1 X106.295 Y83.548 E33.53677
G1 X111.595 Y83.548 E33.66436
G1 X111.595 Y100.298 E34.06762
G1 X114.171 Y100.298 E34.12964
G1 X104.154 Y104.157 F18000.000
G1 X76.836 Y104.157 F1500.000 E34.78730
G1 X76.836 Y78.931 E35.39462
G1 X77.230 Y78.723 E35.40533
G1 X77.603 Y78.472 E35.41615
G1 X77.945 Y78.187 E35.42687
G1 X78.258 Y77.866 E35.43767
G1 X78.537 Y77.513 E35.44851
G1 X78.774 Y77.137 E35.45921
G1 X78.924 Y76.839 E35.46722
G1 X86.104 Y76.839 E35.64008
G1 X86.204 Y77.314 E35.65177
G1 X86.486 Y78.207 E35.67430
G1 X86.864 Y79.066 E35.69689
G1 X87.324 Y79.878 E35.71936
G1 X87.866 Y80.643 E35.74194
G1 X88.486 Y81.346 E35.76450
G1 X89.171 Y81.981 E35.78698
G1 X89.918 Y82.543 E35.80950
G1 X90.723 Y83.026 E35.83209
G1 X91.570 Y83.423 E35.85460
G1 X92.454 Y83.729 E35.87713
G1 X93.366 Y83.945 E35.89970
G1 X94.154 Y84.046 E35.91881
G1 X94.154 Y84.089 E35.91986
G1 X104.154 Y84.089 E36.16061
G1 X104.154 Y104.067 E36.64156
G1 X104.695 Y104.698 F18000.000
G1 X76.295 Y104.698 F1500.000 E37.32529
G1 X76.295 Y78.567 E37.95439
G1 X76.606 Y78.440 E37.96247
G1 X76.951 Y78.258 E37.97187
G1 X77.277 Y78.038 E37.98133
G1 X77.577 Y77.789 E37.99072
G1 X77.851 Y77.508 E38.00016
G1 X78.094 Y77.200 E38.00963
G1 X78.303 Y76.870 E38.01901
G1 X78.478 Y76.521 E38.02841
G1 X78.563 Y76.298 E38.03416
G1 X86.544 Y76.298 E38.22631
G1 X86.546 Y76.315 E38.22671
G1 X86.728 Y77.176 E38.24792
G1 X86.994 Y78.016 E38.26911
G1 X87.348 Y78.823 E38.29033
G1 X87.781 Y79.587 E38.31148
G1 X88.291 Y80.307 E38.33271
G1 X88.874 Y80.968 E38.35393
G1 X89.518 Y81.565 E38.37507
G1 X90.221 Y82.093 E38.39625
G1 X90.978 Y82.547 E38.41749
G1 X91.774 Y82.920 E38.43866
G1 X92.605 Y83.209 E38.45984
G1 X93.463 Y83.412 E38.48107
G1 X94.336 Y83.524 E38.50225
G1 X94.695 Y83.533 E38.51089
G1 X94.695 Y83.548 E38.51127
G1 X104.695 Y83.548 E38.75202
G1 X104.695 Y104.608 E39.25903
G1 X74.154 Y104.157 F18000.000
G1 X46.836 Y104.157 F1500.000 E39.91669
G1 X46.836 Y76.839 E40.57435
G1 X54.156 Y76.839 E40.75057
G1 X54.156 Y88.839 E41.03947
G1 X65.838 Y88.839 E41.32073
G1 X65.838 Y76.839 E41.60963
G1 X71.067 Y76.839 E41.73551
G1 X71.111 Y76.941 E41.73817
G1 X71.332 Y77.330 E41.74893
G1 X71.590 Y77.695 E41.75970
G1 X71.886 Y78.031 E41.77048
G1 X72.215 Y78.334 E41.78125
G1 X72.573 Y78.601 E41.79201
G1 X72.953 Y78.830 E41.80269
G1 X73.358 Y79.022 E41.81349
G1 X73.783 Y79.169 E41.82431
G1 X74.154 Y79.256 E41.83347
G1 X74.154 Y104.067 E42.43079
G1 X74.695 Y104.698 F18000.000
G1 X46.295 Y104.698 F1500.000 E43.11451
G1 X46.295 Y76.298 E43.79824
G1 X54.697 Y76.298 E44.00051
G1 X54.697 Y88.298 E44.28941
G1 X65.297 Y88.298 E44.54461
G1 X65.297 Y76.298 E44.83351
G1 X71.427 Y76.298 E44.98108
G1 X71.439 Y76.339 E44.98211
G1 X71.596 Y76.698 E44.99155
G1 X71.789 Y77.039 E45.00098
G1 X72.015 Y77.358 E45.01040
G1 X72.274 Y77.652 E45.01982
