; generated by Slic3r 0.6.1-dev on 2012-03-03 at 13:44:40

; layer_height = 0.28
; perimeters = 2
; solid_layers = 3
; fill_density = 0.20
; nozzle_diameter = 0.45
; filament_diameter = 3
; perimeter_speed = 45
; infill_speed = 70
; travel_speed = 150
; extrusion_width_ratio = 0
; scale = 1
; single wall width = 0.60mm

M104 S185 ; set temperature
M104 S170
G28
G1 Z30 
G92 E0
M109 S175
G1 E5 F30
G92 E0
G1 Z0 F300
M109 S185 ; wait for temperature to be reached
G90 ; use absolute coordinates
G21 ; set units to millimeters
G92 E0 ; reset extrusion distance
M82 ; use absolute distances for extrusion
G1 Z0.280 F9000.000
G1 X20.953 Y20.330
G1
G1 X22.073 Y19.390 F1350.000 E0.03454
G1 X23.123 Y18.670 E0.06462
G1 X24.543 Y17.930 E0.10245
G1 X25.413 Y17.570 E0.12470
G1 X26.693 Y17.170 E0.15638
G1 X27.153 Y17.060 E0.16755
G1 X28.103 Y16.890 E0.19035
G1 X28.593 Y16.830 E0.20201
G1 X29.953 Y16.760 E0.23419
G1 X120.643 Y16.780 E2.37674
G1 X121.123 Y16.810 E2.38810
G1 X122.163 Y16.940 E2.41286
G1 X123.393 Y17.200 E2.44256
G1 X123.853 Y17.330 E2.45386
G1 X124.853 Y17.680 E2.47889
G1 X126.303 Y18.360 E2.51672
G1 X127.313 Y18.960 E2.54448
G1 X128.303 Y19.690 E2.57354
G1 X129.223 Y20.510 E2.60265
G1 X129.563 Y20.850 E2.61401
G1 X130.223 Y21.600 E2.63761
G1 X131.033 Y22.700 E2.66989
G1 X131.683 Y23.790 E2.69987
G1 X131.903 Y24.220 E2.71128
G1 X132.353 Y25.250 E2.73783
G1 X132.823 Y26.750 E2.77497
G1 X133.043 Y27.800 E2.80032
G1 X133.193 Y28.990 E2.82865
G1 X133.223 Y120.510 E4.99081
G1 X133.113 Y121.710 E5.01928
G1 X133.043 Y122.190 E5.03074
G1 X132.813 Y123.280 E5.05706
G1 X132.373 Y124.690 E5.09196
G1 X131.903 Y125.770 E5.11978
G1 X131.293 Y126.880 E5.14970
G1 X130.523 Y128.010 E5.18201
G1 X130.223 Y128.390 E5.19345
G1 X129.563 Y129.140 E5.21705
G1 X128.673 Y129.990 E5.24612
G1 X128.303 Y130.300 E5.25753
G1 X127.193 Y131.100 E5.28985
G1 X126.013 Y131.780 E5.32203
G1 X125.153 Y132.180 E5.34444
G1 X124.023 Y132.600 E5.37292
G1 X123.563 Y132.740 E5.38428
G1 X122.163 Y133.050 E5.41815
G1 X121.123 Y133.180 E5.44291
G1 X120.113 Y133.230 E5.46680
G1 X29.613 Y133.220 E7.60487
G1 X28.563 Y133.160 E7.62971
G1 X28.083 Y133.100 E7.64114
G1 X26.723 Y132.830 E7.67390
G1 X25.813 Y132.560 E7.69632
G1 X24.543 Y132.060 E7.72857
G1 X23.413 Y131.480 E7.75858
G1 X22.993 Y131.230 E7.77012
G1 X22.183 Y130.680 E7.79325
G1 X20.953 Y129.660 E7.83101
G1 X20.163 Y128.870 E7.85740
G1 X19.363 Y127.890 E7.88729
G1 X19.083 Y127.500 E7.89863
G1 X18.563 Y126.680 E7.92157
G1 X17.943 Y125.480 E7.95348
G1 X17.473 Y124.300 E7.98349
G1 X17.323 Y123.840 E7.99492
G1 X16.993 Y122.500 E8.02752
G1 X16.833 Y121.430 E8.05308
G1 X16.763 Y120.280 E8.08030
G1 X16.793 Y29.040 E10.23584
G1 X16.833 Y28.560 E10.24722
G1 X16.993 Y27.490 E10.27278
G1 X17.323 Y26.150 E10.30539
G1 X17.723 Y25.020 E10.33371
G1 X17.913 Y24.570 E10.34525
G1 X18.363 Y23.650 E10.36944
G1 X18.603 Y23.230 E10.38087
G1 X19.363 Y22.100 E10.41304
G1 X20.163 Y21.120 E10.44293
G1 X20.889 Y20.394 E10.46720
G1 X21.313 Y20.730 F9000.000
G1 X22.403 Y19.810 F1350.000 E10.50090
G1 X23.393 Y19.140 E10.52914
G1 X24.773 Y18.420 E10.56591
G1 X25.593 Y18.080 E10.58688
G1 X26.053 Y17.920 E10.59839
G1 X27.283 Y17.590 E10.62847
G1 X28.173 Y17.430 E10.64984
G1 X29.473 Y17.310 E10.68068
G1 X29.963 Y17.300 E10.69226
G1 X120.613 Y17.320 E12.83387
G1 X121.093 Y17.350 E12.84523
G1 X122.063 Y17.470 E12.86832
G1 X123.253 Y17.720 E12.89705
G1 X123.713 Y17.850 E12.90834
G1 X124.643 Y18.180 E12.93165
G1 X126.053 Y18.840 E12.96843
G1 X127.003 Y19.410 E12.99461
G1 X127.953 Y20.110 E13.02249
G1 X128.843 Y20.890 E13.05044
G1 X129.183 Y21.230 E13.06180
G1 X129.803 Y21.930 E13.08390
G1 X130.103 Y22.310 E13.09533
G1 X130.843 Y23.400 E13.12646
G1 X131.423 Y24.470 E13.15521
G1 X131.843 Y25.430 E13.17997
G1 X132.303 Y26.900 E13.21636
G1 X132.513 Y27.880 E13.24003
G1 X132.653 Y29.020 E13.26717
G1 X132.683 Y120.480 E15.42791
G1 X132.583 Y121.630 E15.45518
G1 X132.513 Y122.110 E15.46664
G1 X132.293 Y123.140 E15.49153
G1 X131.863 Y124.510 E15.52545
G1 X131.423 Y125.520 E15.55148
G1 X130.843 Y126.590 E15.58023
G1 X130.103 Y127.680 E15.61136
G1 X129.803 Y128.060 E15.62279
G1 X129.183 Y128.760 E15.64488
G1 X128.323 Y129.570 E15.67280
G1 X127.293 Y130.380 E15.70375
G1 X126.893 Y130.650 E15.71515
G1 X125.753 Y131.300 E15.74616
G1 X124.953 Y131.680 E15.76708
G1 X123.863 Y132.080 E15.79451
G1 X123.403 Y132.220 E15.80587
G1 X122.543 Y132.430 E15.82678
G1 X122.063 Y132.520 E15.83832
G1 X121.093 Y132.640 E15.86141
G1 X120.113 Y132.690 E15.88460
G1 X29.613 Y132.680 E18.02266
G1 X28.633 Y132.620 E18.04585
G1 X28.153 Y132.560 E18.05728
G1 X26.853 Y132.300 E18.08860
G1 X25.993 Y132.050 E18.10976
G1 X24.773 Y131.570 E18.14073
G1 X24.333 Y131.360 E18.15225
G1 X23.273 Y130.760 E18.18103
G1 X22.513 Y130.250 E18.20265
G1 X21.673 Y129.580 E18.22804
G1 X21.313 Y129.260 E18.23942
G1 X20.573 Y128.510 E18.26431
G1 X19.803 Y127.580 E18.29283
G1 X19.523 Y127.190 E18.30417
G1 X19.033 Y126.420 E18.32574
G1 X18.793 Y125.990 E18.33737
G1 X18.253 Y124.820 E18.36781
G1 X17.983 Y124.130 E18.38532
G1 X17.833 Y123.670 E18.39675
G1 X17.523 Y122.380 E18.42809
G1 X17.373 Y121.380 E18.45198
G1 X17.303 Y120.270 E18.47826
G1 X17.333 Y29.090 E20.63239
G1 X17.373 Y28.610 E20.64377
G1 X17.523 Y27.610 E20.66765
G1 X17.833 Y26.320 E20.69900
G1 X18.223 Y25.230 E20.72635
G1 X18.413 Y24.780 E20.73789
G1 X18.833 Y23.920 E20.76050
G1 X19.523 Y22.800 E20.79158
G1 X19.803 Y22.410 E20.80292
G1 X20.573 Y21.480 E20.83145
G1 X21.250 Y20.794 E20.85421
G1 X86.836 Y106.839 F9000.000
G1 X104.154 Y106.839 F1350.000 E21.26333
G1 X104.154 Y124.159 E21.67250
G1 X102.836 Y124.159 E21.70362
G1 X102.836 Y124.157 E21.70366
G1 X93.836 Y124.157 E21.91629
G1 X93.836 Y114.157 E22.15254
G1 X86.836 Y114.157 E22.31791
G1 X86.836 Y106.929 E22.48866
G1 X86.295 Y106.298 F9000.000
G1 X104.695 Y106.298 F1350.000 E22.92335
G1 X104.695 Y124.700 E23.35809
G1 X102.295 Y124.700 E23.41479
G1 X102.295 Y124.698 E23.41483
G1 X93.295 Y124.698 E23.62746
G1 X93.295 Y114.698 E23.86371
G1 X86.295 Y114.698 E24.02908
G1 X86.295 Y106.388 E24.22540
G1 X106.836 Y106.839 F9000.000
G1 X124.156 Y106.839 F1350.000 E24.63457
G1 X124.156 Y119.977 E24.94494
G1 X124.131 Y120.425 E24.95555
G1 X124.064 Y120.850 E24.96570
G1 X123.956 Y121.266 E24.97586
G1 X123.807 Y121.664 E24.98591
G1 X123.615 Y122.046 E24.99600
G1 X123.384 Y122.408 E25.00614
G1 X123.119 Y122.743 E25.01624
G1 X122.819 Y123.050 E25.02638
G1 X122.490 Y123.325 E25.03651
G1 X122.137 Y123.564 E25.04658
G1 X121.758 Y123.765 E25.05671
G1 X121.364 Y123.926 E25.06677
G1 X120.950 Y124.044 E25.07694
G1 X120.527 Y124.123 E25.08710
G1 X120.092 Y124.157 E25.09741
G1 X106.836 Y124.157 E25.41058
G1 X106.836 Y106.929 E25.81757
G1 X106.295 Y106.298 F9000.000
G1 X124.697 Y106.298 F1350.000 E26.25231
G1 X124.697 Y119.992 E26.57582
G1 X124.670 Y120.482 E26.58743
G1 X124.595 Y120.961 E26.59887
G1 X124.472 Y121.429 E26.61031
G1 X124.304 Y121.882 E26.62172
G1 X124.086 Y122.314 E26.63315
G1 X123.826 Y122.722 E26.64458
G1 X123.525 Y123.101 E26.65602
G1 X123.187 Y123.447 E26.66745
G1 X122.816 Y123.758 E26.67888
G1 X122.416 Y124.028 E26.69029
G1 X121.988 Y124.256 E26.70175
G1 X121.541 Y124.438 E26.71315
G1 X121.074 Y124.572 E26.72461
G1 X120.598 Y124.660 E26.73606
G1 X120.113 Y124.698 E26.74754
G1 X106.695 Y124.698 E27.06455
G1 X106.695 Y124.700 E27.06460
G1 X106.295 Y124.700 E27.07404
G1 X106.295 Y106.388 E27.50666
G1 X116.074 Y101.699 F9000.000
G1 X116.268 Y102.037 F1350.000 E27.51587
G1 X116.493 Y102.356 E27.52510
G1 X116.753 Y102.651 E27.53439
G1 X117.039 Y102.919 E27.54363
G1 X117.354 Y103.152 E27.55289
G1 X117.688 Y103.353 E27.56211
G1 X118.044 Y103.518 E27.57137
G1 X118.413 Y103.648 E27.58061
G1 X118.793 Y103.738 E27.58985
G1 X119.180 Y103.788 E27.59905
G1 X119.570 Y103.798 E27.60829
G1 X119.962 Y103.768 E27.61758
G1 X120.346 Y103.696 E27.62680
G1 X120.723 Y103.588 E27.63607
G1 X121.086 Y103.440 E27.64532
G1 X121.432 Y103.258 E27.65456
G1 X121.755 Y103.038 E27.66380
G1 X122.057 Y102.789 E27.67305
G1 X122.329 Y102.508 E27.68229
G1 X122.572 Y102.200 E27.69155
G1 X122.783 Y101.870 E27.70080
G1 X122.957 Y101.520 E27.71004
G1 X123.093 Y101.156 E27.71922
G1 X123.195 Y100.779 E27.72846
G1 X123.256 Y100.388 E27.73779
G1 X123.273 Y99.998 E27.74702
G1 X123.256 Y99.608 E27.75624
G1 X123.195 Y99.219 E27.76553
G1 X123.093 Y98.842 E27.77476
G1 X122.957 Y98.476 E27.78398
G1 X122.783 Y98.126 E27.79323
G1 X122.572 Y97.795 E27.80249
G1 X122.329 Y97.490 E27.81172
G1 X122.057 Y97.209 E27.82094
G1 X121.755 Y96.960 E27.83020
G1 X121.432 Y96.740 E27.83943
G1 X121.087 Y96.558 E27.84865
G1 X120.723 Y96.408 E27.85794
G1 X120.345 Y96.301 E27.86722
G1 X119.962 Y96.230 E27.87642
G1 X119.571 Y96.200 E27.88571
G1 X119.180 Y96.210 E27.89495
G1 X118.793 Y96.260 E27.90414
G1 X118.413 Y96.350 E27.91339
G1 X118.044 Y96.480 E27.92263
G1 X117.689 Y96.644 E27.93187
G1 X117.354 Y96.844 E27.94108
G1 X117.038 Y97.080 E27.95039
G1 X116.753 Y97.347 E27.95962
G1 X116.493 Y97.642 E27.96890
G1 X116.268 Y97.961 E27.97813
G1 X116.074 Y98.299 E27.98735
G1 X115.918 Y98.658 E27.99659
G1 X115.798 Y99.032 E28.00587
G1 X115.720 Y99.414 E28.01508
G1 X115.679 Y99.802 E28.02430
G1 X115.679 Y100.194 E28.03356
G1 X115.720 Y100.584 E28.04282
G1 X115.798 Y100.966 E28.05204
G1 X115.918 Y101.340 E28.06131
G1 X116.038 Y101.616 E28.06843
G1 X115.590 Y101.942 F9000.000
G1 X115.810 Y102.329 F1350.000 E28.07895
G1 X116.068 Y102.693 E28.08949
G1 X116.364 Y103.028 E28.10007
G1 X116.691 Y103.335 E28.11067
G1 X117.053 Y103.602 E28.12128
G1 X117.433 Y103.832 E28.13178
G1 X117.839 Y104.020 E28.14235
G1 X118.226 Y104.157 E28.15204
G1 X106.836 Y104.157 E28.42112
G1 X106.836 Y86.839 E28.83024
G1 X124.156 Y86.839 E29.23941
G1 X124.156 Y104.157 E29.64853
G1 X120.704 Y104.157 E29.73006
G1 X120.901 Y104.100 E29.73489
G1 X121.315 Y103.931 E29.74546
G1 X121.711 Y103.722 E29.75604
G1 X122.080 Y103.472 E29.76658
G1 X122.425 Y103.187 E29.77715
G1 X122.737 Y102.865 E29.78774
G1 X123.014 Y102.514 E29.79829
G1 X123.254 Y102.137 E29.80887
G1 X123.454 Y101.736 E29.81945
G1 X123.609 Y101.322 E29.82989
G1 X123.725 Y100.891 E29.84043
G1 X123.795 Y100.442 E29.85117
G1 X123.815 Y99.998 E29.86167
G1 X123.795 Y99.554 E29.87218
G1 X123.725 Y99.106 E29.88287
G1 X123.609 Y98.677 E29.89339
G1 X123.454 Y98.261 E29.90387
G1 X123.254 Y97.859 E29.91447
G1 X123.013 Y97.481 E29.92508
G1 X122.736 Y97.132 E29.93559
G1 X122.425 Y96.811 E29.94615
G1 X122.080 Y96.526 E29.95672
G1 X121.711 Y96.276 E29.96727
G1 X121.317 Y96.068 E29.97779
G1 X120.901 Y95.896 E29.98843
G1 X120.469 Y95.774 E29.99904
G1 X120.033 Y95.693 E30.00951
G1 X119.584 Y95.658 E30.02015
G1 X119.137 Y95.670 E30.03070
G1 X118.697 Y95.727 E30.04120
G1 X118.260 Y95.829 E30.05179
G1 X117.839 Y95.978 E30.06233
G1 X117.435 Y96.165 E30.07286
G1 X117.053 Y96.394 E30.08338
G1 X116.690 Y96.664 E30.09407
G1 X116.364 Y96.970 E30.10462
G1 X116.068 Y97.305 E30.11520
G1 X115.810 Y97.669 E30.12574
G1 X115.590 Y98.056 E30.13626
G1 X115.411 Y98.467 E30.14684
G1 X115.274 Y98.895 E30.15746
G1 X115.185 Y99.331 E30.16797
G1 X115.138 Y99.773 E30.17849
G1 X115.138 Y100.222 E30.18909
G1 X115.185 Y100.667 E30.19965
G1 X115.274 Y101.103 E30.21017
G1 X115.411 Y101.531 E30.22079
G1 X115.554 Y101.859 E30.22925
G1 X124.697 Y104.698 F9000.000
G1 X106.295 Y104.698 F1350.000 E30.66399
G1 X106.295 Y86.298 E31.09868
G1 X124.697 Y86.298 E31.53342
G1 X124.697 Y104.608 E31.96599
G1 X124.156 Y84.157 F9000.000
G1 X106.836 Y84.157 F1350.000 E32.37516
G1 X106.836 Y66.841 E32.78423
G1 X124.156 Y66.841 E33.19340
G1 X124.156 Y84.067 E33.60034
G1 X124.697 Y84.698 F9000.000
G1 X106.295 Y84.698 F1350.000 E34.03508
G1 X106.295 Y66.300 E34.46973
G1 X124.697 Y66.300 E34.90447
G1 X124.697 Y84.608 E35.33699
G1 X124.156 Y64.159 F9000.000
G1 X106.836 Y64.159 F1350.000 E35.74616
G1 X106.836 Y46.839 E36.15532
G1 X116.504 Y46.839 E36.38372
G1 X116.367 Y46.967 E36.38815
G1 X116.069 Y47.302 E36.39873
G1 X115.810 Y47.668 E36.40934
G1 X115.589 Y48.057 E36.41990
G1 X115.411 Y48.467 E36.43045
G1 X115.274 Y48.895 E36.44107
G1 X115.185 Y49.331 E36.45159
G1 X115.138 Y49.773 E36.46210
G1 X115.138 Y50.222 E36.47270
G1 X115.185 Y50.667 E36.48326
G1 X115.274 Y51.103 E36.49378
G1 X115.411 Y51.531 E36.50440
G1 X115.589 Y51.941 E36.51496
G1 X115.810 Y52.330 E36.52552
G1 X116.069 Y52.696 E36.53612
G1 X116.367 Y53.031 E36.54670
G1 X116.691 Y53.333 E36.55719
G1 X117.051 Y53.601 E36.56778
G1 X117.432 Y53.831 E36.57829
G1 X117.839 Y54.022 E36.58893
G1 X118.262 Y54.169 E36.59951
G1 X118.697 Y54.271 E36.61005
G1 X119.137 Y54.328 E36.62054
G1 X119.584 Y54.340 E36.63110
G1 X120.031 Y54.306 E36.64168
G1 X120.471 Y54.226 E36.65225
G1 X120.903 Y54.099 E36.66288
G1 X121.315 Y53.931 E36.67340
G1 X121.711 Y53.722 E36.68398
G1 X122.080 Y53.472 E36.69452
G1 X122.425 Y53.187 E36.70509
G1 X122.736 Y52.866 E36.71565
G1 X123.014 Y52.516 E36.72619
G1 X123.255 Y52.136 E36.73684
G1 X123.454 Y51.736 E36.74739
G1 X123.609 Y51.321 E36.75785
G1 X123.725 Y50.889 E36.76842
G1 X123.795 Y50.442 E36.77911
G1 X123.815 Y49.998 E36.78961
G1 X123.795 Y49.553 E36.80013
G1 X123.725 Y49.109 E36.81077
G1 X123.609 Y48.677 E36.82134
G1 X123.454 Y48.262 E36.83179
G1 X123.255 Y47.862 E36.84234
G1 X123.014 Y47.482 E36.85299
G1 X122.736 Y47.132 E36.86353
G1 X122.452 Y46.839 E36.87316
G1 X124.156 Y46.839 E36.91341
G1 X124.156 Y64.069 E37.32045
G1 X124.697 Y64.700 F9000.000
G1 X106.295 Y64.700 F1350.000 E37.75519
G1 X106.295 Y46.298 E38.18993
G1 X118.632 Y46.298 E38.48139
G1 X118.413 Y46.349 E38.48669
G1 X118.044 Y46.478 E38.49593
G1 X117.687 Y46.645 E38.50524
G1 X117.353 Y46.847 E38.51445
G1 X117.039 Y47.081 E38.52373
G1 X116.754 Y47.346 E38.53291
G1 X116.494 Y47.639 E38.54217
G1 X116.267 Y47.959 E38.55143
G1 X116.074 Y48.300 E38.56068
G1 X115.918 Y48.658 E38.56992
G1 X115.798 Y49.032 E38.57920
G1 X115.720 Y49.414 E38.58841
G1 X115.679 Y49.802 E38.59763
G1 X115.679 Y50.194 E38.60688
G1 X115.720 Y50.584 E38.61615
G1 X115.798 Y50.966 E38.62536
G1 X115.918 Y51.340 E38.63464
G1 X116.074 Y51.698 E38.64388
G1 X116.267 Y52.039 E38.65313
G1 X116.494 Y52.359 E38.66239
G1 X116.754 Y52.652 E38.67165
G1 X117.039 Y52.917 E38.68083
G1 X117.353 Y53.151 E38.69011
G1 X117.687 Y53.353 E38.69932
G1 X118.044 Y53.520 E38.70862
G1 X118.413 Y53.649 E38.71787
G1 X118.793 Y53.738 E38.72709
G1 X119.180 Y53.788 E38.73629
G1 X119.571 Y53.798 E38.74553
G1 X119.961 Y53.768 E38.75479
G1 X120.346 Y53.699 E38.76403
G1 X120.724 Y53.588 E38.77333
G1 X121.086 Y53.440 E38.78256
G1 X121.432 Y53.258 E38.79180
G1 X121.755 Y53.038 E38.80104
G1 X122.057 Y52.789 E38.81029
G1 X122.329 Y52.508 E38.81952
G1 X122.572 Y52.202 E38.82875
G1 X122.783 Y51.870 E38.83806
G1 X122.957 Y51.520 E38.84728
G1 X123.093 Y51.156 E38.85646
G1 X123.195 Y50.776 E38.86575
G1 X123.256 Y50.388 E38.87503
G1 X123.273 Y49.998 E38.88426
G1 X123.256 Y49.608 E38.89349
G1 X123.195 Y49.221 E38.90273
G1 X123.093 Y48.842 E38.91200
G1 X122.957 Y48.478 E38.92119
G1 X122.783 Y48.128 E38.93041
G1 X122.572 Y47.796 E38.93972
G1 X122.329 Y47.490 E38.94895
G1 X122.057 Y47.209 E38.95818
G1 X121.755 Y46.960 E38.96743
G1 X121.432 Y46.740 E38.97667
G1 X121.086 Y46.558 E38.98591
G1 X120.724 Y46.410 E38.99514
G1 X120.346 Y46.300 E39.00444
G1 X120.339 Y46.298 E39.00462
G1 X124.697 Y46.298 E39.10759
G1 X124.697 Y64.610 E39.54020
G1 X104.154 Y64.159 F9000.000
G1 X86.836 Y64.159 F1350.000 E39.94932
G1 X86.836 Y46.839 E40.35849
G1 X104.154 Y46.839 E40.76761
G1 X104.154 Y64.069 E41.17465
G1 X104.695 Y64.700 F9000.000
G1 X86.295 Y64.700 F1350.000 E41.60935
G1 X86.295 Y46.298 E42.04409
G1 X104.695 Y46.298 E42.47878
G1 X104.695 Y64.610 E42.91140
G1 X84.154 Y64.159 F9000.000
G1 X66.838 Y64.159 F1350.000 E43.32047
G1 X66.838 Y46.839 E43.72963
G1 X84.154 Y46.839 E44.13871
G1 X84.154 Y64.069 E44.54575
G1 X84.695 Y64.700 F9000.000
G1 X66.297 Y64.700 F1350.000 E44.98039
G1 X66.297 Y46.298 E45.41513
G1 X84.695 Y46.298 E45.84978
G1 X84.695 Y64.610 E46.28240
G1 X77.577 Y72.209 F9000.000
G1 X77.277 Y71.960 F1350.000 E46.29161
G1 X76.951 Y71.740 E46.30089
G1 X76.606 Y71.558 E46.31012
G1 X76.244 Y71.410 E46.31935
G1 X75.868 Y71.300 E46.32861
G1 X75.483 Y71.230 E46.33785
