; generated by Slic3r 0.7.2-dev on 2012-04-14 at 00:09:53

; layer_height = 0.28
; perimeters = 2
; solid_layers = 3
; fill_density = 0.15
; nozzle_diameter = 0.45
; filament_diameter = 3
; extrusion_multiplier = 1.07
; perimeter_speed = 50
; infill_speed = 80
; travel_speed = 100
; extrusion_width_ratio = 0
; scale = 1
; single wall width = 0.60mm

M104 S200 ; set temperature
M104 S205
G28
G1 Z30 
G92 E0
M109 S205
G1 E5 F30
G92 E0
G1 Z0 F3000
G90 ; use absolute coordinates
G21 ; set units to millimeters
G92 E0 ; reset extrusion distance
M82 ; use absolute distances for extrusion
G1 Z0.280 F6000.000
G1 X66.533 Y59.152
G1
G1 X67.423 Y58.372 F1500.000 E0.02849
G1 X67.723 Y58.142 E0.03759
G1 X68.663 Y57.522 E0.06470
G1 X69.703 Y56.962 E0.09314
G1 X71.063 Y56.412 E0.12846
G1 X71.943 Y56.142 E0.15062
G1 X72.313 Y56.052 E0.15979
G1 X73.563 Y55.842 E0.19030
G1 X74.703 Y55.762 E0.21781
G1 X76.133 Y55.822 E0.25227
G1 X77.173 Y55.952 E0.27750
G1 X78.273 Y56.202 E0.30466
G1 X79.383 Y56.572 E0.33283
G1 X79.733 Y56.712 E0.34191
G1 X80.653 Y57.142 E0.36635
G1 X81.733 Y57.782 E0.39658
G1 X82.663 Y58.462 E0.42431
G1 X83.543 Y59.242 E0.45263
G1 X83.813 Y59.512 E0.46182
G1 X84.443 Y60.212 E0.48449
G1 X84.683 Y60.512 E0.49374
G1 X85.253 Y61.322 E0.51759
G1 X85.853 Y62.352 E0.54628
G1 X86.023 Y62.692 E0.55543
G1 X86.413 Y63.612 E0.57949
G1 X86.763 Y64.642 E0.60568
G1 X86.863 Y65.012 E0.61491
G1 X87.103 Y66.242 E0.64508
G1 X87.203 Y67.162 E0.66736
G1 X87.223 Y82.442 E1.03523
G1 X87.113 Y83.702 E1.06567
G1 X86.863 Y84.982 E1.09707
G1 X86.523 Y86.092 E1.12502
G1 X86.393 Y86.442 E1.13401
G1 X85.893 Y87.552 E1.16332
G1 X85.393 Y88.452 E1.18811
G1 X84.683 Y89.472 E1.21803
G1 X83.923 Y90.362 E1.24620
G1 X83.653 Y90.642 E1.25557
G1 X82.953 Y91.292 E1.27856
G1 X82.663 Y91.532 E1.28763
G1 X81.903 Y92.092 E1.31035
G1 X80.983 Y92.662 E1.33641
G1 X79.923 Y93.192 E1.36494
G1 X79.573 Y93.342 E1.37411
G1 X78.443 Y93.742 E1.40297
G1 X77.013 Y94.062 E1.43825
G1 X75.753 Y94.202 E1.46877
G1 X74.863 Y94.232 E1.49021
G1 X74.483 Y94.222 E1.49936
G1 X73.193 Y94.092 E1.53057
G1 X72.313 Y93.932 E1.55211
G1 X70.903 Y93.522 E1.58746
G1 X70.053 Y93.192 E1.60941
G1 X69.703 Y93.032 E1.61867
G1 X68.823 Y92.562 E1.64269
G1 X67.723 Y91.842 E1.67434
G1 X66.813 Y91.092 E1.70273
G1 X65.973 Y90.262 E1.73116
G1 X65.723 Y89.982 E1.74020
G1 X65.123 Y89.232 E1.76332
G1 X64.903 Y88.922 E1.77248
G1 X64.283 Y87.912 E1.80101
G1 X63.833 Y87.012 E1.82523
G1 X63.413 Y85.942 E1.85291
G1 X63.063 Y84.742 E1.88300
G1 X62.983 Y84.372 E1.89211
G1 X62.823 Y83.232 E1.91983
G1 X62.763 Y82.182 E1.94515
G1 X62.793 Y67.132 E2.30748
G1 X62.823 Y66.752 E2.31665
G1 X62.983 Y65.612 E2.34437
G1 X63.063 Y65.242 E2.35348
G1 X63.433 Y63.992 E2.38487
G1 X63.833 Y62.982 E2.41102
G1 X64.283 Y62.082 E2.43525
G1 X64.903 Y61.072 E2.46378
G1 X65.623 Y60.122 E2.49248
G1 X65.873 Y59.832 E2.50169
G1 X66.470 Y59.217 E2.52234
G1 X66.903 Y59.552 F6000.000
G1 X67.753 Y58.802 F1500.000 E2.54963
G1 X68.053 Y58.572 E2.55873
G1 X68.933 Y57.992 E2.58410
G1 X69.923 Y57.452 E2.61125
G1 X70.273 Y57.292 E2.62052
G1 X71.243 Y56.922 E2.64551
G1 X72.073 Y56.672 E2.66638
G1 X73.263 Y56.422 E2.69566
G1 X73.633 Y56.372 E2.70465
G1 X74.703 Y56.302 E2.73046
G1 X75.713 Y56.322 E2.75478
G1 X77.093 Y56.492 E2.78826
G1 X78.123 Y56.722 E2.81366
G1 X79.183 Y57.072 E2.84054
G1 X79.533 Y57.212 E2.84961
G1 X80.393 Y57.622 E2.87255
G1 X81.423 Y58.232 E2.90137
G1 X82.313 Y58.882 E2.92790
G1 X83.163 Y59.622 E2.95504
G1 X83.433 Y59.892 E2.96423
G1 X84.023 Y60.552 E2.98554
G1 X84.263 Y60.852 E2.99479
G1 X84.993 Y61.932 E3.02617
G1 X85.373 Y62.592 E3.04451
G1 X85.543 Y62.932 E3.05366
G1 X86.033 Y64.152 E3.08531
G1 X86.333 Y65.152 E3.11045
G1 X86.513 Y65.962 E3.13042
G1 X86.573 Y66.332 E3.13945
G1 X86.683 Y67.572 E3.16942
G1 X86.683 Y82.412 E3.52669
G1 X86.663 Y82.792 E3.53585
G1 X86.513 Y84.002 E3.56521
G1 X86.333 Y84.842 E3.58589
G1 X86.013 Y85.912 E3.61278
G1 X85.583 Y86.972 E3.64032
G1 X85.413 Y87.322 E3.64968
G1 X84.933 Y88.162 E3.67298
G1 X84.263 Y89.132 E3.70136
G1 X84.023 Y89.432 E3.71061
G1 X83.263 Y90.262 E3.73770
G1 X82.603 Y90.872 E3.75934
G1 X81.603 Y91.642 E3.78972
G1 X80.393 Y92.362 E3.82362
G1 X79.363 Y92.842 E3.85098
G1 X78.303 Y93.212 E3.87801
G1 X77.293 Y93.462 E3.90306
G1 X76.093 Y93.642 E3.93227
G1 X75.713 Y93.672 E3.94145
G1 X74.873 Y93.692 E3.96168
G1 X74.493 Y93.682 E3.97083
G1 X73.633 Y93.612 E3.99160
G1 X73.263 Y93.562 E4.00059
G1 X72.073 Y93.312 E4.02986
G1 X71.073 Y93.012 E4.05500
G1 X70.273 Y92.702 E4.07565
G1 X69.923 Y92.542 E4.08492
G1 X69.103 Y92.102 E4.10732
G1 X68.773 Y91.902 E4.11661
G1 X68.053 Y91.412 E4.13758
G1 X67.753 Y91.182 E4.14668
G1 X66.903 Y90.432 E4.17397
G1 X66.373 Y89.902 E4.19202
G1 X66.123 Y89.622 E4.20105
G1 X65.353 Y88.612 E4.23163
G1 X64.753 Y87.642 E4.25909
G1 X64.333 Y86.802 E4.28170
G1 X63.923 Y85.772 E4.30839
G1 X63.593 Y84.622 E4.33719
G1 X63.513 Y84.252 E4.34631
G1 X63.353 Y83.192 E4.37211
G1 X63.323 Y67.172 E4.75780
G1 X63.353 Y66.792 E4.76697
G1 X63.513 Y65.732 E4.79278
G1 X63.593 Y65.362 E4.80190
G1 X63.823 Y64.522 E4.82286
G1 X64.183 Y63.542 E4.84800
G1 X64.333 Y63.192 E4.85717
G1 X64.753 Y62.352 E4.87978
G1 X65.353 Y61.382 E4.90724
G1 X66.033 Y60.482 E4.93439
G1 X66.283 Y60.192 E4.94361
G1 X66.840 Y59.617 E4.96289
G1 X73.709 Y66.743 F6000.000
G1 X73.845 Y66.619 F900.000 E4.96734
G1 X73.992 Y66.507 E4.97179
G1 X74.209 Y66.376 E4.97790
G1 X74.228 Y66.376 E4.97834
G1 X74.320 Y66.334 E4.98079
G1 X74.495 Y66.271 E4.98526
G1 X74.676 Y66.230 E4.98974
G1 X74.860 Y66.206 E4.99419
G1 X75.045 Y66.202 E4.99864
G1 X75.230 Y66.216 E5.00312
G1 X75.411 Y66.249 E5.00755
G1 X75.589 Y66.300 E5.01200
G1 X75.761 Y66.370 E5.01648
G1 X75.926 Y66.459 E5.02098
G1 X76.079 Y66.561 E5.02542
G1 X76.220 Y66.679 E5.02985
G1 X76.351 Y66.811 E5.03432
G1 X76.467 Y66.959 E5.03883
G1 X76.564 Y67.114 E5.04325
G1 X76.648 Y67.279 E5.04771
G1 X76.713 Y67.452 E5.05217
G1 X76.761 Y67.632 E5.05663
G1 X76.790 Y67.817 E5.06114
G1 X76.797 Y68.000 E5.06556
G1 X76.790 Y68.185 E5.07002
G1 X76.761 Y68.370 E5.07453
G1 X76.713 Y68.550 E5.07900
G1 X76.648 Y68.723 E5.08346
G1 X76.564 Y68.888 E5.08792
G1 X76.467 Y69.043 E5.09233
G1 X76.351 Y69.191 E5.09684
G1 X76.220 Y69.323 E5.10132
G1 X76.079 Y69.441 E5.10574
G1 X75.926 Y69.543 E5.11018
G1 X75.761 Y69.632 E5.11469
G1 X75.589 Y69.702 E5.11916
G1 X75.411 Y69.753 E5.12361
G1 X75.230 Y69.786 E5.12805
G1 X75.045 Y69.800 E5.13252
G1 X74.860 Y69.796 E5.13698
G1 X74.676 Y69.772 E5.14143
G1 X74.495 Y69.731 E5.14590
G1 X74.320 Y69.668 E5.15038
G1 X74.152 Y69.592 E5.15482
G1 X73.992 Y69.495 E5.15933
G1 X73.845 Y69.383 E5.16378
G1 X73.709 Y69.259 E5.16822
G1 X73.585 Y69.118 E5.17274
G1 X73.479 Y68.966 E5.17718
G1 X73.388 Y68.806 E5.18161
G1 X73.314 Y68.637 E5.18607
G1 X73.257 Y68.460 E5.19054
G1 X73.218 Y68.279 E5.19499
G1 X73.199 Y68.094 E5.19948
G1 X73.199 Y67.908 E5.20394
G1 X73.218 Y67.723 E5.20842
G1 X73.257 Y67.540 E5.21293
G1 X73.314 Y67.365 E5.21737
G1 X73.388 Y67.196 E5.22182
G1 X73.479 Y67.036 E5.22624
G1 X73.585 Y66.884 E5.23068
G1 X73.649 Y66.811 E5.23303
G1 X73.322 Y66.364 F6000.000
G1 X73.498 Y66.203 F900.000 E5.23879
G1 X73.688 Y66.059 E5.24451
G1 X74.058 Y65.835 E5.25493
G1 X74.110 Y65.835 E5.25618
G1 X74.116 Y65.832 E5.25636
G1 X74.344 Y65.751 E5.26217
G1 X74.581 Y65.697 E5.26804
G1 X74.818 Y65.666 E5.27377
G1 X75.059 Y65.660 E5.27958
G1 X75.300 Y65.679 E5.28541
G1 X75.534 Y65.722 E5.29114
G1 X75.766 Y65.787 E5.29693
G1 X75.992 Y65.880 E5.30281
G1 X76.205 Y65.994 E5.30864
G1 X76.404 Y66.127 E5.31439
G1 X76.587 Y66.280 E5.32014
G1 X76.758 Y66.453 E5.32599
G1 X76.909 Y66.646 E5.33190
G1 X77.036 Y66.846 E5.33760
G1 X77.144 Y67.061 E5.34339
G1 X77.229 Y67.287 E5.34921
G1 X77.291 Y67.520 E5.35500
G1 X77.330 Y67.764 E5.36095
G1 X77.339 Y68.000 E5.36663
G1 X77.330 Y68.238 E5.37238
G1 X77.291 Y68.482 E5.37833
G1 X77.229 Y68.715 E5.38412
G1 X77.144 Y68.941 E5.38994
G1 X77.036 Y69.156 E5.39573
G1 X76.909 Y69.356 E5.40143
G1 X76.758 Y69.549 E5.40733
G1 X76.587 Y69.722 E5.41318
G1 X76.404 Y69.875 E5.41893
G1 X76.205 Y70.008 E5.42468
G1 X75.992 Y70.122 E5.43052
G1 X75.766 Y70.215 E5.43640
G1 X75.534 Y70.280 E5.44219
G1 X75.300 Y70.323 E5.44792
G1 X75.059 Y70.342 E5.45375
G1 X74.818 Y70.336 E5.45956
G1 X74.581 Y70.305 E5.46529
G1 X74.344 Y70.251 E5.47115
G1 X74.116 Y70.170 E5.47697
G1 X73.899 Y70.071 E5.48273
G1 X73.688 Y69.943 E5.48868
G1 X73.498 Y69.799 E5.49440
G1 X73.322 Y69.638 E5.50015
G1 X73.158 Y69.452 E5.50612
G1 X73.021 Y69.255 E5.51190
G1 X72.903 Y69.049 E5.51761
G1 X72.807 Y68.829 E5.52339
G1 X72.733 Y68.600 E5.52918
G1 X72.683 Y68.364 E5.53500
G1 X72.658 Y68.122 E5.54086
G1 X72.658 Y67.880 E5.54667
G1 X72.683 Y67.640 E5.55250
G1 X72.733 Y67.399 E5.55841
G1 X72.808 Y67.172 E5.56418
G1 X72.903 Y66.953 E5.56992
G1 X73.021 Y66.747 E5.57564
G1 X73.158 Y66.550 E5.58142
G1 X73.262 Y66.431 E5.58522
G1 X72.736 Y65.798 F6000.000
G1 X72.975 Y65.577 F900.000 E5.59307
G1 X73.235 Y65.381 E5.60090
G1 X73.514 Y65.214 E5.60874
G1 X73.809 Y65.076 E5.61656
G1 X74.116 Y64.969 E5.62441
G1 X74.433 Y64.895 E5.63223
G1 X74.755 Y64.852 E5.64004
G1 X75.078 Y64.844 E5.64784
G1 X75.403 Y64.869 E5.65567
G1 X75.725 Y64.928 E5.66355
G1 X76.036 Y65.018 E5.67135
G1 X76.334 Y65.140 E5.67912
G1 X76.623 Y65.294 E5.68700
G1 X76.893 Y65.476 E5.69483
G1 X77.143 Y65.685 E5.70268
G1 X77.371 Y65.917 E5.71050
G1 X77.572 Y66.172 E5.71832
G1 X77.745 Y66.444 E5.72609
G1 X77.891 Y66.738 E5.73398
G1 X78.006 Y67.041 E5.74179
G1 X78.088 Y67.354 E5.74958
G1 X78.139 Y67.676 E5.75743
G1 X78.155 Y68.000 E5.76524
G1 X78.139 Y68.326 E5.77310
G1 X78.088 Y68.648 E5.78095
G1 X78.006 Y68.961 E5.78874
G1 X77.891 Y69.264 E5.79655
G1 X77.745 Y69.558 E5.80444
G1 X77.572 Y69.830 E5.81221
G1 X77.371 Y70.085 E5.82003
G1 X77.143 Y70.317 E5.82785
G1 X76.893 Y70.526 E5.83570
G1 X76.623 Y70.708 E5.84353
G1 X76.336 Y70.861 E5.85136
G1 X76.036 Y70.982 E5.85916
G1 X75.723 Y71.074 E5.86702
G1 X75.403 Y71.133 E5.87486
G1 X75.078 Y71.158 E5.88268
G1 X74.755 Y71.150 E5.89048
G1 X74.433 Y71.107 E5.89830
G1 X74.116 Y71.033 E5.90612
G1 X73.809 Y70.926 E5.91397
G1 X73.514 Y70.788 E5.92179
G1 X73.235 Y70.621 E5.92962
G1 X72.975 Y70.425 E5.93745
G1 X72.736 Y70.204 E5.94531
G1 X72.522 Y69.961 E5.95311
G1 X72.335 Y69.697 E5.96089
G1 X72.174 Y69.413 E5.96874
G1 X72.043 Y69.113 E5.97662
G1 X71.944 Y68.805 E5.98442
G1 X71.878 Y68.487 E5.99223
G1 X71.844 Y68.163 E6.00008
G1 X71.844 Y67.839 E6.00788
G1 X71.878 Y67.515 E6.01572
G1 X71.944 Y67.197 E6.02354
G1 X72.043 Y66.889 E6.03134
G1 X72.174 Y66.589 E6.03922
G1 X72.335 Y66.305 E6.04706
G1 X72.522 Y66.041 E6.05485
G1 X72.676 Y65.866 E6.06048
G1 X72.348 Y65.420 F6000.000
G1 X72.628 Y65.161 F900.000 E6.06966
G1 X72.933 Y64.931 E6.07885
G1 X73.260 Y64.735 E6.08803
G1 X73.604 Y64.574 E6.09718
G1 X73.965 Y64.449 E6.10638
G1 X74.335 Y64.362 E6.11553
G1 X74.712 Y64.312 E6.12469
G1 X75.093 Y64.302 E6.13386
G1 X75.472 Y64.332 E6.14302
G1 X75.848 Y64.401 E6.15222
G1 X76.214 Y64.506 E6.16139
G1 X76.565 Y64.650 E6.17052
G1 X76.902 Y64.830 E6.17972
G1 X77.219 Y65.042 E6.18889
G1 X77.511 Y65.287 E6.19807
G1 X77.777 Y65.559 E6.20723
G1 X78.014 Y65.858 E6.21642
G1 X78.217 Y66.178 E6.22554
G1 X78.388 Y66.520 E6.23476
G1 X78.523 Y66.876 E6.24390
G1 X78.619 Y67.243 E6.25305
G1 X78.678 Y67.621 E6.26225
G1 X78.697 Y68.000 E6.27139
G1 X78.678 Y68.381 E6.28058
G1 X78.619 Y68.759 E6.28978
G1 X78.523 Y69.126 E6.29893
G1 X78.388 Y69.482 E6.30808
G1 X78.217 Y69.824 E6.31729
G1 X78.014 Y70.144 E6.32641
G1 X77.777 Y70.443 E6.33560
G1 X77.511 Y70.715 E6.34476
G1 X77.219 Y70.960 E6.35394
G1 X76.902 Y71.172 E6.36312
G1 X76.566 Y71.352 E6.37230
G1 X76.214 Y71.494 E6.38143
G1 X75.848 Y71.602 E6.39062
G1 X75.472 Y71.670 E6.39981
G1 X75.093 Y71.700 E6.40897
G1 X74.712 Y71.690 E6.41814
G1 X74.335 Y71.640 E6.42730
G1 X73.965 Y71.553 E6.43645
G1 X73.604 Y71.428 E6.44565
G1 X73.260 Y71.267 E6.45480
G1 X72.933 Y71.071 E6.46398
G1 X72.628 Y70.841 E6.47317
G1 X72.348 Y70.582 E6.48235
G1 X72.097 Y70.297 E6.49149
G1 X71.877 Y69.987 E6.50065
G1 X71.690 Y69.656 E6.50981
G1 X71.536 Y69.305 E6.51902
G1 X71.420 Y68.943 E6.52818
G1 X71.342 Y68.570 E6.53736
G1 X71.303 Y68.191 E6.54654
G1 X71.303 Y67.811 E6.55567
G1 X71.342 Y67.432 E6.56485
G1 X71.420 Y67.059 E6.57403
G1 X71.536 Y66.697 E6.58319
G1 X71.690 Y66.346 E6.59239
G1 X71.877 Y66.015 E6.60156
G1 X72.097 Y65.705 E6.61071
G1 X72.288 Y65.487 E6.61769
G1 X73.709 Y80.741 F6000.000
G1 X73.845 Y80.617 F900.000 E6.62213
G1 X73.992 Y80.505 E6.62658
G1 X74.209 Y80.374 E6.63269
G1 X74.228 Y80.374 E6.63314
G1 X74.320 Y80.332 E6.63558
G1 X74.495 Y80.269 E6.64006
G1 X74.676 Y80.228 E6.64453
G1 X74.860 Y80.204 E6.64898
G1 X75.045 Y80.200 E6.65344
G1 X75.230 Y80.214 E6.65791
G1 X75.411 Y80.247 E6.66235
G1 X75.589 Y80.298 E6.66680
G1 X75.761 Y80.368 E6.67127
G1 X75.926 Y80.457 E6.67578
G1 X76.079 Y80.559 E6.68022
G1 X76.220 Y80.677 E6.68464
G1 X76.351 Y80.809 E6.68912
G1 X76.467 Y80.957 E6.69363
G1 X76.564 Y81.112 E6.69804
G1 X76.648 Y81.277 E6.70250
G1 X76.713 Y81.450 E6.70696
G1 X76.761 Y81.630 E6.71143
G1 X76.790 Y81.815 E6.71594
G1 X76.797 Y81.998 E6.72035
G1 X76.790 Y82.183 E6.72482
G1 X76.761 Y82.368 E6.72932
G1 X76.713 Y82.548 E6.73379
G1 X76.648 Y82.721 E6.73825
G1 X76.564 Y82.886 E6.74271
G1 X76.467 Y83.041 E6.74713
G1 X76.351 Y83.189 E6.75164
G1 X76.220 Y83.321 E6.75611
G1 X76.079 Y83.439 E6.76054
G1 X75.926 Y83.541 E6.76498
G1 X75.761 Y83.630 E6.76948
G1 X75.589 Y83.700 E6.77396
G1 X75.411 Y83.751 E6.77840
G1 X75.230 Y83.784 E6.78284
G1 X75.045 Y83.798 E6.78731
G1 X74.860 Y83.794 E6.79177
G1 X74.676 Y83.770 E6.79622
G1 X74.495 Y83.729 E6.80070
G1 X74.320 Y83.666 E6.80517
G1 X74.152 Y83.590 E6.80961
G1 X73.992 Y83.493 E6.81412
G1 X73.845 Y83.381 E6.81857
G1 X73.709 Y83.257 E6.82301
G1 X73.585 Y83.116 E6.82753
G1 X73.479 Y82.964 E6.83198
G1 X73.388 Y82.804 E6.83640
G1 X73.314 Y82.635 E6.84086
G1 X73.257 Y82.458 E6.84534
G1 X73.218 Y82.277 E6.84979
G1 X73.199 Y82.092 E6.85428
G1 X73.199 Y81.906 E6.85873
G1 X73.218 Y81.721 E6.86321
G1 X73.257 Y81.538 E6.86772
G1 X73.314 Y81.363 E6.87216
G1 X73.388 Y81.194 E6.87661
G1 X73.479 Y81.034 E6.88103
G1 X73.585 Y80.882 E6.88548
G1 X73.649 Y80.809 E6.88783
G1 X73.322 Y80.362 F6000.000
G1 X73.498 Y80.201 F900.000 E6.89358
G1 X73.688 Y80.057 E6.89930
G1 X74.058 Y79.833 E6.90973
G1 X74.110 Y79.833 E6.91098
G1 X74.116 Y79.830 E6.91115
G1 X74.344 Y79.749 E6.91697
G1 X74.581 Y79.695 E6.92283
G1 X74.818 Y79.664 E6.92857
G1 X75.059 Y79.658 E6.93437
G1 X75.300 Y79.677 E6.94020
G1 X75.534 Y79.720 E6.94594
G1 X75.766 Y79.785 E6.95172
G1 X75.992 Y79.878 E6.95760
G1 X76.205 Y79.992 E6.96344
G1 X76.404 Y80.125 E6.96919
G1 X76.587 Y80.278 E6.97494
G1 X76.758 Y80.451 E6.98079
G1 X76.909 Y80.644 E6.98669
G1 X77.036 Y80.844 E6.99239
G1 X77.144 Y81.059 E6.99818
G1 X77.229 Y81.285 E7.00400
G1 X77.291 Y81.518 E7.00979
G1 X77.330 Y81.762 E7.01574
G1 X77.339 Y81.998 E7.02143
G1 X77.330 Y82.236 E7.02717
G1 X77.291 Y82.480 E7.03313
G1 X77.229 Y82.713 E7.03891
G1 X77.144 Y82.939 E7.04473
G1 X77.036 Y83.154 E7.05053
G1 X76.909 Y83.354 E7.05623
G1 X76.758 Y83.547 E7.06213
G1 X76.587 Y83.720 E7.06798
G1 X76.404 Y83.873 E7.07373
G1 X76.205 Y84.006 E7.07948
G1 X75.992 Y84.120 E7.08531
G1 X75.766 Y84.213 E7.09119
G1 X75.534 Y84.278 E7.09698
G1 X75.300 Y84.321 E7.10272
G1 X75.059 Y84.340 E7.10855
G1 X74.818 Y84.334 E7.11435
G1 X74.581 Y84.303 E7.12009
G1 X74.344 Y84.249 E7.12595
G1 X74.116 Y84.168 E7.13177
G1 X73.899 Y84.069 E7.13753
G1 X73.688 Y83.941 E7.14347
G1 X73.498 Y83.797 E7.14919
G1 X73.322 Y83.636 E7.15494
G1 X73.158 Y83.450 E7.16091
G1 X73.021 Y83.253 E7.16669
G1 X72.903 Y83.047 E7.17241
G1 X72.807 Y82.827 E7.17819
G1 X72.733 Y82.598 E7.18398
G1 X72.683 Y82.362 E7.18980
G1 X72.658 Y82.120 E7.19566
G1 X72.658 Y81.878 E7.20146
G1 X72.683 Y81.638 E7.20729
G1 X72.733 Y81.397 E7.21320
G1 X72.808 Y81.170 E7.21897
G1 X72.903 Y80.951 E7.22471
G1 X73.021 Y80.745 E7.23043
G1 X73.158 Y80.548 E7.23621
G1 X73.262 Y80.429 E7.24001
G1 X72.736 Y79.796 F6000.000
G1 X72.975 Y79.575 F900.000 E7.24787
G1 X73.235 Y79.379 E7.25570
G1 X73.514 Y79.212 E7.26353
G1 X73.809 Y79.074 E7.27135
