; generated by Slic3r 0.7.2-dev on 2012-04-12 at 10:51:38

; layer_height = 0.28
; perimeters = 2
; solid_layers = 3
; fill_density = 0.15
; nozzle_diameter = 0.45
; filament_diameter = 3
; extrusion_multiplier = 1.07
; perimeter_speed = 50
; infill_speed = 80
; travel_speed = 100
; extrusion_width_ratio = 0
; scale = 1
; single wall width = 0.60mm

M104 S200 ; set temperature
M104 S205
G28
G1 Z30 
G92 E0
M109 S205
G1 E5 F30
G92 E0
G1 Z0 F3000
G90 ; use absolute coordinates
G21 ; set units to millimeters
G92 E0 ; reset extrusion distance
M82 ; use absolute distances for extrusion
G1 Z0.280 F6000.000
G1 X20.870 Y20.411
G1
G1 X21.770 Y19.621 F1500.000 E0.02883
G1 X22.160 Y19.321 E0.04068
G1 X23.130 Y18.671 E0.06879
G1 X24.470 Y17.971 E0.10518
G1 X25.410 Y17.571 E0.12978
G1 X26.730 Y17.161 E0.16306
G1 X28.090 Y16.891 E0.19644
G1 X28.570 Y16.831 E0.20808
G1 X29.960 Y16.761 E0.24159
G1 X120.630 Y16.771 E2.42447
G1 X121.120 Y16.801 E2.43629
G1 X122.210 Y16.941 E2.46275
G1 X123.350 Y17.191 E2.49084
G1 X123.820 Y17.321 E2.50258
G1 X124.860 Y17.681 E2.52908
G1 X125.950 Y18.171 E2.55785
G1 X126.370 Y18.391 E2.56927
G1 X127.310 Y18.961 E2.59573
G1 X128.300 Y19.691 E2.62534
G1 X129.220 Y20.511 E2.65501
G1 X129.560 Y20.851 E2.66659
G1 X130.220 Y21.601 E2.69064
G1 X131.030 Y22.701 E2.72353
G1 X131.680 Y23.791 E2.75408
G1 X132.290 Y25.091 E2.78866
G1 X132.460 Y25.541 E2.80024
G1 X132.750 Y26.451 E2.82323
G1 X133.020 Y27.631 E2.85237
G1 X133.100 Y28.111 E2.86409
G1 X133.200 Y29.161 E2.88948
G1 X133.200 Y120.831 E5.09644
G1 X133.100 Y121.881 E5.12183
G1 X133.020 Y122.361 E5.13355
G1 X132.730 Y123.581 E5.16374
G1 X132.310 Y124.841 E5.19571
G1 X131.900 Y125.771 E5.22018
G1 X131.290 Y126.881 E5.25067
G1 X130.520 Y128.011 E5.28359
G1 X130.220 Y128.391 E5.29525
G1 X129.560 Y129.141 E5.31930
G1 X128.670 Y129.991 E5.34893
G1 X128.300 Y130.301 E5.36055
G1 X127.190 Y131.101 E5.39349
G1 X126.090 Y131.741 E5.42413
G1 X125.160 Y132.181 E5.44890
G1 X123.980 Y132.621 E5.47922
G1 X123.510 Y132.761 E5.49102
G1 X122.210 Y133.051 E5.52309
G1 X121.120 Y133.191 E5.54955
G1 X120.110 Y133.231 E5.57388
G1 X29.630 Y133.221 E7.75219
G1 X28.570 Y133.161 E7.77775
G1 X28.090 Y133.101 E7.78940
G1 X26.730 Y132.831 E7.82278
G1 X25.410 Y132.421 E7.85605
G1 X24.040 Y131.811 E7.89216
G1 X23.000 Y131.231 E7.92083
G1 X21.880 Y130.451 E7.95369
G1 X20.870 Y129.581 E7.98578
G1 X20.170 Y128.871 E8.00978
G1 X19.370 Y127.891 E8.04024
G1 X19.090 Y127.501 E8.05180
G1 X18.570 Y126.681 E8.07517
G1 X17.950 Y125.481 E8.10769
G1 X17.480 Y124.301 E8.13827
G1 X17.330 Y123.841 E8.14992
G1 X17.000 Y122.501 E8.18314
G1 X16.850 Y121.601 E8.20511
G1 X16.800 Y121.121 E8.21673
G1 X16.800 Y28.871 E10.43765
G1 X16.850 Y28.391 E10.44927
G1 X17.100 Y27.021 E10.48279
G1 X17.330 Y26.151 E10.50446
G1 X17.730 Y25.021 E10.53332
G1 X17.920 Y24.571 E10.54508
G1 X18.370 Y23.651 E10.56973
G1 X18.610 Y23.231 E10.58138
G1 X19.370 Y22.101 E10.61416
G1 X20.170 Y21.121 E10.64462
G1 X20.807 Y20.475 E10.66646
G1 X21.230 Y20.811 F6000.000
G1 X22.100 Y20.051 F1500.000 E10.69427
G1 X22.490 Y19.751 E10.70611
G1 X23.400 Y19.141 E10.73249
G1 X24.710 Y18.451 E10.76814
G1 X25.590 Y18.081 E10.79112
G1 X26.050 Y17.921 E10.80284
G1 X27.330 Y17.581 E10.83473
G1 X28.160 Y17.431 E10.85503
G1 X29.470 Y17.311 E10.88670
G1 X29.970 Y17.301 E10.89874
G1 X120.600 Y17.311 E13.08066
G1 X121.090 Y17.341 E13.09248
G1 X122.100 Y17.471 E13.11700
G1 X123.200 Y17.711 E13.14410
G1 X123.670 Y17.841 E13.15584
G1 X124.650 Y18.181 E13.18081
G1 X125.700 Y18.651 E13.20851
G1 X126.120 Y18.871 E13.21993
G1 X127.000 Y19.411 E13.24478
G1 X127.950 Y20.111 E13.27319
G1 X128.840 Y20.891 E13.30168
G1 X129.180 Y21.231 E13.31326
G1 X129.800 Y21.931 E13.33577
G1 X130.100 Y22.311 E13.34743
G1 X130.840 Y23.401 E13.37914
G1 X131.420 Y24.471 E13.40845
G1 X131.780 Y25.281 E13.42979
G1 X131.950 Y25.731 E13.44137
G1 X132.220 Y26.581 E13.46284
G1 X132.480 Y27.711 E13.49075
G1 X132.560 Y28.191 E13.50247
G1 X132.660 Y29.181 E13.52642
G1 X132.660 Y120.811 E15.73242
G1 X132.560 Y121.801 E15.75637
G1 X132.330 Y122.981 E15.78532
G1 X132.210 Y123.441 E15.79676
G1 X131.800 Y124.651 E15.82752
G1 X131.420 Y125.521 E15.85037
G1 X130.840 Y126.591 E15.87968
G1 X130.100 Y127.681 E15.91139
G1 X129.800 Y128.061 E15.92305
G1 X129.180 Y128.761 E15.94556
G1 X128.320 Y129.571 E15.97400
G1 X127.290 Y130.381 E16.00555
G1 X126.250 Y131.041 E16.03521
G1 X125.830 Y131.271 E16.04673
G1 X124.960 Y131.681 E16.06989
G1 X123.820 Y132.101 E16.09914
G1 X122.570 Y132.431 E16.13026
G1 X122.100 Y132.521 E16.14178
G1 X121.090 Y132.651 E16.16630
G1 X120.110 Y132.691 E16.18991
G1 X29.630 Y132.681 E18.36822
G1 X28.640 Y132.621 E18.39210
G1 X28.160 Y132.561 E18.40374
G1 X26.860 Y132.301 E18.43566
G1 X26.050 Y132.071 E18.45593
G1 X25.590 Y131.911 E18.46766
G1 X24.710 Y131.541 E18.49064
G1 X23.700 Y131.011 E18.51810
G1 X22.600 Y130.311 E18.54949
G1 X21.580 Y129.501 E18.58085
G1 X21.230 Y129.181 E18.59226
G1 X20.580 Y128.511 E18.61474
G1 X19.810 Y127.581 E18.64381
G1 X19.530 Y127.191 E18.65536
G1 X19.040 Y126.421 E18.67734
G1 X18.800 Y125.991 E18.68919
G1 X18.260 Y124.821 E18.72022
G1 X17.990 Y124.131 E18.73805
G1 X17.840 Y123.671 E18.74970
G1 X17.530 Y122.381 E18.78164
G1 X17.390 Y121.551 E18.80191
G1 X17.340 Y121.071 E18.81353
G1 X17.340 Y28.921 E21.03204
G1 X17.390 Y28.441 E21.04366
G1 X17.630 Y27.141 E21.07548
G1 X17.840 Y26.321 E21.09586
G1 X18.230 Y25.231 E21.12373
G1 X18.420 Y24.781 E21.13549
G1 X18.840 Y23.921 E21.15853
G1 X19.530 Y22.801 E21.19020
G1 X19.810 Y22.411 E21.20176
G1 X20.580 Y21.481 E21.23083
G1 X21.167 Y20.876 E21.25114
G1 X35.510 Y98.333 F6000.000
G1 X36.359 Y98.225 F1500.000 E21.27174
G1 X37.214 Y98.203 E21.29232
G1 X38.064 Y98.269 E21.31286
G1 X38.905 Y98.420 E21.33342
G1 X39.727 Y98.659 E21.35402
G1 X40.517 Y98.981 E21.37458
G1 X41.273 Y99.383 E21.39519
G1 X41.980 Y99.861 E21.41573
G1 X42.638 Y100.408 E21.43634
G1 X43.234 Y101.021 E21.45690
G1 X43.765 Y101.691 E21.47749
G1 X44.223 Y102.411 E21.49804
G1 X44.605 Y103.175 E21.51861
G1 X44.906 Y103.976 E21.53920
G1 X45.124 Y104.802 E21.55977
G1 X45.255 Y105.646 E21.58035
G1 X45.299 Y106.499 E21.60090
G1 X45.255 Y107.354 E21.62150
G1 X45.124 Y108.196 E21.64203
G1 X44.906 Y109.024 E21.66264
G1 X44.605 Y109.825 E21.68324
G1 X44.223 Y110.589 E21.70380
G1 X43.765 Y111.309 E21.72436
G1 X43.234 Y111.979 E21.74494
G1 X42.638 Y112.592 E21.76551
G1 X41.980 Y113.140 E21.78612
G1 X41.273 Y113.615 E21.80664
G1 X40.517 Y114.017 E21.82724
G1 X39.727 Y114.339 E21.84780
G1 X38.905 Y114.577 E21.86839
G1 X38.064 Y114.733 E21.88898
G1 X37.213 Y114.795 E21.90952
G1 X36.359 Y114.775 E21.93009
G1 X35.510 Y114.665 E21.95070
G1 X34.680 Y114.470 E21.97123
G1 X33.873 Y114.189 E21.99180
G1 X33.098 Y113.826 E22.01240
G1 X32.366 Y113.384 E22.03298
G1 X31.682 Y112.874 E22.05354
G1 X31.055 Y112.293 E22.07412
G1 X30.490 Y111.652 E22.09468
G1 X29.994 Y110.954 E22.11529
G1 X29.575 Y110.211 E22.13583
G1 X29.233 Y109.427 E22.15642
G1 X28.971 Y108.614 E22.17699
G1 X28.797 Y107.777 E22.19757
G1 X28.710 Y106.928 E22.21811
G1 X28.710 Y106.072 E22.23874
G1 X28.797 Y105.223 E22.25928
G1 X28.971 Y104.386 E22.27985
G1 X29.233 Y103.571 E22.30047
G1 X29.575 Y102.789 E22.32102
G1 X29.994 Y102.044 E22.34160
G1 X30.490 Y101.348 E22.36216
G1 X31.055 Y100.705 E22.38276
G1 X31.682 Y100.126 E22.40331
G1 X32.366 Y99.614 E22.42390
G1 X33.099 Y99.174 E22.44447
G1 X33.873 Y98.811 E22.46505
G1 X34.680 Y98.531 E22.48562
G1 X35.423 Y98.354 E22.50400
G1 X35.413 Y97.800 F6000.000
G1 X36.318 Y97.685 F1500.000 E22.52595
G1 X37.228 Y97.661 E22.54786
G1 X38.134 Y97.731 E22.56974
G1 X39.028 Y97.893 E22.59163
G1 X39.905 Y98.147 E22.61360
G1 X40.747 Y98.490 E22.63550
G1 X41.552 Y98.919 E22.65746
G1 X42.306 Y99.427 E22.67934
G1 X43.006 Y100.011 E22.70129
G1 X43.641 Y100.663 E22.72320
G1 X44.206 Y101.376 E22.74511
G1 X44.695 Y102.144 E22.76702
G1 X45.102 Y102.958 E22.78893
G1 X45.423 Y103.811 E22.81087
G1 X45.655 Y104.691 E22.83278
G1 X45.794 Y105.591 E22.85471
G1 X45.840 Y106.499 E22.87659
G1 X45.794 Y107.409 E22.89854
G1 X45.655 Y108.307 E22.92041
G1 X45.423 Y109.189 E22.94236
G1 X45.102 Y110.042 E22.96430
G1 X44.695 Y110.856 E22.98622
G1 X44.206 Y111.624 E23.00812
G1 X43.641 Y112.337 E23.03004
G1 X43.006 Y112.989 E23.05195
G1 X42.305 Y113.573 E23.07392
G1 X41.552 Y114.079 E23.09577
G1 X40.747 Y114.508 E23.11771
G1 X39.905 Y114.851 E23.13962
G1 X39.030 Y115.105 E23.16153
G1 X38.134 Y115.271 E23.18349
G1 X37.227 Y115.337 E23.20539
G1 X36.318 Y115.315 E23.22728
G1 X35.413 Y115.198 E23.24923
G1 X34.529 Y114.990 E23.27109
G1 X33.669 Y114.691 E23.29302
G1 X32.843 Y114.304 E23.31498
G1 X32.064 Y113.834 E23.33688
G1 X31.335 Y113.291 E23.35877
G1 X30.667 Y112.671 E23.38071
G1 X30.066 Y111.988 E23.40261
G1 X29.537 Y111.245 E23.42458
G1 X29.090 Y110.453 E23.44646
G1 X28.726 Y109.619 E23.46838
G1 X28.447 Y108.752 E23.49029
G1 X28.261 Y107.860 E23.51223
G1 X28.169 Y106.956 E23.53411
G1 X28.169 Y106.044 E23.55607
G1 X28.261 Y105.140 E23.57795
G1 X28.447 Y104.248 E23.59988
G1 X28.726 Y103.379 E23.62185
G1 X29.090 Y102.547 E23.64372
G1 X29.537 Y101.753 E23.66565
G1 X30.066 Y101.012 E23.68757
G1 X30.667 Y100.327 E23.70951
G1 X31.335 Y99.709 E23.73141
G1 X32.064 Y99.164 E23.75334
G1 X32.844 Y98.696 E23.77523
G1 X33.669 Y98.309 E23.79717
G1 X34.528 Y98.010 E23.81908
G1 X35.326 Y97.821 E23.83881
G1 X34.038 Y88.442 F6000.000
G1 X34.545 Y88.307 F1500.000 E23.85144
G1 X35.033 Y88.123 E23.86399
G1 X35.500 Y87.891 E23.87656
G1 X35.943 Y87.609 E23.88919
G1 X36.353 Y87.283 E23.90180
G1 X36.731 Y86.914 E23.91453
G1 X41.312 Y81.228 E24.09031
G1 X41.904 Y80.347 E24.11588
G1 X42.407 Y79.404 E24.14160
G1 X42.810 Y78.411 E24.16739
G1 X43.108 Y77.386 E24.19309
G1 X43.298 Y76.340 E24.21869
G1 X54.159 Y76.340 E24.48015
G1 X54.159 Y95.840 E24.94961
G1 X66.841 Y95.840 E25.25495
G1 X66.841 Y76.340 E25.72441
G1 X70.874 Y76.340 E25.82151
G1 X70.936 Y76.532 E25.82635
G1 X71.114 Y76.942 E25.83711
G1 X71.335 Y77.331 E25.84787
G1 X71.593 Y77.696 E25.85864
G1 X71.889 Y78.032 E25.86942
G1 X72.218 Y78.335 E25.88019
G1 X72.576 Y78.602 E25.89095
G1 X72.956 Y78.831 E25.90163
G1 X73.361 Y79.023 E25.91243
G1 X73.657 Y79.126 E25.91995
G1 X73.657 Y97.158 E26.35407
G1 X61.159 Y97.158 E26.65496
G1 X61.159 Y102.840 E26.79178
G1 X73.657 Y102.840 E27.09267
G1 X73.657 Y113.158 E27.34105
G1 X50.159 Y113.158 E27.90677
G1 X50.159 Y124.157 E28.17158
G1 X29.668 Y124.144 E28.66488
G1 X29.253 Y124.090 E28.67497
G1 X28.837 Y123.992 E28.68526
G1 X28.434 Y123.853 E28.69552
G1 X28.048 Y123.670 E28.70581
G1 X27.678 Y123.448 E28.71619
G1 X27.334 Y123.191 E28.72653
G1 X27.021 Y122.903 E28.73677
G1 X26.739 Y122.581 E28.74707
G1 X26.491 Y122.231 E28.75740
G1 X26.279 Y121.858 E28.76773
G1 X26.109 Y121.468 E28.77797
G1 X25.979 Y121.059 E28.78831
G1 X25.891 Y120.640 E28.79862
G1 X25.847 Y120.214 E28.80891
G1 X25.847 Y83.312 E29.69733
G1 X25.841 Y83.304 E29.69757
G1 X25.841 Y82.663 E29.71302
G1 X29.267 Y86.914 E29.84446
G1 X29.645 Y87.283 E29.85718
G1 X30.055 Y87.609 E29.86979
G1 X30.498 Y87.891 E29.88242
G1 X30.965 Y88.123 E29.89499
G1 X31.453 Y88.307 E29.90754
G1 X31.960 Y88.442 E29.92017
G1 X32.477 Y88.521 E29.93277
G1 X32.998 Y88.550 E29.94532
G1 X33.521 Y88.521 E29.95793
G1 X33.949 Y88.455 E29.96836
G1 X33.927 Y87.911 F6000.000
G1 X34.380 Y87.791 F1500.000 E29.97963
G1 X34.816 Y87.626 E29.99086
G1 X35.234 Y87.419 E30.00209
G1 X35.628 Y87.168 E30.01335
G1 X35.995 Y86.876 E30.02461
G1 X36.330 Y86.549 E30.03590
G1 X40.876 Y80.907 E30.21033
G1 X41.440 Y80.068 E30.23468
G1 X41.916 Y79.174 E30.25905
G1 X42.298 Y78.234 E30.28349
G1 X42.581 Y77.262 E30.30786
G1 X42.762 Y76.264 E30.33228
G1 X42.799 Y75.799 E30.34350
G1 X54.700 Y75.799 E30.63001
G1 X54.700 Y95.299 E31.09948
G1 X66.300 Y95.299 E31.37875
G1 X66.300 Y75.799 E31.84821
G1 X71.288 Y75.799 E31.96830
G1 X71.323 Y75.968 E31.97245
G1 X71.443 Y76.341 E31.98188
G1 X71.599 Y76.699 E31.99129
G1 X71.792 Y77.040 E32.00072
G1 X72.018 Y77.359 E32.01014
G1 X72.277 Y77.653 E32.01956
G1 X72.564 Y77.918 E32.02897
G1 X72.878 Y78.152 E32.03841
G1 X73.212 Y78.354 E32.04779
G1 X73.566 Y78.521 E32.05723
G1 X73.937 Y78.650 E32.06666
G1 X74.198 Y78.711 E32.07312
G1 X74.198 Y97.699 E32.53026
G1 X61.700 Y97.699 E32.83115
G1 X61.700 Y102.299 E32.94190
G1 X74.198 Y102.299 E33.24279
G1 X74.198 Y113.699 E33.51724
G1 X50.700 Y113.699 E34.08295
G1 X50.700 Y124.699 E34.34777
G1 X29.633 Y124.685 E34.85495
G1 X29.156 Y124.623 E34.86654
G1 X28.686 Y124.512 E34.87817
G1 X28.229 Y124.355 E34.88979
G1 X27.792 Y124.148 E34.90145
G1 X27.376 Y123.898 E34.91314
G1 X26.988 Y123.608 E34.92479
G1 X26.633 Y123.281 E34.93640
G1 X26.314 Y122.917 E34.94807
G1 X26.034 Y122.522 E34.95973
G1 X25.795 Y122.100 E34.97139
G1 X25.601 Y121.659 E34.98299
G1 X25.455 Y121.197 E34.99467
G1 X25.355 Y120.723 E35.00633
G1 X25.306 Y120.242 E35.01797
G1 X25.306 Y83.493 E35.90269
G1 X25.300 Y83.485 E35.90294
G1 X25.300 Y81.128 E35.95968
G1 X29.668 Y86.549 E36.12728
G1 X30.003 Y86.876 E36.13856
G1 X30.370 Y87.168 E36.14983
G1 X30.764 Y87.419 E36.16109
G1 X31.182 Y87.626 E36.17232
G1 X31.618 Y87.791 E36.18355
G1 X32.071 Y87.911 E36.19482
G1 X32.533 Y87.982 E36.20608
G1 X32.998 Y88.008 E36.21729
G1 X33.465 Y87.982 E36.22855
G1 X33.838 Y87.925 E36.23764
G1 X104.775 Y109.415 F6000.000
G1 X104.847 Y109.187 F1500.000 E36.24339
G1 X104.941 Y108.973 E36.24902
G1 X105.056 Y108.766 E36.25472
G1 X105.194 Y108.573 E36.26045
G1 X105.351 Y108.393 E36.26617
G1 X105.527 Y108.231 E36.27195
G1 X105.717 Y108.091 E36.27762
G1 X105.916 Y107.970 E36.28323
G1 X106.132 Y107.869 E36.28899
G1 X106.355 Y107.791 E36.29467
G1 X106.586 Y107.735 E36.30038
G1 X106.822 Y107.705 E36.30611
G1 X107.047 Y107.701 E36.31153
G1 X119.062 Y107.701 E36.60078
G1 X119.294 Y107.719 E36.60640
G1 X119.527 Y107.760 E36.61209
G1 X119.755 Y107.827 E36.61781
G1 X119.975 Y107.917 E36.62352
G1 X120.185 Y108.027 E36.62924
G1 X120.378 Y108.159 E36.63487
G1 X120.562 Y108.310 E36.64059
G1 X120.728 Y108.481 E36.64633
G1 X120.875 Y108.667 E36.65205
G1 X121.002 Y108.867 E36.65775
G1 X121.107 Y109.079 E36.66345
G1 X121.191 Y109.300 E36.66914
G1 X121.250 Y109.530 E36.67484
G1 X121.287 Y109.761 E36.68048
G1 X121.300 Y109.990 E36.68601
G1 X121.300 Y119.010 E36.90316
G1 X121.287 Y119.237 E36.90864
G1 X121.250 Y119.470 E36.91432
G1 X121.191 Y119.700 E36.92003
G1 X121.107 Y119.921 E36.92572
G1 X121.002 Y120.133 E36.93142
G1 X120.875 Y120.333 E36.93711
G1 X120.728 Y120.519 E36.94284
G1 X120.562 Y120.690 E36.94858
G1 X120.378 Y120.841 E36.95430
G1 X120.185 Y120.973 E36.95993
G1 X119.975 Y121.083 E36.96564
G1 X119.755 Y121.173 E36.97136
G1 X119.527 Y121.240 E36.97708
G1 X119.294 Y121.281 E36.98277
G1 X119.062 Y121.299 E36.98839
G1 X106.825 Y121.295 E37.28298
G1 X106.584 Y121.264 E37.28882
G1 X106.355 Y121.207 E37.29451
G1 X106.134 Y121.132 E37.30014
G1 X105.916 Y121.030 E37.30593
G1 X105.716 Y120.908 E37.31157
G1 X105.526 Y120.766 E37.31727
G1 X105.351 Y120.605 E37.32299
G1 X105.195 Y120.428 E37.32869
G1 X105.056 Y120.234 E37.33444
G1 X104.941 Y120.026 E37.34015
G1 X104.847 Y119.811 E37.34582
G1 X104.775 Y119.585 E37.35150
G1 X104.727 Y119.356 E37.35715
G1 X104.702 Y119.119 E37.36288
G1 X104.702 Y109.881 E37.58529
G1 X104.727 Y109.644 E37.59102
G1 X104.757 Y109.503 E37.59449
G1 X104.251 Y109.278 F6000.000
G1 X104.339 Y108.997 F1500.000 E37.60159
G1 X104.456 Y108.732 E37.60855
G1 X104.598 Y108.477 E37.61559
G1 X104.769 Y108.237 E37.62269
G1 X104.962 Y108.015 E37.62976
G1 X105.182 Y107.813 E37.63696
G1 X105.415 Y107.641 E37.64392
G1 X105.660 Y107.493 E37.65081
G1 X105.928 Y107.367 E37.65794
G1 X106.202 Y107.271 E37.66494
G1 X106.488 Y107.202 E37.67202
G1 X106.782 Y107.165 E37.67917
G1 X107.042 Y107.160 E37.68541
G1 X119.083 Y107.160 E37.97529
G1 X119.363 Y107.181 E37.98206
G1 X119.651 Y107.233 E37.98910
G1 X119.933 Y107.316 E37.99619
G1 X120.203 Y107.425 E38.00321
G1 X120.464 Y107.563 E38.01030
G1 X120.703 Y107.725 E38.01726
G1 X120.929 Y107.911 E38.02431
G1 X121.135 Y108.123 E38.03143
G1 X121.318 Y108.354 E38.03851
G1 X121.474 Y108.601 E38.04554
G1 X121.604 Y108.862 E38.05257
G1 X121.707 Y109.137 E38.05963
G1 X121.781 Y109.419 E38.06665
