; generated by Slic3r 0.7.2-dev on 2012-04-14 at 00:09:37

; layer_height = 0.28
; perimeters = 2
; solid_layers = 3
; fill_density = 0.15
; nozzle_diameter = 0.45
; filament_diameter = 3
; extrusion_multiplier = 1.07
; perimeter_speed = 50
; infill_speed = 80
; travel_speed = 100
; extrusion_width_ratio = 0
; scale = 1
; single wall width = 0.60mm

M104 S200 ; set temperature
M104 S205
G28
G1 Z30 
G92 E0
M109 S205
G1 E5 F30
G92 E0
G1 Z0 F3000
G90 ; use absolute coordinates
G21 ; set units to millimeters
G92 E0 ; reset extrusion distance
M82 ; use absolute distances for extrusion
G1 Z0.280 F6000.000
G1 X56.549 Y19.480
G1
G1 X57.209 Y18.840 F1500.000 E0.02213
G1 X57.679 Y18.460 E0.03668
G1 X58.179 Y18.110 E0.05138
G1 X58.979 Y17.660 E0.07348
G1 X59.529 Y17.410 E0.08802
G1 X60.389 Y17.100 E0.11003
G1 X61.279 Y16.890 E0.13204
G1 X62.189 Y16.780 E0.15411
G1 X62.499 Y16.760 E0.16159
G1 X83.149 Y16.780 E0.65874
G1 X83.629 Y16.810 E0.67032
G1 X84.709 Y16.940 E0.69651
G1 X85.849 Y17.190 E0.72460
G1 X86.319 Y17.320 E0.73634
G1 X87.359 Y17.680 E0.76284
G1 X88.809 Y18.360 E0.80140
G1 X89.819 Y18.960 E0.82968
G1 X90.809 Y19.690 E0.85929
G1 X91.729 Y20.510 E0.88896
G1 X92.069 Y20.850 E0.90054
G1 X92.729 Y21.600 E0.92459
G1 X93.539 Y22.700 E0.95748
G1 X93.799 Y23.110 E0.96917
G1 X94.259 Y23.930 E0.99180
G1 X94.789 Y25.090 E1.02251
G1 X94.959 Y25.540 E1.03409
G1 X95.249 Y26.450 E1.05708
G1 X95.519 Y27.630 E1.08622
G1 X95.699 Y28.990 E1.11925
G1 X95.729 Y120.510 E3.32260
G1 X95.599 Y121.880 E3.35573
G1 X95.519 Y122.360 E3.36744
G1 X95.229 Y123.580 E3.39763
G1 X94.809 Y124.840 E3.42961
G1 X94.259 Y126.060 E3.46183
G1 X93.799 Y126.880 E3.48446
G1 X93.029 Y128.010 E3.51738
G1 X92.729 Y128.390 E3.52904
G1 X92.069 Y129.140 E3.55309
G1 X91.179 Y129.990 E3.58272
G1 X90.809 Y130.300 E3.59434
G1 X89.699 Y131.100 E3.62728
G1 X88.519 Y131.780 E3.66007
G1 X87.659 Y132.180 E3.68290
G1 X86.479 Y132.620 E3.71322
G1 X86.009 Y132.760 E3.72503
G1 X84.709 Y133.050 E3.75710
G1 X83.629 Y133.180 E3.78328
G1 X82.619 Y133.230 E3.80763
G1 X62.499 Y133.230 E4.29202
G1 X61.279 Y133.100 E4.32156
G1 X60.389 Y132.890 E4.34357
G1 X59.529 Y132.580 E4.36558
G1 X58.709 Y132.190 E4.38744
G1 X58.179 Y131.880 E4.40222
G1 X57.679 Y131.530 E4.41692
G1 X57.209 Y131.150 E4.43147
G1 X56.759 Y130.730 E4.44629
G1 X56.339 Y130.280 E4.46111
G1 X55.959 Y129.810 E4.47566
G1 X55.609 Y129.310 E4.49035
G1 X55.159 Y128.510 E4.51245
G1 X54.909 Y127.960 E4.52699
G1 X54.599 Y127.100 E4.54900
G1 X54.389 Y126.210 E4.57102
G1 X54.279 Y125.300 E4.59308
G1 X54.259 Y124.990 E4.60056
G1 X54.259 Y25.000 E7.00782
G1 X54.389 Y23.780 E7.03736
G1 X54.599 Y22.890 E7.05938
G1 X54.909 Y22.030 E7.08138
G1 X55.299 Y21.210 E7.10324
G1 X55.609 Y20.680 E7.11803
G1 X55.959 Y20.180 E7.13272
G1 X56.339 Y19.710 E7.14727
G1 X56.488 Y19.546 E7.15260
G1 X56.839 Y19.960 F6000.000
G1 X57.459 Y19.340 F1500.000 E7.17371
G1 X58.149 Y18.790 E7.19495
G1 X58.879 Y18.320 E7.21586
G1 X59.669 Y17.940 E7.23696
G1 X60.219 Y17.730 E7.25114
G1 X61.059 Y17.490 E7.27217
G1 X61.349 Y17.430 E7.27930
G1 X62.219 Y17.320 E7.30041
G1 X62.799 Y17.300 E7.31438
G1 X83.119 Y17.320 E7.80359
G1 X83.599 Y17.350 E7.81516
G1 X84.599 Y17.470 E7.83941
G1 X85.699 Y17.710 E7.86652
G1 X86.169 Y17.840 E7.87826
G1 X87.149 Y18.180 E7.90323
G1 X88.559 Y18.840 E7.94071
G1 X89.509 Y19.410 E7.96738
G1 X90.459 Y20.110 E7.99579
G1 X91.349 Y20.890 E8.02428
G1 X91.689 Y21.230 E8.03586
G1 X92.309 Y21.930 E8.05837
G1 X92.609 Y22.310 E8.07003
G1 X93.349 Y23.400 E8.10175
G1 X93.779 Y24.170 E8.12298
G1 X94.279 Y25.280 E8.15229
G1 X94.449 Y25.730 E8.16387
G1 X94.719 Y26.580 E8.18534
G1 X94.979 Y27.710 E8.21326
G1 X95.159 Y29.020 E8.24509
G1 X95.189 Y120.480 E10.44699
G1 X95.159 Y120.970 E10.45881
G1 X94.979 Y122.280 E10.49064
G1 X94.709 Y123.440 E10.51932
G1 X94.299 Y124.650 E10.55007
G1 X93.989 Y125.390 E10.56939
G1 X93.779 Y125.820 E10.58091
G1 X93.349 Y126.590 E10.60214
G1 X92.609 Y127.680 E10.63386
G1 X92.309 Y128.060 E10.64552
G1 X91.689 Y128.760 E10.66803
G1 X90.829 Y129.570 E10.69647
G1 X89.799 Y130.380 E10.72802
G1 X89.399 Y130.650 E10.73964
G1 X88.259 Y131.300 E10.77123
G1 X87.459 Y131.680 E10.79255
G1 X86.319 Y132.100 E10.82180
G1 X85.069 Y132.430 E10.85293
G1 X84.599 Y132.520 E10.86445
G1 X83.599 Y132.640 E10.88869
G1 X82.619 Y132.690 E10.91232
G1 X62.219 Y132.670 E11.40345
G1 X61.349 Y132.560 E11.42456
G1 X60.779 Y132.430 E11.43864
G1 X59.939 Y132.160 E11.45988
G1 X59.399 Y131.930 E11.47401
G1 X58.879 Y131.670 E11.48801
G1 X58.149 Y131.200 E11.50891
G1 X57.679 Y130.840 E11.52316
G1 X57.039 Y130.240 E11.54428
G1 X56.649 Y129.810 E11.55826
G1 X56.289 Y129.340 E11.57251
G1 X55.819 Y128.610 E11.59341
G1 X55.439 Y127.820 E11.61452
G1 X55.229 Y127.270 E11.62869
G1 X54.989 Y126.430 E11.64972
G1 X54.929 Y126.140 E11.65685
G1 X54.819 Y125.270 E11.67797
G1 X54.819 Y24.720 E14.09871
G1 X54.929 Y23.850 E14.11982
G1 X55.059 Y23.280 E14.13389
G1 X55.329 Y22.440 E14.15514
G1 X55.559 Y21.900 E14.16927
G1 X55.819 Y21.380 E14.18326
G1 X56.289 Y20.650 E14.20417
G1 X56.649 Y20.180 E14.21842
G1 X56.780 Y20.028 E14.22325
G1 X82.997 Y114.769 F6000.000
G1 X83.177 Y114.726 F900.000 E14.22769
G1 X83.362 Y114.702 E14.23219
G1 X83.547 Y114.698 E14.23664
G1 X83.732 Y114.712 E14.24111
G1 X83.913 Y114.745 E14.24555
G1 X84.092 Y114.796 E14.25003
G1 X84.267 Y114.869 E14.25458
G1 X84.430 Y114.958 E14.25905
G1 X84.579 Y115.059 E14.26340
G1 X84.722 Y115.176 E14.26783
G1 X84.853 Y115.309 E14.27234
G1 X84.969 Y115.457 E14.27685
G1 X85.067 Y115.613 E14.28130
G1 X85.148 Y115.778 E14.28572
G1 X85.215 Y115.951 E14.29018
G1 X85.263 Y116.129 E14.29463
G1 X85.292 Y116.313 E14.29911
G1 X85.302 Y116.500 E14.30362
G1 X85.292 Y116.685 E14.30808
G1 X85.263 Y116.869 E14.31256
G1 X85.215 Y117.047 E14.31701
G1 X85.148 Y117.220 E14.32147
G1 X85.067 Y117.385 E14.32589
G1 X84.969 Y117.541 E14.33034
G1 X84.853 Y117.689 E14.33485
G1 X84.722 Y117.822 E14.33935
G1 X84.579 Y117.939 E14.34379
G1 X84.430 Y118.040 E14.34814
G1 X84.265 Y118.130 E14.35265
G1 X84.092 Y118.200 E14.35714
G1 X83.915 Y118.252 E14.36159
G1 X83.732 Y118.286 E14.36607
G1 X83.547 Y118.300 E14.37054
G1 X83.360 Y118.296 E14.37504
G1 X83.177 Y118.269 E14.37950
G1 X82.997 Y118.229 E14.38393
G1 X82.822 Y118.166 E14.38840
G1 X82.654 Y118.090 E14.39284
G1 X82.494 Y117.993 E14.39736
G1 X82.347 Y117.881 E14.40181
G1 X82.209 Y117.756 E14.40628
G1 X82.090 Y117.617 E14.41069
G1 X81.979 Y117.466 E14.41520
G1 X81.890 Y117.304 E14.41963
G1 X81.814 Y117.135 E14.42410
G1 X81.758 Y116.956 E14.42862
G1 X81.722 Y116.775 E14.43308
G1 X81.703 Y116.592 E14.43751
G1 X81.703 Y116.406 E14.44196
G1 X81.722 Y116.223 E14.44640
G1 X81.758 Y116.042 E14.45084
G1 X81.814 Y115.861 E14.45542
G1 X81.891 Y115.693 E14.45986
G1 X81.979 Y115.532 E14.46428
G1 X82.090 Y115.381 E14.46878
G1 X82.209 Y115.242 E14.47319
G1 X82.347 Y115.117 E14.47767
G1 X82.494 Y115.005 E14.48212
G1 X82.711 Y114.874 E14.48823
G1 X82.728 Y114.874 E14.48863
G1 X82.822 Y114.829 E14.49114
G1 X82.912 Y114.799 E14.49343
G1 X82.846 Y114.249 F6000.000
G1 X83.078 Y114.193 F900.000 E14.49918
G1 X83.320 Y114.162 E14.50504
G1 X83.561 Y114.156 E14.51085
G1 X83.802 Y114.175 E14.51667
G1 X84.036 Y114.218 E14.52241
G1 X84.271 Y114.284 E14.52827
G1 X84.501 Y114.380 E14.53427
G1 X84.712 Y114.495 E14.54007
G1 X84.903 Y114.625 E14.54563
G1 X85.087 Y114.776 E14.55135
G1 X85.260 Y114.951 E14.55728
G1 X85.411 Y115.144 E14.56318
G1 X85.540 Y115.348 E14.56900
G1 X85.645 Y115.561 E14.57470
G1 X85.730 Y115.783 E14.58043
G1 X85.793 Y116.016 E14.58624
G1 X85.831 Y116.257 E14.59210
G1 X85.843 Y116.500 E14.59798
G1 X85.831 Y116.742 E14.60380
G1 X85.793 Y116.982 E14.60965
G1 X85.730 Y117.215 E14.61547
G1 X85.645 Y117.437 E14.62120
G1 X85.540 Y117.650 E14.62689
G1 X85.411 Y117.854 E14.63271
G1 X85.260 Y118.047 E14.63861
G1 X85.087 Y118.222 E14.64455
G1 X84.903 Y118.373 E14.65026
G1 X84.712 Y118.503 E14.65582
G1 X84.496 Y118.620 E14.66174
G1 X84.271 Y118.711 E14.66760
G1 X84.042 Y118.779 E14.67335
G1 X83.802 Y118.823 E14.67921
G1 X83.561 Y118.842 E14.68504
G1 X83.314 Y118.836 E14.69098
G1 X83.078 Y118.802 E14.69672
G1 X82.846 Y118.749 E14.70245
G1 X82.618 Y118.668 E14.70827
G1 X82.401 Y118.569 E14.71403
G1 X82.190 Y118.441 E14.71998
G1 X82.000 Y118.297 E14.72570
G1 X81.821 Y118.134 E14.73155
G1 X81.666 Y117.954 E14.73727
G1 X81.522 Y117.757 E14.74312
G1 X81.406 Y117.547 E14.74891
G1 X81.307 Y117.328 E14.75468
G1 X81.233 Y117.091 E14.76068
G1 X81.186 Y116.855 E14.76646
G1 X81.162 Y116.620 E14.77216
G1 X81.162 Y116.378 E14.77797
G1 X81.186 Y116.143 E14.78367
G1 X81.232 Y115.909 E14.78940
G1 X81.307 Y115.667 E14.79551
G1 X81.407 Y115.449 E14.80127
G1 X81.522 Y115.241 E14.80701
G1 X81.666 Y115.044 E14.81286
G1 X81.821 Y114.864 E14.81858
G1 X82.000 Y114.701 E14.82443
G1 X82.190 Y114.557 E14.83015
G1 X82.560 Y114.333 E14.84058
G1 X82.607 Y114.333 E14.84170
G1 X82.618 Y114.327 E14.84201
G1 X82.761 Y114.278 E14.84564
G1 X82.618 Y113.467 F6000.000
G1 X82.935 Y113.393 F1500.000 E14.85346
G1 X83.257 Y113.350 E14.86128
G1 X83.581 Y113.342 E14.86908
G1 X83.906 Y113.367 E14.87695
G1 X84.226 Y113.426 E14.88476
G1 X84.537 Y113.516 E14.89256
G1 X84.839 Y113.639 E14.90042
G1 X85.123 Y113.791 E14.90817
G1 X85.396 Y113.975 E14.91610
G1 X85.646 Y114.182 E14.92392
G1 X85.871 Y114.411 E14.93165
G1 X86.072 Y114.669 E14.93951
G1 X86.249 Y114.944 E14.94739
G1 X86.393 Y115.234 E14.95518
G1 X86.508 Y115.537 E14.96300
G1 X86.590 Y115.854 E14.97087
G1 X86.641 Y116.176 E14.97872
G1 X86.660 Y116.522 E14.98707
G1 X86.660 Y119.977 E15.07024
G1 X86.635 Y120.425 E15.08105
G1 X86.568 Y120.850 E15.09140
G1 X86.460 Y121.266 E15.10175
G1 X86.311 Y121.664 E15.11199
G1 X86.119 Y122.046 E15.12227
G1 X85.888 Y122.408 E15.13260
G1 X85.623 Y122.743 E15.14290
G1 X85.323 Y123.050 E15.15323
G1 X84.994 Y123.325 E15.16355
G1 X84.641 Y123.564 E15.17381
G1 X84.262 Y123.765 E15.18414
G1 X83.868 Y123.926 E15.19439
G1 X83.454 Y124.044 E15.20475
G1 X83.031 Y124.123 E15.21511
G1 X82.609 Y124.156 E15.22529
G1 X81.660 Y124.126 E15.24817
G1 X81.660 Y124.159 E15.24895
G1 X63.340 Y124.159 E15.68999
G1 X63.340 Y77.839 E16.80512
G1 X70.658 Y77.839 E16.98129
G1 X70.658 Y117.841 E17.94434
G1 X78.944 Y117.841 E18.14384
G1 X80.825 Y114.819 E18.22955
G1 X81.025 Y114.539 E18.23781
G1 X81.239 Y114.294 E18.24566
G1 X81.454 Y114.095 E18.25271
G1 X81.456 Y114.094 E18.25275
G1 X81.479 Y114.073 E18.25350
G1 X81.738 Y113.879 E18.26130
G1 X82.015 Y113.712 E18.26908
G1 X82.310 Y113.575 E18.27692
G1 X82.533 Y113.497 E18.28262
G1 X82.467 Y112.947 F6000.000
G1 X82.837 Y112.860 F1500.000 E18.29178
G1 X83.214 Y112.810 E18.30094
G1 X83.595 Y112.800 E18.31010
G1 X83.976 Y112.830 E18.31931
G1 X84.350 Y112.898 E18.32846
G1 X84.715 Y113.004 E18.33759
G1 X85.069 Y113.148 E18.34681
G1 X85.403 Y113.327 E18.35591
G1 X85.721 Y113.541 E18.36515
G1 X86.013 Y113.783 E18.37430
G1 X86.279 Y114.055 E18.38344
G1 X86.514 Y114.356 E18.39263
G1 X86.720 Y114.677 E18.40181
G1 X86.890 Y115.017 E18.41096
G1 X87.025 Y115.373 E18.42014
G1 X87.121 Y115.743 E18.42935
G1 X87.180 Y116.119 E18.43852
G1 X87.201 Y116.508 E18.44789
G1 X87.201 Y119.992 E18.53176
G1 X87.174 Y120.482 E18.54359
G1 X87.099 Y120.961 E18.55524
G1 X86.976 Y121.429 E18.56690
G1 X86.808 Y121.882 E18.57853
G1 X86.590 Y122.314 E18.59017
G1 X86.330 Y122.722 E18.60182
G1 X86.029 Y123.101 E18.61348
G1 X85.691 Y123.447 E18.62514
G1 X85.320 Y123.758 E18.63678
G1 X84.920 Y124.028 E18.64840
G1 X84.492 Y124.256 E18.66008
G1 X84.045 Y124.438 E18.67170
G1 X83.578 Y124.572 E18.68338
G1 X83.102 Y124.660 E18.69505
G1 X82.622 Y124.698 E18.70664
G1 X82.201 Y124.684 E18.71678
G1 X82.201 Y124.700 E18.71715
G1 X62.799 Y124.700 E19.18425
G1 X62.799 Y77.298 E20.32545
G1 X71.199 Y77.298 E20.52767
G1 X71.199 Y117.300 E21.49072
G1 X78.644 Y117.300 E21.66995
G1 X80.375 Y114.519 E21.74883
G1 X80.599 Y114.204 E21.75814
G1 X80.850 Y113.916 E21.76734
G1 X81.107 Y113.680 E21.77573
G1 X81.108 Y113.679 E21.77575
G1 X81.131 Y113.657 E21.77654
G1 X81.435 Y113.429 E21.78567
G1 X81.760 Y113.233 E21.79481
G1 X82.106 Y113.072 E21.80399
G1 X82.382 Y112.976 E21.81103
G1 X83.547 Y35.298 F6000.000
G1 X83.362 Y35.294 F900.000 E21.81549
G1 X83.178 Y35.270 E21.81994
G1 X82.997 Y35.229 E21.82441
G1 X82.822 Y35.166 E21.82888
G1 X82.654 Y35.090 E21.83332
G1 X82.494 Y34.993 E21.83784
G1 X82.347 Y34.881 E21.84229
G1 X82.209 Y34.756 E21.84676
G1 X82.090 Y34.617 E21.85117
G1 X81.979 Y34.466 E21.85568
G1 X81.890 Y34.304 E21.86011
G1 X81.814 Y34.135 E21.86460
G1 X81.758 Y33.954 E21.86915
G1 X81.722 Y33.775 E21.87354
G1 X81.703 Y33.592 E21.87799
G1 X81.703 Y33.406 E21.88244
G1 X81.722 Y33.223 E21.88687
G1 X81.758 Y33.042 E21.89133
G1 X81.814 Y32.863 E21.89585
G1 X81.890 Y32.694 E21.90032
G1 X81.979 Y32.532 E21.90475
G1 X82.090 Y32.381 E21.90926
G1 X82.209 Y32.242 E21.91367
G1 X82.347 Y32.117 E21.91814
G1 X82.494 Y32.005 E21.92259
G1 X82.711 Y31.874 E21.92870
G1 X82.730 Y31.874 E21.92915
G1 X82.822 Y31.832 E21.93160
G1 X82.997 Y31.769 E21.93607
G1 X83.178 Y31.728 E21.94055
G1 X83.362 Y31.704 E21.94500
G1 X83.547 Y31.700 E21.94945
G1 X83.732 Y31.714 E21.95392
G1 X83.913 Y31.747 E21.95836
G1 X84.090 Y31.798 E21.96279
G1 X84.265 Y31.868 E21.96733
G1 X84.430 Y31.958 E21.97184
G1 X84.579 Y32.059 E21.97619
G1 X84.722 Y32.176 E21.98063
G1 X84.853 Y32.309 E21.98513
G1 X84.969 Y32.457 E21.98964
G1 X85.067 Y32.613 E21.99410
G1 X85.148 Y32.777 E21.99849
G1 X85.218 Y32.958 E22.00316
G1 X85.223 Y32.983 E22.00378
G1 X85.263 Y33.129 E22.00743
G1 X85.292 Y33.313 E22.01190
G1 X85.302 Y33.498 E22.01636
G1 X85.292 Y33.685 E22.02088
G1 X85.263 Y33.868 E22.02534
G1 X85.215 Y34.049 E22.02985
G1 X85.148 Y34.221 E22.03429
G1 X85.067 Y34.385 E22.03868
G1 X84.969 Y34.541 E22.04314
G1 X84.853 Y34.689 E22.04765
G1 X84.722 Y34.822 E22.05215
G1 X84.579 Y34.939 E22.05659
G1 X84.430 Y35.040 E22.06094
G1 X84.265 Y35.130 E22.06545
G1 X84.090 Y35.200 E22.06999
G1 X83.913 Y35.251 E22.07442
G1 X83.732 Y35.284 E22.07886
G1 X83.637 Y35.291 E22.08116
G1 X83.561 Y35.840 F6000.000
G1 X83.320 Y35.834 F900.000 E22.08697
G1 X83.084 Y35.803 E22.09270
G1 X82.846 Y35.749 E22.09856
G1 X82.618 Y35.668 E22.10438
G1 X82.401 Y35.569 E22.11014
G1 X82.190 Y35.441 E22.11609
G1 X82.000 Y35.297 E22.12181
G1 X81.821 Y35.134 E22.12766
G1 X81.666 Y34.954 E22.13338
G1 X81.522 Y34.757 E22.13923
G1 X81.406 Y34.547 E22.14502
G1 X81.307 Y34.327 E22.15083
G1 X81.233 Y34.088 E22.15685
G1 X81.186 Y33.856 E22.16254
G1 X81.162 Y33.620 E22.16827
G1 X81.162 Y33.378 E22.17407
G1 X81.186 Y33.143 E22.17978
G1 X81.233 Y32.907 E22.18555
G1 X81.307 Y32.670 E22.19155
G1 X81.406 Y32.451 E22.19732
G1 X81.522 Y32.241 E22.20311
G1 X81.666 Y32.044 E22.20896
G1 X81.821 Y31.864 E22.21469
G1 X82.000 Y31.701 E22.22054
G1 X82.190 Y31.557 E22.22625
G1 X82.560 Y31.333 E22.23668
G1 X82.612 Y31.333 E22.23793
G1 X82.618 Y31.330 E22.23810
G1 X82.846 Y31.249 E22.24392
G1 X83.084 Y31.195 E22.24979
G1 X83.320 Y31.164 E22.25552
G1 X83.561 Y31.158 E22.26133
G1 X83.802 Y31.177 E22.26715
G1 X84.036 Y31.220 E22.27289
G1 X84.266 Y31.285 E22.27863
G1 X84.496 Y31.378 E22.28462
G1 X84.712 Y31.495 E22.29053
G1 X84.903 Y31.625 E22.29610
G1 X85.087 Y31.776 E22.30181
G1 X85.260 Y31.951 E22.30774
G1 X85.411 Y32.144 E22.31365
G1 X85.540 Y32.348 E22.31946
G1 X85.644 Y32.559 E22.32511
G1 X85.740 Y32.805 E22.33148
G1 X85.750 Y32.859 E22.33280
G1 X85.793 Y33.016 E22.33670
G1 X85.831 Y33.256 E22.34257
G1 X85.843 Y33.498 E22.34839
G1 X85.831 Y33.741 E22.35426
G1 X85.793 Y33.980 E22.36009
G1 X85.730 Y34.218 E22.36600
G1 X85.644 Y34.439 E22.37172
G1 X85.540 Y34.650 E22.37737
G1 X85.411 Y34.854 E22.38318
G1 X85.260 Y35.047 E22.38908
G1 X85.087 Y35.222 E22.39502
G1 X84.903 Y35.373 E22.40073
G1 X84.712 Y35.503 E22.40630
G1 X84.496 Y35.620 E22.41221
G1 X84.266 Y35.713 E22.41820
G1 X84.036 Y35.778 E22.42394
G1 X83.802 Y35.821 E22.42967
G1 X83.651 Y35.833 E22.43333
G1 X83.581 Y36.656 F6000.000
G1 X83.257 Y36.648 F1500.000 E22.44114
G1 X82.935 Y36.605 E22.44895
G1 X82.618 Y36.531 E22.45678
G1 X82.310 Y36.423 E22.46465
G1 X82.015 Y36.286 E22.47248
G1 X81.739 Y36.120 E22.48023
G1 X81.479 Y35.923 E22.48808
G1 X81.237 Y35.701 E22.49600
