; generated by Slic3r 0.6.1-dev on 2012-02-26 at 15:10:34

; layer_height = 0.28
; perimeters = 2
; solid_layers = 3
; fill_density = 0.25
; nozzle_diameter = 0.45
; filament_diameter = 3
; perimeter_speed = 45
; infill_speed = 75
; travel_speed = 150
; extrusion_width_ratio = 0
; scale = 1
; single wall width = 0.60mm

M104 S185 ; set temperature
M104 S170
G28
G1 Z30 
G92 E0
M109 S175
G1 E5 F30
G92 E0
G1 Z0 F300
M109 S185 ; wait for temperature to be reached
G90 ; use absolute coordinates
G21 ; set units to millimeters
G92 E0 ; reset extrusion distance
M82 ; use absolute distances for extrusion
G1 Z0.280 F9000.000
G1 X19.250 Y19.771
G1
G1 X19.370 Y19.651 F2025.000 E0.00409
G1 X20.130 Y18.971 E0.02864
G1 X20.270 Y18.861 E0.03292
G1 X21.160 Y18.261 E0.05876
G1 X21.310 Y18.171 E0.06298
G1 X22.280 Y17.661 E0.08936
G1 X23.190 Y17.311 E0.11283
G1 X24.070 Y17.051 E0.13492
G1 X24.240 Y17.011 E0.13913
G1 X25.200 Y16.841 E0.16260
G1 X25.370 Y16.821 E0.16672
G1 X26.370 Y16.761 E0.19084
G1 X123.990 Y16.771 E2.54104
G1 X125.100 Y16.881 E2.56790
G1 X125.280 Y16.911 E2.57229
G1 X126.430 Y17.191 E2.60078
G1 X127.290 Y17.491 E2.62271
G1 X128.230 Y17.921 E2.64760
G1 X129.100 Y18.431 E2.67188
G1 X129.250 Y18.531 E2.67622
G1 X130.030 Y19.121 E2.69976
G1 X130.800 Y19.831 E2.72498
G1 X131.480 Y20.591 E2.74953
G1 X131.590 Y20.731 E2.75382
G1 X132.190 Y21.621 E2.77966
G1 X132.580 Y22.291 E2.79832
G1 X133.090 Y23.471 E2.82927
G1 X133.340 Y24.241 E2.84876
G1 X133.560 Y25.171 E2.87177
G1 X133.590 Y25.341 E2.87592
G1 X133.710 Y26.351 E2.90041
G1 X133.720 Y123.461 E5.23833
G1 X133.710 Y123.641 E5.24267
G1 X133.590 Y124.651 E5.26716
G1 X133.560 Y124.821 E5.27132
G1 X133.340 Y125.751 E5.29432
G1 X133.100 Y126.511 E5.31351
G1 X133.040 Y126.671 E5.31763
G1 X132.600 Y127.651 E5.34349
G1 X132.190 Y128.371 E5.36344
G1 X131.590 Y129.261 E5.38928
G1 X131.480 Y129.401 E5.39356
G1 X130.800 Y130.161 E5.41811
G1 X130.680 Y130.281 E5.42220
G1 X129.920 Y130.961 E5.44675
G1 X129.320 Y131.401 E5.46467
G1 X128.380 Y131.991 E5.49138
G1 X128.230 Y132.071 E5.49548
G1 X127.290 Y132.501 E5.52036
G1 X126.430 Y132.801 E5.54229
G1 X125.280 Y133.081 E5.57079
G1 X125.100 Y133.111 E5.57518
G1 X123.990 Y133.221 E5.60203
G1 X123.520 Y133.231 E5.61335
G1 X26.370 Y133.231 E7.95224
G1 X25.370 Y133.171 E7.97636
G1 X25.200 Y133.151 E7.98048
G1 X24.240 Y132.981 E8.00395
G1 X24.070 Y132.941 E8.00815
G1 X23.020 Y132.621 E8.03458
G1 X22.040 Y132.211 E8.06015
G1 X21.160 Y131.721 E8.08440
G1 X20.450 Y131.251 E8.10490
G1 X19.370 Y130.341 E8.13890
G1 X18.890 Y129.841 E8.15559
G1 X18.220 Y129.011 E8.18127
G1 X18.120 Y128.871 E8.18541
G1 X17.630 Y128.101 E8.20738
G1 X17.150 Y127.171 E8.23258
G1 X17.080 Y127.011 E8.23679
G1 X16.710 Y125.981 E8.26313
G1 X16.440 Y124.921 E8.28947
G1 X16.310 Y124.031 E8.31112
G1 X16.280 Y26.441 E10.66060
G1 X16.310 Y25.961 E10.67218
G1 X16.440 Y25.071 E10.69383
G1 X16.720 Y23.981 E10.72093
G1 X17.080 Y22.971 E10.74674
G1 X17.150 Y22.811 E10.75095
G1 X17.660 Y21.841 E10.77733
G1 X18.220 Y20.981 E10.80204
G1 X18.890 Y20.151 E10.82772
G1 X19.187 Y19.836 E10.83815
G1 X19.630 Y20.151 F9000.000
G1 X19.750 Y20.031 F2025.000 E10.84224
G1 X20.470 Y19.401 E10.86527
G1 X20.610 Y19.291 E10.86956
G1 X21.430 Y18.721 E10.89360
G1 X21.580 Y18.631 E10.89781
G1 X22.490 Y18.161 E10.92247
G1 X23.370 Y17.821 E10.94518
G1 X24.200 Y17.571 E10.96605
G1 X24.370 Y17.531 E10.97026
G1 X25.270 Y17.371 E10.99226
G1 X25.440 Y17.351 E10.99638
G1 X26.370 Y17.301 E11.01881
G1 X123.960 Y17.311 E13.36828
G1 X124.140 Y17.321 E13.37262
G1 X125.200 Y17.451 E13.39834
G1 X126.270 Y17.701 E13.42479
G1 X127.260 Y18.061 E13.45015
G1 X128.120 Y18.481 E13.47319
G1 X128.800 Y18.881 E13.49219
G1 X128.950 Y18.981 E13.49653
G1 X129.680 Y19.531 E13.51853
G1 X130.420 Y20.211 E13.54273
G1 X131.050 Y20.931 E13.56576
G1 X131.160 Y21.071 E13.57004
G1 X131.730 Y21.891 E13.59409
G1 X132.100 Y22.551 E13.61230
G1 X132.580 Y23.651 E13.64120
G1 X132.820 Y24.391 E13.65993
G1 X133.030 Y25.261 E13.68147
G1 X133.060 Y25.431 E13.68563
G1 X133.170 Y26.381 E13.70865
G1 X133.180 Y123.431 E16.04513
G1 X133.170 Y123.611 E16.04947
G1 X133.060 Y124.561 E16.07250
G1 X133.030 Y124.731 E16.07665
G1 X132.770 Y125.771 E16.10246
G1 X132.530 Y126.481 E16.12050
G1 X132.200 Y127.251 E16.14067
G1 X131.730 Y128.101 E16.16406
G1 X131.160 Y128.921 E16.18810
G1 X131.050 Y129.061 E16.19239
G1 X130.420 Y129.781 E16.21542
G1 X130.300 Y129.901 E16.21950
G1 X129.580 Y130.531 E16.24254
G1 X129.010 Y130.961 E16.25973
G1 X128.120 Y131.511 E16.28491
G1 X127.260 Y131.931 E16.30796
G1 X126.430 Y132.241 E16.32929
G1 X126.270 Y132.291 E16.33332
G1 X125.200 Y132.541 E16.35978
G1 X124.140 Y132.671 E16.38549
G1 X123.520 Y132.691 E16.40042
G1 X26.370 Y132.691 E18.73931
G1 X25.440 Y132.641 E18.76173
G1 X25.270 Y132.621 E18.76585
G1 X24.370 Y132.461 E18.78786
G1 X24.200 Y132.421 E18.79206
G1 X23.200 Y132.111 E18.81727
G1 X22.280 Y131.731 E18.84123
G1 X21.430 Y131.261 E18.86462
G1 X20.760 Y130.811 E18.88405
G1 X19.750 Y129.961 E18.91583
G1 X19.290 Y129.481 E18.93183
G1 X18.660 Y128.701 E18.95597
G1 X18.560 Y128.561 E18.96011
G1 X18.010 Y127.671 E18.98530
G1 X17.650 Y126.961 E19.00447
G1 X17.270 Y125.981 E19.02977
G1 X16.970 Y124.821 E19.05862
G1 X16.880 Y124.261 E19.07227
G1 X16.820 Y123.521 E19.09015
G1 X16.820 Y26.471 E21.42663
G1 X16.880 Y25.731 E21.44450
G1 X16.970 Y25.171 E21.45815
G1 X17.240 Y24.131 E21.48402
G1 X17.580 Y23.181 E21.50831
G1 X17.650 Y23.021 E21.51252
G1 X18.120 Y22.111 E21.53718
G1 X18.660 Y21.291 E21.56081
G1 X19.290 Y20.511 E21.58495
G1 X19.568 Y20.216 E21.59471
G1 X94.110 Y71.082 F9000.000
G1 X93.740 Y71.736 F2025.000 E21.61280
G1 X93.439 Y72.425 E21.63090
G1 X93.210 Y73.141 E21.64900
G1 X93.057 Y73.877 E21.66709
G1 X92.979 Y74.624 E21.68519
G1 X92.979 Y75.376 E21.70328
G1 X93.057 Y76.123 E21.72138
G1 X93.210 Y76.859 E21.73947
G1 X93.439 Y77.575 E21.75757
G1 X93.740 Y78.264 E21.77567
G1 X94.110 Y78.918 E21.79376
G1 X94.546 Y79.531 E21.81186
G1 X95.042 Y80.095 E21.82995
G1 X95.593 Y80.606 E21.84805
G1 X96.195 Y81.057 E21.86614
G1 X96.839 Y81.444 E21.88424
G1 X97.520 Y81.763 E21.90234
G1 X98.230 Y82.010 E21.92043
G1 X98.961 Y82.182 E21.93853
G1 X99.707 Y82.279 E21.95662
G1 X100.458 Y82.298 E21.97472
G1 X101.208 Y82.240 E21.99282
G1 X101.947 Y82.105 E22.01091
G1 X102.669 Y81.895 E22.02901
G1 X103.365 Y81.612 E22.04710
G1 X104.028 Y81.259 E22.06520
G1 X104.652 Y80.839 E22.08329
G1 X105.229 Y80.358 E22.10139
G1 X105.754 Y79.819 E22.11949
G1 X106.220 Y79.230 E22.13758
G1 X106.624 Y78.596 E22.15568
G1 X106.960 Y77.924 E22.17377
G1 X107.225 Y77.220 E22.19187
G1 X107.416 Y76.493 E22.20996
G1 X107.532 Y75.751 E22.22806
G1 X107.571 Y75.000 E22.24616
G1 X107.532 Y74.249 E22.26425
G1 X107.416 Y73.507 E22.28235
G1 X107.225 Y72.780 E22.30045
G1 X106.960 Y72.076 E22.31854
G1 X106.624 Y71.404 E22.33664
G1 X106.220 Y70.770 E22.35473
G1 X105.754 Y70.180 E22.37283
G1 X105.229 Y69.642 E22.39092
G1 X104.652 Y69.161 E22.40902
G1 X104.028 Y68.741 E22.42712
G1 X103.365 Y68.388 E22.44521
G1 X102.669 Y68.105 E22.46331
G1 X101.947 Y67.895 E22.48140
G1 X101.208 Y67.760 E22.49950
G1 X100.458 Y67.702 E22.51760
G1 X99.707 Y67.721 E22.53569
G1 X98.961 Y67.818 E22.55379
G1 X98.230 Y67.990 E22.57188
G1 X97.520 Y68.237 E22.58998
G1 X96.839 Y68.556 E22.60807
G1 X96.195 Y68.943 E22.62617
G1 X95.593 Y69.394 E22.64427
G1 X95.042 Y69.905 E22.66236
G1 X94.546 Y70.469 E22.68046
G1 X94.162 Y71.008 E22.69638
G1 X93.653 Y70.791 F9000.000
G1 X93.255 Y71.494 F2025.000 E22.71582
G1 X92.932 Y72.233 E22.73526
G1 X92.686 Y73.003 E22.75470
G1 X92.521 Y73.793 E22.77414
G1 X92.438 Y74.596 E22.79358
G1 X92.438 Y75.404 E22.81302
G1 X92.521 Y76.207 E22.83246
G1 X92.686 Y76.997 E22.85190
G1 X92.932 Y77.766 E22.87134
G1 X93.255 Y78.506 E22.89078
G1 X93.653 Y79.209 E22.91022
G1 X94.121 Y79.867 E22.92966
G1 X94.654 Y80.474 E22.94909
G1 X95.246 Y81.022 E22.96854
G1 X95.892 Y81.507 E22.98797
G1 X96.584 Y81.922 E23.00741
G1 X97.316 Y82.265 E23.02685
G1 X98.078 Y82.530 E23.04629
G1 X98.864 Y82.715 E23.06573
G1 X99.665 Y82.819 E23.08517
G1 X100.472 Y82.840 E23.10461
G1 X101.277 Y82.778 E23.12405
G1 X102.072 Y82.633 E23.14349
G1 X102.847 Y82.407 E23.16293
G1 X103.595 Y82.103 E23.18237
G1 X104.307 Y81.723 E23.20180
G1 X104.977 Y81.273 E23.22124
G1 X105.597 Y80.755 E23.24068
G1 X106.161 Y80.177 E23.26012
G1 X106.662 Y79.544 E23.27956
G1 X107.095 Y78.863 E23.29900
G1 X107.456 Y78.141 E23.31844
G1 X107.741 Y77.385 E23.33788
G1 X107.947 Y76.604 E23.35732
G1 X108.071 Y75.806 E23.37676
G1 X108.113 Y75.000 E23.39620
G1 X108.071 Y74.194 E23.41563
G1 X107.947 Y73.396 E23.43508
G1 X107.741 Y72.615 E23.45452
G1 X107.456 Y71.859 E23.47395
G1 X107.095 Y71.137 E23.49339
G1 X106.662 Y70.456 E23.51283
G1 X106.161 Y69.823 E23.53227
G1 X105.597 Y69.244 E23.55171
G1 X104.977 Y68.727 E23.57115
G1 X104.307 Y68.276 E23.59059
G1 X103.595 Y67.897 E23.61003
G1 X102.847 Y67.593 E23.62947
G1 X102.072 Y67.367 E23.64891
G1 X101.277 Y67.222 E23.66835
G1 X100.472 Y67.160 E23.68779
G1 X99.665 Y67.181 E23.70722
G1 X98.864 Y67.285 E23.72666
G1 X98.078 Y67.470 E23.74610
G1 X97.316 Y67.735 E23.76554
G1 X96.584 Y68.078 E23.78498
G1 X95.892 Y68.493 E23.80442
G1 X95.246 Y68.978 E23.82386
G1 X94.654 Y69.526 E23.84330
G1 X94.121 Y70.133 E23.86274
G1 X93.705 Y70.718 E23.88001
G1 X63.220 Y49.230 F9000.000
G1 X63.624 Y48.596 F2025.000 E23.89810
G1 X63.960 Y47.924 E23.91620
G1 X64.225 Y47.220 E23.93429
G1 X64.416 Y46.493 E23.95239
G1 X64.532 Y45.751 E23.97049
G1 X64.571 Y45.000 E23.98858
G1 X64.532 Y44.249 E24.00668
G1 X64.416 Y43.507 E24.02477
G1 X64.225 Y42.780 E24.04287
G1 X63.960 Y42.076 E24.06097
G1 X63.624 Y41.404 E24.07906
G1 X63.220 Y40.770 E24.09716
G1 X62.754 Y40.180 E24.11525
G1 X62.229 Y39.642 E24.13335
G1 X61.652 Y39.161 E24.15145
G1 X61.028 Y38.741 E24.16954
G1 X60.365 Y38.388 E24.18764
G1 X59.669 Y38.105 E24.20573
G1 X58.947 Y37.895 E24.22383
G1 X58.208 Y37.760 E24.24192
G1 X57.458 Y37.702 E24.26002
G1 X56.707 Y37.721 E24.27811
G1 X55.961 Y37.818 E24.29621
G1 X55.230 Y37.990 E24.31431
G1 X54.520 Y38.237 E24.33240
G1 X53.839 Y38.556 E24.35050
G1 X53.195 Y38.943 E24.36859
G1 X52.593 Y39.394 E24.38669
G1 X52.042 Y39.905 E24.40479
G1 X51.546 Y40.469 E24.42288
G1 X51.110 Y41.082 E24.44098
G1 X50.740 Y41.736 E24.45907
G1 X50.439 Y42.425 E24.47717
G1 X50.210 Y43.141 E24.49527
G1 X50.057 Y43.877 E24.51336
G1 X49.979 Y44.624 E24.53146
G1 X49.979 Y45.376 E24.54955
G1 X50.057 Y46.123 E24.56765
G1 X50.210 Y46.859 E24.58574
G1 X50.439 Y47.575 E24.60384
G1 X50.740 Y48.264 E24.62194
G1 X51.110 Y48.918 E24.64003
G1 X51.546 Y49.531 E24.65813
G1 X52.042 Y50.095 E24.67622
G1 X52.593 Y50.606 E24.69432
G1 X53.195 Y51.057 E24.71242
G1 X53.839 Y51.444 E24.73051
G1 X54.520 Y51.763 E24.74861
G1 X55.230 Y52.010 E24.76670
G1 X55.961 Y52.182 E24.78480
G1 X56.707 Y52.279 E24.80290
G1 X57.458 Y52.298 E24.82099
G1 X58.208 Y52.240 E24.83909
G1 X58.947 Y52.105 E24.85718
G1 X59.669 Y51.895 E24.87528
G1 X60.365 Y51.612 E24.89337
G1 X61.028 Y51.259 E24.91147
G1 X61.652 Y50.839 E24.92957
G1 X62.229 Y50.358 E24.94766
G1 X62.754 Y49.819 E24.96576
G1 X63.164 Y49.301 E24.98169
G1 X63.662 Y49.544 F9000.000
G1 X64.095 Y48.863 F2025.000 E25.00112
G1 X64.456 Y48.141 E25.02056
G1 X64.741 Y47.385 E25.04000
G1 X64.947 Y46.604 E25.05944
G1 X65.071 Y45.806 E25.07888
G1 X65.113 Y45.000 E25.09832
G1 X65.071 Y44.194 E25.11776
G1 X64.947 Y43.396 E25.13720
G1 X64.741 Y42.615 E25.15664
G1 X64.456 Y41.859 E25.17608
G1 X64.095 Y41.137 E25.19552
G1 X63.662 Y40.456 E25.21495
G1 X63.161 Y39.823 E25.23440
G1 X62.597 Y39.244 E25.25383
G1 X61.977 Y38.727 E25.27327
G1 X61.307 Y38.276 E25.29271
G1 X60.595 Y37.897 E25.31215
G1 X59.847 Y37.593 E25.33159
G1 X59.072 Y37.367 E25.35103
G1 X58.277 Y37.222 E25.37047
G1 X57.472 Y37.160 E25.38991
G1 X56.665 Y37.181 E25.40935
G1 X55.864 Y37.285 E25.42879
G1 X55.078 Y37.470 E25.44823
G1 X54.316 Y37.735 E25.46766
G1 X53.584 Y38.078 E25.48710
G1 X52.892 Y38.493 E25.50654
G1 X52.246 Y38.978 E25.52598
G1 X51.654 Y39.526 E25.54542
G1 X51.121 Y40.133 E25.56486
G1 X50.653 Y40.791 E25.58430
G1 X50.255 Y41.494 E25.60374
G1 X49.932 Y42.233 E25.62318
G1 X49.686 Y43.003 E25.64262
G1 X49.521 Y43.793 E25.66206
G1 X49.438 Y44.596 E25.68150
G1 X49.438 Y45.404 E25.70094
G1 X49.521 Y46.207 E25.72037
G1 X49.686 Y46.997 E25.73981
G1 X49.932 Y47.766 E25.75925
G1 X50.255 Y48.506 E25.77869
G1 X50.653 Y49.209 E25.79813
G1 X51.121 Y49.867 E25.81757
G1 X51.654 Y50.474 E25.83701
G1 X52.246 Y51.022 E25.85645
G1 X52.892 Y51.507 E25.87589
G1 X53.584 Y51.922 E25.89533
G1 X54.316 Y52.265 E25.91477
G1 X55.078 Y52.530 E25.93421
G1 X55.864 Y52.715 E25.95364
G1 X56.665 Y52.819 E25.97309
G1 X57.472 Y52.840 E25.99252
G1 X58.277 Y52.778 E26.01196
G1 X59.072 Y52.633 E26.03140
G1 X59.847 Y52.407 E26.05084
G1 X60.595 Y52.103 E26.07028
G1 X61.307 Y51.723 E26.08972
G1 X61.977 Y51.273 E26.10916
G1 X62.597 Y50.755 E26.12860
G1 X63.161 Y50.177 E26.14804
G1 X63.606 Y49.615 E26.16531
G1 X42.754 Y70.180 F9000.000
G1 X42.229 Y69.642 F2025.000 E26.18341
G1 X41.652 Y69.161 E26.20150
G1 X41.028 Y68.741 E26.21960
G1 X40.365 Y68.388 E26.23769
G1 X39.669 Y68.105 E26.25579
G1 X38.947 Y67.895 E26.27388
G1 X38.208 Y67.760 E26.29198
G1 X37.458 Y67.702 E26.31008
G1 X36.707 Y67.721 E26.32817
G1 X35.961 Y67.818 E26.34627
G1 X35.230 Y67.990 E26.36436
G1 X34.520 Y68.237 E26.38246
G1 X33.839 Y68.556 E26.40055
G1 X33.195 Y68.943 E26.41865
G1 X32.593 Y69.394 E26.43675
G1 X32.042 Y69.905 E26.45484
G1 X31.546 Y70.469 E26.47294
G1 X31.110 Y71.082 E26.49103
G1 X30.740 Y71.736 E26.50913
G1 X30.439 Y72.425 E26.52723
G1 X30.210 Y73.141 E26.54532
G1 X30.057 Y73.877 E26.56342
G1 X29.979 Y74.624 E26.58151
G1 X29.979 Y75.376 E26.59961
G1 X30.057 Y76.123 E26.61770
G1 X30.210 Y76.859 E26.63580
G1 X30.439 Y77.575 E26.65390
G1 X30.740 Y78.264 E26.67199
G1 X31.110 Y78.918 E26.69009
G1 X31.546 Y79.531 E26.70819
G1 X32.042 Y80.095 E26.72628
G1 X32.593 Y80.606 E26.74438
G1 X33.195 Y81.057 E26.76247
G1 X33.839 Y81.444 E26.78057
G1 X34.520 Y81.763 E26.79866
G1 X35.230 Y82.010 E26.81676
G1 X35.961 Y82.182 E26.83485
G1 X36.707 Y82.279 E26.85295
G1 X37.458 Y82.298 E26.87105
G1 X38.208 Y82.240 E26.88914
G1 X38.947 Y82.105 E26.90724
G1 X39.669 Y81.895 E26.92534
G1 X40.365 Y81.612 E26.94343
G1 X41.028 Y81.259 E26.96153
G1 X41.652 Y80.839 E26.97962
G1 X42.229 Y80.358 E26.99772
G1 X42.754 Y79.819 E27.01581
G1 X43.220 Y79.230 E27.03391
G1 X43.624 Y78.596 E27.05201
G1 X43.960 Y77.924 E27.07010
G1 X44.225 Y77.220 E27.08820
G1 X44.416 Y76.493 E27.10629
G1 X44.532 Y75.751 E27.12439
G1 X44.571 Y75.000 E27.14248
G1 X44.532 Y74.249 E27.16058
G1 X44.416 Y73.507 E27.17868
G1 X44.225 Y72.780 E27.19677
G1 X43.960 Y72.076 E27.21487
G1 X43.624 Y71.404 E27.23296
G1 X43.220 Y70.770 E27.25106
G1 X42.810 Y70.251 E27.26699
G1 X43.161 Y69.823 F9000.000
G1 X42.597 Y69.244 F2025.000 E27.28643
G1 X41.977 Y68.727 E27.30587
G1 X41.307 Y68.276 E27.32531
G1 X40.595 Y67.897 E27.34474
G1 X39.847 Y67.593 E27.36418
G1 X39.072 Y67.367 E27.38362
G1 X38.277 Y67.222 E27.40306
G1 X37.472 Y67.160 E27.42250
G1 X36.665 Y67.181 E27.44194
G1 X35.864 Y67.285 E27.46138
G1 X35.078 Y67.470 E27.48082
G1 X34.316 Y67.735 E27.50026
G1 X33.584 Y68.078 E27.51970
G1 X32.892 Y68.493 E27.53914
G1 X32.246 Y68.978 E27.55858
G1 X31.654 Y69.526 E27.57802
G1 X31.121 Y70.133 E27.59745
G1 X30.653 Y70.791 E27.61689
G1 X30.255 Y71.494 E27.63633
G1 X29.932 Y72.233 E27.65577
G1 X29.686 Y73.003 E27.67521
G1 X29.521 Y73.793 E27.69465
G1 X29.438 Y74.596 E27.71409
G1 X29.438 Y75.404 E27.73353
G1 X29.521 Y76.207 E27.75297
G1 X29.686 Y76.997 E27.77241
G1 X29.932 Y77.766 E27.79185
G1 X30.255 Y78.506 E27.81129
G1 X30.653 Y79.209 E27.83073
G1 X31.121 Y79.867 E27.85016
G1 X31.654 Y80.474 E27.86960
G1 X32.246 Y81.022 E27.88904
G1 X32.892 Y81.507 E27.90848
G1 X33.584 Y81.922 E27.92792
G1 X34.316 Y82.265 E27.94736
G1 X35.078 Y82.530 E27.96680
G1 X35.864 Y82.715 E27.98624
G1 X36.665 Y82.819 E28.00568
G1 X37.472 Y82.840 E28.02512
G1 X38.277 Y82.778 E28.04456
G1 X39.072 Y82.633 E28.06400
G1 X39.847 Y82.407 E28.08344
G1 X40.595 Y82.103 E28.10287
G1 X41.307 Y81.723 E28.12231
G1 X41.977 Y81.273 E28.14175
