; generated by Slic3r 0.7.2-dev on 2012-04-13 at 20:46:18

; layer_height = 0.28
; perimeters = 2
; solid_layers = 3
; fill_density = 0.15
; nozzle_diameter = 0.45
; filament_diameter = 3
; extrusion_multiplier = 1.07
; perimeter_speed = 50
; infill_speed = 80
; travel_speed = 100
; extrusion_width_ratio = 0
; scale = 1
; single wall width = 0.60mm

M104 S200 ; set temperature
M104 S205
G28
G1 Z30 
G92 E0
M109 S205
G1 E5 F30
G92 E0
G1 Z0 F3000
G90 ; use absolute coordinates
G21 ; set units to millimeters
G92 E0 ; reset extrusion distance
M82 ; use absolute distances for extrusion
G1 Z0.280 F6000.000
G1 X20.954 Y20.331
G1
G1 X22.074 Y19.391 F1500.000 E0.03520
G1 X23.124 Y18.671 E0.06585
G1 X24.544 Y17.931 E0.10440
G1 X25.414 Y17.571 E0.12707
G1 X26.694 Y17.171 E0.15936
G1 X27.154 Y17.061 E0.17074
G1 X28.104 Y16.891 E0.19398
G1 X28.594 Y16.831 E0.20586
G1 X29.954 Y16.761 E0.23865
G1 X120.644 Y16.781 E2.42201
G1 X121.124 Y16.811 E2.43359
G1 X122.164 Y16.941 E2.45882
G1 X123.394 Y17.201 E2.48909
G1 X123.854 Y17.331 E2.50060
G1 X124.854 Y17.681 E2.52610
G1 X126.304 Y18.361 E2.56466
G1 X127.314 Y18.961 E2.59294
G1 X128.304 Y19.691 E2.62256
G1 X129.224 Y20.511 E2.65223
G1 X129.564 Y20.851 E2.66380
G1 X130.224 Y21.601 E2.68785
G1 X131.034 Y22.701 E2.72074
G1 X131.294 Y23.111 E2.73243
G1 X131.754 Y23.931 E2.75507
G1 X132.284 Y25.091 E2.78577
G1 X132.694 Y26.281 E2.81607
G1 X132.824 Y26.751 E2.82781
G1 X133.044 Y27.771 E2.85293
G1 X133.114 Y28.241 E2.86437
G1 X133.204 Y29.491 E2.89454
G1 X133.204 Y120.501 E5.08561
G1 X133.114 Y121.751 E5.11578
G1 X133.044 Y122.221 E5.12722
G1 X132.814 Y123.281 E5.15334
G1 X132.474 Y124.381 E5.18105
G1 X132.304 Y124.841 E5.19286
G1 X131.754 Y126.061 E5.22508
G1 X131.294 Y126.881 E5.24771
G1 X130.524 Y128.011 E5.28063
G1 X130.224 Y128.391 E5.29229
G1 X129.564 Y129.141 E5.31634
G1 X128.674 Y129.991 E5.34597
G1 X128.304 Y130.301 E5.35759
G1 X127.194 Y131.101 E5.39053
G1 X126.014 Y131.781 E5.42332
G1 X125.154 Y132.181 E5.44616
G1 X124.024 Y132.601 E5.47518
G1 X123.564 Y132.741 E5.48675
G1 X122.474 Y133.001 E5.51373
G1 X121.304 Y133.161 E5.54216
G1 X120.114 Y133.231 E5.57086
G1 X29.624 Y133.221 E7.74941
G1 X28.564 Y133.161 E7.77497
G1 X28.084 Y133.101 E7.78661
G1 X27.154 Y132.931 E7.80938
G1 X25.874 Y132.581 E7.84132
G1 X25.414 Y132.421 E7.85305
G1 X24.544 Y132.061 E7.87572
G1 X23.414 Y131.481 E7.90629
G1 X22.994 Y131.231 E7.91806
G1 X22.184 Y130.681 E7.94163
G1 X21.214 Y129.901 E7.97160
G1 X20.854 Y129.571 E7.98336
G1 X19.924 Y128.581 E8.01606
G1 X19.364 Y127.891 E8.03745
G1 X19.084 Y127.501 E8.04901
G1 X18.564 Y126.681 E8.07239
G1 X17.944 Y125.481 E8.10491
G1 X17.474 Y124.301 E8.13548
G1 X17.324 Y123.841 E8.14713
G1 X16.994 Y122.501 E8.18036
G1 X16.834 Y121.431 E8.20640
G1 X16.764 Y120.241 E8.23510
G1 X16.794 Y29.041 E10.43074
G1 X16.834 Y28.561 E10.44234
G1 X16.994 Y27.491 E10.46839
G1 X17.324 Y26.151 E10.50161
G1 X17.724 Y25.021 E10.53047
G1 X17.914 Y24.571 E10.54223
G1 X18.364 Y23.651 E10.56689
G1 X18.604 Y23.231 E10.57853
G1 X19.364 Y22.101 E10.61132
G1 X20.164 Y21.121 E10.64177
G1 X20.890 Y20.395 E10.66650
G1 X21.314 Y20.731 F6000.000
G1 X22.404 Y19.811 F1500.000 E10.70084
G1 X23.394 Y19.141 E10.72962
G1 X24.774 Y18.421 E10.76710
G1 X25.594 Y18.081 E10.78847
G1 X26.054 Y17.921 E10.80019
G1 X27.284 Y17.591 E10.83085
G1 X28.174 Y17.431 E10.85262
G1 X29.474 Y17.311 E10.88405
G1 X29.964 Y17.301 E10.89585
G1 X120.614 Y17.321 E13.07825
G1 X121.094 Y17.351 E13.08983
G1 X122.064 Y17.471 E13.11336
G1 X123.254 Y17.721 E13.14263
G1 X123.714 Y17.851 E13.15414
G1 X124.644 Y18.181 E13.17790
G1 X126.054 Y18.841 E13.21538
G1 X127.004 Y19.411 E13.24205
G1 X127.954 Y20.111 E13.27046
G1 X128.844 Y20.891 E13.29895
G1 X129.184 Y21.231 E13.31053
G1 X129.804 Y21.931 E13.33304
G1 X130.104 Y22.311 E13.34470
G1 X130.844 Y23.401 E13.37642
G1 X131.274 Y24.171 E13.39765
G1 X131.774 Y25.281 E13.42696
G1 X132.174 Y26.431 E13.45627
G1 X132.304 Y26.901 E13.46801
G1 X132.504 Y27.851 E13.49138
G1 X132.574 Y28.321 E13.50282
G1 X132.664 Y29.491 E13.53107
G1 X132.664 Y120.501 E15.72214
G1 X132.574 Y121.671 E15.75039
G1 X132.504 Y122.141 E15.76183
G1 X132.294 Y123.141 E15.78643
G1 X131.794 Y124.651 E15.82473
G1 X131.484 Y125.391 E15.84404
G1 X131.274 Y125.821 E15.85556
G1 X130.844 Y126.591 E15.87679
G1 X130.104 Y127.681 E15.90851
G1 X129.804 Y128.061 E15.92017
G1 X129.184 Y128.761 E15.94268
G1 X128.324 Y129.571 E15.97112
G1 X127.294 Y130.381 E16.00267
G1 X126.894 Y130.651 E16.01429
G1 X125.754 Y131.301 E16.04588
G1 X124.954 Y131.681 E16.06720
G1 X123.864 Y132.081 E16.09516
G1 X123.404 Y132.221 E16.10673
G1 X122.394 Y132.461 E16.13172
G1 X121.254 Y132.621 E16.15944
G1 X120.114 Y132.691 E16.18694
G1 X29.624 Y132.681 E18.36548
G1 X28.634 Y132.621 E18.38936
G1 X28.154 Y132.561 E18.40101
G1 X27.284 Y132.401 E18.42230
G1 X26.054 Y132.071 E18.45296
G1 X25.594 Y131.911 E18.46469
G1 X24.334 Y131.361 E18.49779
G1 X23.274 Y130.761 E18.52711
G1 X22.514 Y130.251 E18.54915
G1 X21.574 Y129.501 E18.57810
G1 X21.214 Y129.171 E18.58985
G1 X20.324 Y128.221 E18.62119
G1 X19.804 Y127.581 E18.64105
G1 X19.524 Y127.191 E18.65261
G1 X19.034 Y126.421 E18.67458
G1 X18.794 Y125.991 E18.68643
G1 X18.254 Y124.821 E18.71746
G1 X17.984 Y124.131 E18.73530
G1 X17.834 Y123.671 E18.74694
G1 X17.524 Y122.381 E18.77888
G1 X17.374 Y121.381 E18.80323
G1 X17.304 Y120.241 E18.83073
G1 X17.334 Y29.091 E21.02516
G1 X17.374 Y28.611 E21.03676
G1 X17.524 Y27.611 E21.06110
G1 X17.834 Y26.321 E21.09304
G1 X18.224 Y25.231 E21.12092
G1 X18.414 Y24.781 E21.13267
G1 X18.834 Y23.921 E21.15572
G1 X19.524 Y22.801 E21.18739
G1 X19.804 Y22.411 E21.19895
G1 X20.574 Y21.481 E21.22801
G1 X21.251 Y20.795 E21.25121
G1 X119.349 Y114.895 F6000.000
G1 X119.523 Y114.734 F900.000 E21.25691
G1 X119.712 Y114.592 E21.26259
G1 X119.915 Y114.470 E21.26830
G1 X120.130 Y114.369 E21.27403
G1 X120.354 Y114.290 E21.27975
G1 X120.585 Y114.237 E21.28545
G1 X120.819 Y114.207 E21.29111
G1 X121.055 Y114.201 E21.29681
G1 X121.292 Y114.219 E21.30253
G1 X121.525 Y114.260 E21.30822
G1 X121.753 Y114.327 E21.31396
G1 X121.971 Y114.417 E21.31963
G1 X122.180 Y114.527 E21.32532
G1 X122.379 Y114.661 E21.33108
G1 X122.560 Y114.812 E21.33675
G1 X122.725 Y114.980 E21.34243
G1 X122.873 Y115.167 E21.34818
G1 X123.000 Y115.367 E21.35388
G1 X123.105 Y115.579 E21.35957
G1 X123.189 Y115.800 E21.36527
G1 X123.248 Y116.030 E21.37098
G1 X123.285 Y116.264 E21.37669
G1 X123.296 Y116.501 E21.38240
G1 X123.285 Y116.736 E21.38805
G1 X123.248 Y116.970 E21.39377
G1 X123.189 Y117.200 E21.39947
G1 X123.105 Y117.421 E21.40517
G1 X123.000 Y117.633 E21.41086
G1 X122.873 Y117.833 E21.41656
G1 X122.725 Y118.020 E21.42231
G1 X122.560 Y118.188 E21.42799
G1 X122.379 Y118.339 E21.43367
G1 X122.180 Y118.473 E21.43942
G1 X121.971 Y118.583 E21.44511
G1 X121.753 Y118.673 E21.45078
G1 X121.525 Y118.740 E21.45652
G1 X121.292 Y118.781 E21.46221
G1 X121.057 Y118.799 E21.46789
G1 X120.819 Y118.795 E21.47363
G1 X120.584 Y118.763 E21.47933
G1 X120.354 Y118.710 E21.48500
G1 X120.130 Y118.631 E21.49071
G1 X119.915 Y118.530 E21.49645
G1 X119.712 Y118.408 E21.50215
G1 X119.523 Y118.266 E21.50784
G1 X119.349 Y118.105 E21.51353
G1 X119.192 Y117.927 E21.51925
G1 X119.056 Y117.734 E21.52493
G1 X118.939 Y117.530 E21.53061
G1 X118.845 Y117.311 E21.53633
G1 X118.772 Y117.086 E21.54203
G1 X118.723 Y116.852 E21.54779
G1 X118.700 Y116.618 E21.55346
G1 X118.700 Y116.382 E21.55913
G1 X118.723 Y116.148 E21.56480
G1 X118.772 Y115.914 E21.57056
G1 X118.845 Y115.689 E21.57625
G1 X118.939 Y115.471 E21.58198
G1 X119.056 Y115.266 E21.58766
G1 X119.192 Y115.073 E21.59333
G1 X119.290 Y114.962 E21.59689
G1 X118.962 Y114.516 F6000.000
G1 X119.176 Y114.318 F900.000 E21.60389
G1 X119.408 Y114.143 E21.61089
G1 X119.660 Y113.992 E21.61796
G1 X119.926 Y113.867 E21.62504
G1 X120.204 Y113.770 E21.63213
G1 X120.490 Y113.704 E21.63920
G1 X120.776 Y113.667 E21.64615
G1 X121.068 Y113.659 E21.65318
G1 X121.361 Y113.681 E21.66024
G1 X121.649 Y113.733 E21.66728
G1 X121.933 Y113.816 E21.67441
G1 X122.201 Y113.926 E21.68139
G1 X122.459 Y114.062 E21.68841
G1 X122.704 Y114.228 E21.69554
G1 X122.927 Y114.413 E21.70251
G1 X123.132 Y114.621 E21.70954
G1 X123.316 Y114.854 E21.71669
G1 X123.472 Y115.101 E21.72372
G1 X123.602 Y115.362 E21.73075
G1 X123.705 Y115.637 E21.73781
G1 X123.779 Y115.920 E21.74484
G1 X123.824 Y116.209 E21.75190
G1 X123.838 Y116.501 E21.75894
G1 X123.824 Y116.791 E21.76593
G1 X123.779 Y117.080 E21.77298
G1 X123.705 Y117.363 E21.78001
G1 X123.602 Y117.638 E21.78707
G1 X123.472 Y117.899 E21.79410
G1 X123.316 Y118.146 E21.80114
G1 X123.132 Y118.379 E21.80829
G1 X122.927 Y118.587 E21.81531
G1 X122.704 Y118.772 E21.82229
G1 X122.459 Y118.938 E21.82941
G1 X122.201 Y119.074 E21.83643
G1 X121.933 Y119.184 E21.84341
G1 X121.649 Y119.267 E21.85054
G1 X121.361 Y119.319 E21.85758
G1 X121.072 Y119.341 E21.86454
G1 X120.776 Y119.335 E21.87167
G1 X120.486 Y119.295 E21.87872
G1 X120.204 Y119.230 E21.88570
G1 X119.926 Y119.133 E21.89279
G1 X119.660 Y119.008 E21.89987
G1 X119.408 Y118.857 E21.90694
G1 X119.176 Y118.682 E21.91394
G1 X118.962 Y118.484 E21.92094
G1 X118.766 Y118.263 E21.92806
G1 X118.599 Y118.025 E21.93506
G1 X118.454 Y117.772 E21.94208
G1 X118.338 Y117.503 E21.94913
G1 X118.248 Y117.226 E21.95615
G1 X118.187 Y116.934 E21.96333
G1 X118.159 Y116.644 E21.97034
G1 X118.159 Y116.356 E21.97728
G1 X118.187 Y116.066 E21.98429
G1 X118.248 Y115.774 E21.99147
G1 X118.338 Y115.497 E21.99848
G1 X118.454 Y115.228 E22.00554
G1 X118.599 Y114.975 E22.01256
G1 X118.766 Y114.737 E22.01956
G1 X118.902 Y114.583 E22.02451
G1 X124.129 Y120.451 F6000.000
G1 X124.067 Y120.851 F1500.000 E22.03426
G1 X123.958 Y121.264 E22.04455
G1 X123.806 Y121.665 E22.05488
G1 X123.615 Y122.048 E22.06518
G1 X123.385 Y122.409 E22.07547
G1 X123.119 Y122.745 E22.08580
G1 X122.822 Y123.051 E22.09607
G1 X122.493 Y123.325 E22.10638
G1 X122.136 Y123.565 E22.11672
G1 X121.758 Y123.766 E22.12703
G1 X121.363 Y123.927 E22.13731
G1 X120.953 Y124.047 E22.14759
G1 X120.530 Y124.123 E22.15794
G1 X120.093 Y124.158 E22.16849
G1 X76.337 Y124.158 E23.22191
G1 X76.337 Y115.840 E23.42214
G1 X97.081 Y115.840 E23.92154
G1 X97.361 Y115.819 E23.92830
G1 X97.649 Y115.767 E23.93534
G1 X97.933 Y115.684 E23.94247
G1 X98.201 Y115.574 E23.94945
G1 X98.459 Y115.438 E23.95647
G1 X98.704 Y115.272 E23.96360
G1 X98.927 Y115.087 E23.97057
G1 X99.132 Y114.879 E23.97760
G1 X99.316 Y114.646 E23.98474
G1 X99.472 Y114.399 E23.99178
G1 X99.602 Y114.138 E23.99881
G1 X99.705 Y113.863 E24.00587
G1 X99.779 Y113.580 E24.01290
G1 X99.824 Y113.295 E24.01986
G1 X99.839 Y113.026 E24.02635
G1 X99.839 Y92.977 E24.50904
G1 X99.824 Y92.705 E24.51558
G1 X99.779 Y92.420 E24.52254
G1 X99.705 Y92.137 E24.52958
G1 X99.602 Y91.862 E24.53664
G1 X99.472 Y91.601 E24.54367
G1 X99.316 Y91.354 E24.55070
G1 X99.132 Y91.121 E24.55785
G1 X98.927 Y90.913 E24.56487
G1 X98.704 Y90.728 E24.57185
G1 X98.459 Y90.562 E24.57898
G1 X98.201 Y90.426 E24.58600
G1 X97.933 Y90.316 E24.59297
G1 X97.649 Y90.233 E24.60010
G1 X97.361 Y90.181 E24.60714
G1 X97.081 Y90.160 E24.61391
G1 X76.337 Y90.160 E25.11330
G1 X76.337 Y76.342 E25.44595
G1 X111.495 Y76.342 E26.29236
G1 X111.599 Y76.525 E26.29743
G1 X111.766 Y76.763 E26.30443
G1 X111.962 Y76.984 E26.31154
G1 X112.176 Y77.182 E26.31855
G1 X112.408 Y77.357 E26.32555
G1 X112.660 Y77.508 E26.33262
G1 X112.926 Y77.633 E26.33969
G1 X113.204 Y77.730 E26.34679
G1 X113.486 Y77.795 E26.35376
G1 X113.776 Y77.835 E26.36082
G1 X114.072 Y77.841 E26.36795
G1 X114.361 Y77.819 E26.37490
G1 X114.649 Y77.767 E26.38195
G1 X114.933 Y77.684 E26.38908
G1 X115.201 Y77.574 E26.39605
G1 X115.459 Y77.438 E26.40307
G1 X115.704 Y77.272 E26.41020
G1 X115.927 Y77.087 E26.41717
G1 X116.132 Y76.879 E26.42420
G1 X116.316 Y76.646 E26.43135
G1 X116.472 Y76.399 E26.43838
G1 X116.500 Y76.342 E26.43991
G1 X124.154 Y76.342 E26.62418
G1 X124.129 Y120.361 E27.68392
G1 X124.670 Y120.492 F6000.000
G1 X124.598 Y120.962 F1500.000 E27.69535
G1 X124.474 Y121.429 E27.70700
G1 X124.303 Y121.883 E27.71867
G1 X124.086 Y122.315 E27.73031
G1 X123.827 Y122.723 E27.74194
G1 X123.526 Y123.103 E27.75361
G1 X123.190 Y123.448 E27.76522
G1 X122.818 Y123.759 E27.77689
G1 X122.415 Y124.029 E27.78856
G1 X121.988 Y124.257 E27.80021
G1 X121.541 Y124.439 E27.81184
G1 X121.077 Y124.574 E27.82347
G1 X120.599 Y124.661 E27.83516
G1 X120.114 Y124.699 E27.84687
G1 X75.796 Y124.699 E28.91383
G1 X75.796 Y115.299 E29.14013
G1 X97.060 Y115.299 E29.65205
G1 X97.292 Y115.281 E29.65766
G1 X97.525 Y115.240 E29.66335
G1 X97.753 Y115.173 E29.66909
G1 X97.971 Y115.083 E29.67476
G1 X98.180 Y114.973 E29.68045
G1 X98.379 Y114.839 E29.68621
G1 X98.560 Y114.688 E29.69188
G1 X98.725 Y114.520 E29.69757
G1 X98.873 Y114.333 E29.70331
G1 X99.000 Y114.133 E29.70901
G1 X99.105 Y113.921 E29.71471
G1 X99.189 Y113.700 E29.72040
G1 X99.248 Y113.470 E29.72611
G1 X99.285 Y113.237 E29.73179
G1 X99.298 Y113.010 E29.73727
G1 X99.298 Y92.992 E30.21919
G1 X99.285 Y92.763 E30.22472
G1 X99.248 Y92.530 E30.23040
G1 X99.189 Y92.300 E30.23611
G1 X99.105 Y92.079 E30.24181
G1 X99.000 Y91.867 E30.24750
G1 X98.873 Y91.667 E30.25320
G1 X98.725 Y91.480 E30.25895
G1 X98.560 Y91.312 E30.26463
G1 X98.379 Y91.161 E30.27030
G1 X98.180 Y91.027 E30.27606
G1 X97.971 Y90.917 E30.28175
G1 X97.753 Y90.827 E30.28742
G1 X97.525 Y90.760 E30.29316
G1 X97.292 Y90.719 E30.29885
G1 X97.060 Y90.701 E30.30446
G1 X75.796 Y90.701 E30.81638
G1 X75.796 Y75.801 E31.17509
G1 X111.842 Y75.801 E32.04289
G1 X111.845 Y75.811 E32.04314
G1 X111.939 Y76.030 E32.04887
G1 X112.056 Y76.234 E32.05455
G1 X112.192 Y76.427 E32.06022
G1 X112.349 Y76.605 E32.06594
G1 X112.523 Y76.766 E32.07164
G1 X112.712 Y76.908 E32.07732
G1 X112.915 Y77.030 E32.08303
G1 X113.130 Y77.131 E32.08877
G1 X113.354 Y77.210 E32.09448
G1 X113.584 Y77.263 E32.10015
G1 X113.819 Y77.295 E32.10585
G1 X114.057 Y77.299 E32.11159
G1 X114.292 Y77.281 E32.11727
G1 X114.525 Y77.240 E32.12296
G1 X114.753 Y77.173 E32.12870
G1 X114.971 Y77.083 E32.13437
G1 X115.180 Y76.973 E32.14006
G1 X115.379 Y76.839 E32.14581
G1 X115.560 Y76.688 E32.15149
G1 X115.725 Y76.520 E32.15717
G1 X115.873 Y76.333 E32.16292
G1 X116.000 Y76.133 E32.16862
G1 X116.105 Y75.921 E32.17431
G1 X116.150 Y75.801 E32.17739
G1 X124.696 Y75.801 E32.38312
G1 X124.670 Y120.402 E33.45689
G1 X31.296 Y116.501 F6000.000
G1 X31.285 Y116.736 F900.000 E33.46254
G1 X31.248 Y116.970 E33.46826
G1 X31.189 Y117.200 E33.47396
G1 X31.105 Y117.421 E33.47966
G1 X31.000 Y117.633 E33.48535
G1 X30.873 Y117.833 E33.49105
G1 X30.725 Y118.020 E33.49680
G1 X30.560 Y118.188 E33.50248
G1 X30.379 Y118.339 E33.50816
G1 X30.180 Y118.473 E33.51391
G1 X29.971 Y118.583 E33.51960
G1 X29.753 Y118.673 E33.52527
G1 X29.525 Y118.740 E33.53101
G1 X29.292 Y118.781 E33.53670
G1 X29.057 Y118.799 E33.54238
G1 X28.819 Y118.795 E33.54812
G1 X28.584 Y118.763 E33.55382
G1 X28.354 Y118.710 E33.55949
G1 X28.130 Y118.631 E33.56522
G1 X27.917 Y118.530 E33.57089
G1 X27.712 Y118.408 E33.57662
G1 X27.523 Y118.266 E33.58232
G1 X27.349 Y118.105 E33.58802
G1 X27.192 Y117.927 E33.59374
G1 X27.056 Y117.734 E33.59942
G1 X26.939 Y117.530 E33.60510
G1 X26.845 Y117.311 E33.61082
G1 X26.772 Y117.086 E33.61652
G1 X26.723 Y116.852 E33.62227
G1 X26.700 Y116.618 E33.62795
G1 X26.700 Y116.382 E33.63361
G1 X26.723 Y116.148 E33.63929
G1 X26.772 Y115.914 E33.64505
G1 X26.845 Y115.689 E33.65074
G1 X26.939 Y115.471 E33.65646
G1 X27.056 Y115.266 E33.66214
G1 X27.192 Y115.073 E33.66782
G1 X27.349 Y114.895 E33.67354
G1 X27.523 Y114.734 E33.67924
G1 X27.712 Y114.592 E33.68494
G1 X27.917 Y114.470 E33.69067
G1 X28.130 Y114.369 E33.69635
G1 X28.354 Y114.290 E33.70208
G1 X28.585 Y114.237 E33.70778
G1 X28.819 Y114.207 E33.71344
G1 X29.055 Y114.201 E33.71914
G1 X29.292 Y114.219 E33.72486
G1 X29.525 Y114.260 E33.73055
G1 X29.753 Y114.327 E33.73629
G1 X29.971 Y114.417 E33.74196
G1 X30.180 Y114.527 E33.74765
G1 X30.379 Y114.661 E33.75340
G1 X30.560 Y114.812 E33.75908
G1 X30.725 Y114.980 E33.76476
G1 X30.873 Y115.167 E33.77051
G1 X31.000 Y115.367 E33.77621
G1 X31.105 Y115.579 E33.78190
G1 X31.189 Y115.800 E33.78759
G1 X31.248 Y116.030 E33.79330
