; generated by Slic3r 0.7.2-dev on 2012-04-14 at 02:46:06

; layer_height = 0.28
; perimeters = 2
; solid_layers = 3
; fill_density = 0.15
; nozzle_diameter = 0.45
; filament_diameter = 3
; extrusion_multiplier = 1.07
; perimeter_speed = 50
; infill_speed = 80
; travel_speed = 100
; extrusion_width_ratio = 0
; scale = 1
; single wall width = 0.60mm

M104 S200 ; set temperature
M104 S205
G28
G1 Z30 
G92 E0
M109 S205
G1 E5 F30
G92 E0
G1 Z0 F3000
G90 ; use absolute coordinates
G21 ; set units to millimeters
G92 E0 ; reset extrusion distance
M82 ; use absolute distances for extrusion
G1 Z0.280 F6000.000
G1 X25.850 Y44.479
G1
G1 X26.510 Y43.839 F1500.000 E0.02213
G1 X26.980 Y43.459 E0.03668
G1 X27.480 Y43.109 E0.05138
G1 X28.280 Y42.659 E0.07348
G1 X28.830 Y42.409 E0.08802
G1 X29.690 Y42.099 E0.11003
G1 X30.580 Y41.889 E0.13204
G1 X31.490 Y41.779 E0.15411
G1 X31.800 Y41.759 E0.16159
G1 X39.900 Y41.769 E0.35660
G1 X41.100 Y41.909 E0.38568
G1 X120.200 Y61.079 E2.34514
G1 X120.790 Y61.259 E2.35999
G1 X121.640 Y61.619 E2.38222
G1 X122.180 Y61.909 E2.39697
G1 X122.700 Y62.239 E2.41180
G1 X123.430 Y62.799 E2.43395
G1 X123.890 Y63.219 E2.44895
G1 X124.310 Y63.659 E2.46359
G1 X124.700 Y64.139 E2.47848
G1 X125.050 Y64.639 E2.49318
G1 X125.370 Y65.169 E2.50808
G1 X125.650 Y65.719 E2.52294
G1 X125.990 Y66.579 E2.54520
G1 X126.230 Y67.469 E2.56740
G1 X126.340 Y68.069 E2.58208
G1 X126.430 Y68.989 E2.60434
G1 X126.430 Y80.999 E2.89348
G1 X126.340 Y81.919 E2.91573
G1 X126.160 Y82.819 E2.93783
G1 X125.990 Y83.409 E2.95261
G1 X125.650 Y84.269 E2.97487
G1 X125.370 Y84.819 E2.98973
G1 X125.050 Y85.349 E3.00464
G1 X124.700 Y85.849 E3.01933
G1 X124.310 Y86.329 E3.03422
G1 X123.890 Y86.769 E3.04886
G1 X123.200 Y87.379 E3.07104
G1 X122.700 Y87.749 E3.08601
G1 X122.180 Y88.079 E3.10084
G1 X121.640 Y88.369 E3.11560
G1 X120.790 Y88.729 E3.13782
G1 X41.110 Y108.089 E5.11193
G1 X40.300 Y108.199 E5.13161
G1 X39.490 Y108.239 E5.15113
G1 X31.800 Y108.239 E5.33627
G1 X30.580 Y108.109 E5.36581
G1 X29.690 Y107.899 E5.38782
G1 X28.830 Y107.589 E5.40983
G1 X28.010 Y107.199 E5.43169
G1 X27.480 Y106.889 E5.44647
G1 X26.980 Y106.539 E5.46117
G1 X26.510 Y106.159 E5.47572
G1 X26.060 Y105.739 E5.49054
G1 X25.640 Y105.289 E5.50536
G1 X25.260 Y104.819 E5.51991
G1 X24.910 Y104.319 E5.53460
G1 X24.460 Y103.519 E5.55670
G1 X24.210 Y102.969 E5.57124
G1 X23.900 Y102.109 E5.59325
G1 X23.690 Y101.219 E5.61527
G1 X23.580 Y100.309 E5.63733
G1 X23.560 Y99.999 E5.64481
G1 X23.560 Y49.999 E6.84856
G1 X23.690 Y48.779 E6.87810
G1 X23.900 Y47.889 E6.90012
G1 X24.210 Y47.029 E6.92212
G1 X24.600 Y46.209 E6.94399
G1 X24.910 Y45.679 E6.95877
G1 X25.260 Y45.179 E6.97346
G1 X25.640 Y44.709 E6.98801
G1 X25.789 Y44.545 E6.99334
G1 X26.140 Y44.959 F6000.000
G1 X26.760 Y44.339 F1500.000 E7.01445
G1 X27.450 Y43.789 E7.03570
G1 X28.180 Y43.319 E7.05660
G1 X28.970 Y42.939 E7.07770
G1 X29.520 Y42.729 E7.09188
G1 X30.360 Y42.489 E7.11291
G1 X30.650 Y42.429 E7.12004
G1 X31.520 Y42.319 E7.14115
G1 X32.100 Y42.299 E7.15512
G1 X39.870 Y42.309 E7.34218
G1 X40.630 Y42.379 E7.36056
G1 X41.000 Y42.439 E7.36958
G1 X120.060 Y61.599 E9.32805
G1 X120.620 Y61.779 E9.34221
G1 X121.170 Y61.999 E9.35647
G1 X121.960 Y62.409 E9.37790
G1 X122.460 Y62.729 E9.39219
G1 X123.160 Y63.279 E9.41362
G1 X123.790 Y63.899 E9.43490
G1 X124.180 Y64.349 E9.44924
G1 X124.530 Y64.829 E9.46354
G1 X124.980 Y65.599 E9.48501
G1 X125.240 Y66.129 E9.49923
G1 X125.450 Y66.679 E9.51340
G1 X125.620 Y67.249 E9.52772
G1 X125.800 Y68.119 E9.54911
G1 X125.870 Y68.709 E9.56341
G1 X125.870 Y81.279 E9.86604
G1 X125.800 Y81.869 E9.88034
G1 X125.620 Y82.739 E9.90173
G1 X125.450 Y83.309 E9.91605
G1 X125.240 Y83.859 E9.93022
G1 X124.840 Y84.649 E9.95154
G1 X124.530 Y85.159 E9.96591
G1 X124.180 Y85.639 E9.98021
G1 X123.800 Y86.089 E9.99439
G1 X123.160 Y86.709 E10.01584
G1 X122.460 Y87.259 E10.03728
G1 X121.960 Y87.579 E10.05157
G1 X121.440 Y87.859 E10.06579
G1 X120.630 Y88.209 E10.08703
G1 X120.060 Y88.389 E10.10142
G1 X41.000 Y107.559 E12.05994
G1 X40.630 Y107.619 E12.06897
G1 X39.870 Y107.689 E12.08734
G1 X39.490 Y107.699 E12.09649
G1 X31.520 Y107.679 E12.28837
G1 X30.650 Y107.569 E12.30948
G1 X30.080 Y107.439 E12.32356
G1 X29.240 Y107.169 E12.34480
G1 X28.700 Y106.939 E12.35893
G1 X28.180 Y106.679 E12.37293
G1 X27.450 Y106.209 E12.39383
G1 X26.980 Y105.849 E12.40808
G1 X26.340 Y105.249 E12.42920
G1 X25.950 Y104.819 E12.44318
G1 X25.590 Y104.349 E12.45743
G1 X25.120 Y103.619 E12.47833
G1 X24.740 Y102.829 E12.49944
G1 X24.530 Y102.279 E12.51361
G1 X24.290 Y101.439 E12.53465
G1 X24.230 Y101.149 E12.54178
G1 X24.120 Y100.279 E12.56289
G1 X24.120 Y49.719 E13.78012
G1 X24.230 Y48.849 E13.80123
G1 X24.360 Y48.279 E13.81531
G1 X24.630 Y47.439 E13.83655
G1 X24.860 Y46.899 E13.85068
G1 X25.120 Y46.379 E13.86468
G1 X25.590 Y45.649 E13.88558
G1 X25.950 Y45.179 E13.89983
G1 X26.081 Y45.027 E13.90466
G1 X32.641 Y50.840 F6000.000
G1 X38.959 Y50.840 F1500.000 E14.05675
G1 X38.959 Y69.840 E14.51417
G1 X40.127 Y69.840 E14.54229
G1 X40.127 Y80.158 E14.79068
G1 X38.959 Y80.158 E14.81880
G1 X38.959 Y99.160 E15.27627
G1 X32.641 Y99.160 E15.42836
G1 X32.641 Y50.930 E16.58948
G1 X32.100 Y50.299 F6000.000
G1 X39.500 Y50.299 F1500.000 E16.76763
G1 X39.500 Y69.299 E17.22505
G1 X40.865 Y69.299 E17.25793
G1 X40.856 Y69.303 E17.25817
G1 X40.821 Y69.323 E17.25914
G1 X40.785 Y69.351 E17.26024
G1 X40.749 Y69.386 E17.26145
G1 X40.719 Y69.427 E17.26268
G1 X40.695 Y69.474 E17.26395
G1 X40.677 Y69.526 E17.26526
G1 X40.668 Y69.582 E17.26663
G1 X40.668 Y80.416 E17.52747
G1 X40.677 Y80.472 E17.52883
G1 X40.695 Y80.524 E17.53014
G1 X40.719 Y80.571 E17.53142
G1 X40.749 Y80.612 E17.53264
G1 X40.785 Y80.647 E17.53385
G1 X40.821 Y80.675 E17.53496
G1 X40.856 Y80.695 E17.53593
G1 X40.865 Y80.699 E17.53617
G1 X39.500 Y80.699 E17.56904
G1 X39.500 Y99.701 E18.02652
G1 X32.100 Y99.701 E18.20466
G1 X32.100 Y50.389 E19.39184
G1 X50.274 Y69.840 F6000.000
G1 X104.576 Y69.840 F1500.000 E20.69918
G1 X104.576 Y80.158 E20.94756
G1 X50.274 Y80.158 E22.25490
G1 X50.274 Y69.930 E22.50112
G1 X49.732 Y69.597 F6000.000
G1 X49.728 Y69.551 F1500.000 E22.50223
G1 X49.715 Y69.500 E22.50350
G1 X49.695 Y69.451 E22.50478
G1 X49.666 Y69.406 E22.50607
G1 X49.633 Y69.367 E22.50731
G1 X49.598 Y69.337 E22.50842
G1 X49.561 Y69.312 E22.50947
G1 X49.534 Y69.299 E22.51019
G1 X105.316 Y69.299 E23.85313
G1 X105.289 Y69.312 E23.85385
G1 X105.252 Y69.337 E23.85490
G1 X105.217 Y69.367 E23.85601
G1 X105.184 Y69.406 E23.85724
G1 X105.155 Y69.451 E23.85854
G1 X105.135 Y69.500 E23.85982
G1 X105.122 Y69.551 E23.86108
G1 X105.117 Y69.597 E23.86220
G1 X105.117 Y80.401 E24.12229
G1 X105.122 Y80.447 E24.12341
G1 X105.135 Y80.498 E24.12467
G1 X105.155 Y80.547 E24.12595
G1 X105.184 Y80.592 E24.12724
G1 X105.217 Y80.631 E24.12848
G1 X105.252 Y80.661 E24.12959
G1 X105.289 Y80.686 E24.13064
G1 X105.316 Y80.699 E24.13136
G1 X49.534 Y80.699 E25.47429
G1 X49.561 Y80.686 E25.47502
G1 X49.598 Y80.661 E25.47607
G1 X49.633 Y80.631 E25.47718
G1 X49.666 Y80.592 E25.47842
G1 X49.695 Y80.547 E25.47971
G1 X49.715 Y80.498 E25.48099
G1 X49.728 Y80.447 E25.48225
G1 X49.732 Y80.401 E25.48337
G1 X49.732 Y69.687 E25.74129
G1 X114.723 Y69.840 F6000.000
G1 X117.359 Y69.840 F900.000 E25.80473
G1 X117.359 Y80.158 E26.05312
G1 X114.723 Y80.158 E26.11656
G1 X114.723 Y69.930 E26.36278
G1 X114.182 Y69.582 F6000.000
G1 X114.173 Y69.526 F900.000 E26.36414
G1 X114.155 Y69.474 E26.36545
G1 X114.131 Y69.428 E26.36673
G1 X114.101 Y69.386 E26.36795
G1 X114.065 Y69.351 E26.36916
G1 X114.029 Y69.323 E26.37027
G1 X113.994 Y69.303 E26.37124
G1 X113.984 Y69.299 E26.37148
G1 X117.900 Y69.299 E26.46574
G1 X117.900 Y80.699 E26.74019
G1 X113.984 Y80.699 E26.83446
G1 X113.994 Y80.695 E26.83470
G1 X114.029 Y80.675 E26.83567
G1 X114.065 Y80.647 E26.83677
G1 X114.101 Y80.612 E26.83799
G1 X114.131 Y80.570 E26.83921
G1 X114.155 Y80.524 E26.84048
G1 X114.173 Y80.472 E26.84180
G1 X114.182 Y80.416 E26.84316
G1 X114.182 Y69.672 E27.10183
G1 X41.730 Y80.701 F6000.000
G1 X41.628 Y80.759 F1500.000 E27.10464
G1 X106.179 Y80.701 F6000.000
G1 X105.885 Y80.484 F1500.000 E27.11344
G1 X106.153 Y69.280 F6000.000
G1 X106.054 Y69.221 F1500.000 E27.11621
G1 X48.670 Y69.297 F6000.000
G1 X41.628 Y69.239 F1500.000 E27.28576
G1 X39.118 Y70.212 F6000.000
G1 X39.755 Y70.849 F1800.000 E27.30772
G1 X39.755 Y71.621 E27.32655
G1 X38.346 Y70.212 E27.37513
G1 X38.587 Y70.453 F6000.000
G1 X33.013 Y64.878 F1800.000 E27.56737
G1 X33.013 Y65.650 E27.58620
G1 X39.755 Y72.393 E27.81872
G1 X39.755 Y73.165 E27.83755
G1 X33.013 Y66.422 E28.07007
G1 X33.013 Y67.194 E28.08890
G1 X39.755 Y73.937 E28.32142
G1 X39.755 Y74.709 E28.34024
G1 X33.013 Y67.967 E28.57277
G1 X33.013 Y68.739 E28.59159
G1 X39.755 Y75.481 E28.82411
G1 X39.755 Y76.253 E28.84294
G1 X33.013 Y69.511 E29.07546
G1 X33.013 Y70.283 E29.09429
G1 X39.755 Y77.025 E29.32681
G1 X39.755 Y77.797 E29.34564
G1 X33.013 Y71.055 E29.57816
G1 X33.013 Y71.827 E29.59698
G1 X39.755 Y78.569 E29.82951
G1 X39.755 Y79.341 E29.84833
G1 X33.013 Y72.599 E30.08085
G1 X33.013 Y73.371 E30.09968
G1 X39.428 Y79.786 E30.32092
G1 X38.656 Y79.786 E30.33975
G1 X33.013 Y74.143 E30.53437
G1 X33.013 Y74.915 E30.55320
G1 X38.587 Y80.489 E30.74544
G1 X38.587 Y81.261 E30.76427
G1 X33.013 Y75.687 E30.95651
G1 X33.013 Y76.459 E30.97534
G1 X38.587 Y82.033 E31.16758
G1 X38.587 Y82.806 E31.18641
G1 X33.013 Y77.231 E31.37865
G1 X33.013 Y78.003 E31.39748
G1 X38.587 Y83.578 E31.58972
G1 X38.587 Y84.350 E31.60855
G1 X33.013 Y78.775 E31.80079
G1 X33.013 Y79.547 E31.81962
G1 X38.587 Y85.122 E32.01186
G1 X38.587 Y85.894 E32.03069
G1 X33.013 Y80.319 E32.22293
G1 X33.013 Y81.091 E32.24176
G1 X38.587 Y86.666 E32.43400
G1 X38.587 Y87.438 E32.45283
G1 X33.013 Y81.863 E32.64507
G1 X33.013 Y82.636 E32.66390
G1 X38.587 Y88.210 E32.85614
G1 X38.587 Y88.982 E32.87497
G1 X33.013 Y83.408 E33.06721
G1 X33.013 Y84.180 E33.08604
G1 X38.587 Y89.754 E33.27828
G1 X38.587 Y90.526 E33.29711
G1 X33.013 Y84.952 E33.48935
G1 X33.013 Y85.724 E33.50818
G1 X38.587 Y91.298 E33.70042
G1 X38.587 Y92.070 E33.71925
G1 X33.013 Y86.496 E33.91149
G1 X33.013 Y87.268 E33.93032
G1 X38.587 Y92.842 E34.12256
G1 X38.587 Y93.614 E34.14138
G1 X33.013 Y88.040 E34.33363
G1 X33.013 Y88.812 E34.35245
G1 X38.587 Y94.386 E34.54470
G1 X38.587 Y95.158 E34.56352
G1 X33.013 Y89.584 E34.75577
G1 X33.013 Y90.356 E34.77459
G1 X38.587 Y95.930 E34.96684
G1 X38.587 Y96.702 E34.98566
G1 X33.013 Y91.128 E35.17791
G1 X33.013 Y91.900 E35.19673
G1 X38.587 Y97.474 E35.38898
G1 X38.587 Y98.247 E35.40780
G1 X33.013 Y92.672 E35.60005
G1 X33.013 Y93.444 E35.61887
G1 X38.357 Y98.788 E35.80317
G1 X37.585 Y98.788 E35.82200
G1 X33.013 Y94.216 E35.97967
G1 X33.013 Y94.988 E35.99850
G1 X36.813 Y98.788 E36.12954
G1 X36.041 Y98.788 E36.14837
G1 X33.013 Y95.760 E36.25279
G1 X33.013 Y96.532 E36.27161
G1 X35.269 Y98.788 E36.34941
G1 X34.496 Y98.788 E36.36823
G1 X33.013 Y97.305 E36.41940
G1 X33.013 Y98.077 E36.43823
G1 X33.724 Y98.788 E36.46277
G1 X38.587 Y69.681 F6000.000
G1 X33.013 Y64.106 F1800.000 E36.65501
G1 X33.013 Y63.334 E36.67384
G1 X38.587 Y68.909 E36.86608
G1 X38.587 Y68.137 E36.88491
G1 X33.013 Y62.562 E37.07715
G1 X33.013 Y61.790 E37.09598
G1 X38.587 Y67.364 E37.28822
G1 X38.587 Y66.592 E37.30705
G1 X33.013 Y61.018 E37.49929
G1 X33.013 Y60.246 E37.51812
G1 X38.587 Y65.820 E37.71036
G1 X38.587 Y65.048 E37.72919
G1 X33.013 Y59.474 E37.92143
G1 X33.013 Y58.702 E37.94026
G1 X38.587 Y64.276 E38.13250
G1 X38.587 Y63.504 E38.15133
G1 X33.013 Y57.930 E38.34357
G1 X33.013 Y57.158 E38.36240
G1 X38.587 Y62.732 E38.55464
G1 X38.587 Y61.960 E38.57347
G1 X33.013 Y56.386 E38.76571
G1 X33.013 Y55.614 E38.78454
G1 X38.587 Y61.188 E38.97678
G1 X38.587 Y60.416 E38.99561
G1 X33.013 Y54.842 E39.18785
G1 X33.013 Y54.070 E39.20668
G1 X38.587 Y59.644 E39.39892
G1 X38.587 Y58.872 E39.41775
G1 X33.013 Y53.298 E39.60999
G1 X33.013 Y52.526 E39.62882
G1 X38.587 Y58.100 E39.82106
G1 X38.587 Y57.328 E39.83989
G1 X33.013 Y51.753 E40.03213
G1 X33.243 Y51.212 E40.04648
G1 X38.587 Y56.556 E40.23078
G1 X38.587 Y55.784 E40.24961
G1 X34.015 Y51.212 E40.40728
G1 X34.787 Y51.212 E40.42610
G1 X38.587 Y55.012 E40.55715
G1 X38.587 Y54.240 E40.57598
G1 X35.559 Y51.212 E40.68040
G1 X36.331 Y51.212 E40.69922
G1 X38.587 Y53.468 E40.77702
G1 X38.587 Y52.695 E40.79584
G1 X37.104 Y51.212 E40.84701
G1 X37.876 Y51.212 E40.86584
G1 X38.587 Y51.923 E40.89038
G1 X51.356 Y79.786 F6000.000
G1 X50.645 Y79.075 F1800.000 E40.91487
G1 X50.645 Y78.304 E40.93365
G1 X52.128 Y79.786 E40.98471
G1 X52.899 Y79.786 E41.00350
G1 X50.645 Y77.532 E41.08113
G1 X50.645 Y76.761 E41.09992
G1 X53.670 Y79.786 E41.20411
G1 X54.442 Y79.786 E41.22290
G1 X50.645 Y75.990 E41.35367
G1 X50.645 Y75.218 E41.37246
G1 X55.213 Y79.786 E41.52979
G1 X55.985 Y79.786 E41.54858
G1 X50.645 Y74.447 E41.73249
G1 X50.645 Y73.675 E41.75128
G1 X56.756 Y79.786 E41.96175
G1 X57.527 Y79.786 E41.98054
G1 X50.645 Y72.904 E42.21759
G1 X50.645 Y72.133 E42.23638
G1 X58.299 Y79.786 E42.49999
G1 X59.070 Y79.786 E42.51878
G1 X50.645 Y71.361 E42.80897
G1 X50.645 Y70.590 E42.82776
G1 X59.842 Y79.786 E43.14451
G1 X60.613 Y79.786 E43.16330
G1 X51.039 Y70.212 E43.49308
G1 X51.810 Y70.212 E43.51186
G1 X61.384 Y79.786 E43.84164
G1 X62.156 Y79.786 E43.86043
G1 X52.581 Y70.212 E44.19020
G1 X53.353 Y70.212 E44.20899
G1 X62.927 Y79.786 E44.53877
G1 X63.699 Y79.786 E44.55756
G1 X54.124 Y70.212 E44.88733
G1 X54.896 Y70.212 E44.90612
G1 X64.470 Y79.786 E45.23590
G1 X65.241 Y79.786 E45.25468
G1 X55.667 Y70.212 E45.58446
G1 X56.438 Y70.212 E45.60325
G1 X66.013 Y79.786 E45.93302
G1 X66.784 Y79.786 E45.95181
G1 X57.210 Y70.212 E46.28159
G1 X57.981 Y70.212 E46.30037
G1 X67.556 Y79.786 E46.63015
G1 X68.327 Y79.786 E46.64894
G1 X58.753 Y70.212 E46.97871
G1 X59.524 Y70.212 E46.99750
G1 X69.098 Y79.786 E47.32728
G1 X69.870 Y79.786 E47.34606
G1 X60.295 Y70.212 E47.67584
G1 X61.067 Y70.212 E47.69463
G1 X70.641 Y79.786 E48.02440
G1 X71.413 Y79.786 E48.04319
G1 X61.838 Y70.212 E48.37297
G1 X62.610 Y70.212 E48.39176
G1 X72.184 Y79.786 E48.72153
G1 X72.955 Y79.786 E48.74032
G1 X63.381 Y70.212 E49.07010
G1 X64.152 Y70.212 E49.08888
G1 X73.727 Y79.786 E49.41866
G1 X74.498 Y79.786 E49.43745
G1 X64.924 Y70.212 E49.76722
G1 X65.695 Y70.212 E49.78601
G1 X75.270 Y79.786 E50.11579
G1 X76.041 Y79.786 E50.13457
G1 X66.467 Y70.212 E50.46435
G1 X67.238 Y70.212 E50.48314
G1 X76.812 Y79.786 E50.81291
G1 X77.584 Y79.786 E50.83170
G1 X68.009 Y70.212 E51.16148
G1 X68.781 Y70.212 E51.18027
G1 X78.355 Y79.786 E51.51004
G1 X79.127 Y79.786 E51.52883
G1 X69.552 Y70.212 E51.85860
G1 X70.324 Y70.212 E51.87739
G1 X79.898 Y79.786 E52.20717
G1 X80.669 Y79.786 E52.22596
G1 X71.095 Y70.212 E52.55573
G1 X71.866 Y70.212 E52.57452
G1 X81.441 Y79.786 E52.90430
G1 X82.212 Y79.786 E52.92308
G1 X72.638 Y70.212 E53.25286
G1 X73.409 Y70.212 E53.27165
G1 X82.984 Y79.786 E53.60142
G1 X83.755 Y79.786 E53.62021
G1 X74.181 Y70.212 E53.94999
G1 X74.952 Y70.212 E53.96877
G1 X84.526 Y79.786 E54.29855
G1 X85.298 Y79.786 E54.31734
G1 X75.723 Y70.212 E54.64711
G1 X76.495 Y70.212 E54.66590
G1 X86.069 Y79.786 E54.99568
G1 X86.841 Y79.786 E55.01447
G1 X77.266 Y70.212 E55.34424
G1 X78.038 Y70.212 E55.36303
G1 X87.612 Y79.786 E55.69280
G1 X88.383 Y79.786 E55.71159
G1 X78.809 Y70.212 E56.04137
G1 X79.580 Y70.212 E56.06016
G1 X89.155 Y79.786 E56.38993
G1 X89.926 Y79.786 E56.40872
G1 X80.352 Y70.212 E56.73850
G1 X81.123 Y70.212 E56.75728
G1 X90.698 Y79.786 E57.08706
G1 X91.469 Y79.786 E57.10585
G1 X81.895 Y70.212 E57.43562
G1 X82.666 Y70.212 E57.45441
G1 X92.240 Y79.786 E57.78419
G1 X93.012 Y79.786 E57.80297
G1 X83.437 Y70.212 E58.13275
G1 X84.209 Y70.212 E58.15154
G1 X93.783 Y79.786 E58.48131
G1 X94.555 Y79.786 E58.50010
G1 X84.980 Y70.212 E58.82988
G1 X85.752 Y70.212 E58.84867
G1 X95.326 Y79.786 E59.17844
G1 X96.097 Y79.786 E59.19723
G1 X86.523 Y70.212 E59.52700
G1 X87.294 Y70.212 E59.54579
G1 X96.869 Y79.786 E59.87557
G1 X97.640 Y79.786 E59.89436
G1 X88.066 Y70.212 E60.22413
G1 X88.837 Y70.212 E60.24292
G1 X98.412 Y79.786 E60.57270
G1 X99.183 Y79.786 E60.59148
G1 X89.609 Y70.212 E60.92126
G1 X90.380 Y70.212 E60.94005
G1 X99.954 Y79.786 E61.26982
